P3
129 129
255
113 171 216 113 171 216 113 171 216 113 171 216 113 171 216 113 171 216 113 171 216 113 171 216 244 243 242 113 171 216 113 171 216 113 171 216 244 243 242 113 171 216 244 243 242 244 243 242 244 243 242 244 243 242 244 243 242 113 171 216 244 243 242 113 171 216 113 171 216 113 171 216 113 171 216 113 171 216 113 171 216 113 171 216 244 243 242 244 243 242 244 243 242 244 243 242 244 243 242 244 243 242 244 243 242 244 243 242 244 243 242 244 243 242 244 243 242 244 243 242 244 243 242 244 243 242 244 243 242 244 243 242 244 243 242 244 243 242 244 243 242 244 243 242 244 243 242 244 243 242 244 243 242 244 243 242 244 243 242 244 243 242 244 243 242 244 243 242 244 243 242 244 243 242 244 243 242 244 243 242 244 243 242 244 243 242 244 243 242 244 243 242 244 243 242 244 243 242 244 243 242 244 243 242 244 243 242 244 243 242 244 243 242 244 243 242 244 243 242 244 243 242 244 243 242 244 243 242 244 243 242 113 171 216 244 243 242 244 243 242 244 243 242 244 243 242 244 243 242 113 171 216 244 243 242 113 171 216 244 243 242 244 243 242 244 243 242 244 243 242 244 243 242 113 171 216 244 243 242 113 171 216 244 243 242 244 243 242 244 243 242 244 243 242 244 243 242 113 171 216 244 243 242 113 171 216 113 171 216 113 171 216 244 243 242 113 171 216 113 171 216 113 171 216 244 243 242 113 171 216 244 243 242 244 243 242 244 243 242 113 171 216 113 171 216 113 171 216 113 171 216 113 171 216 113 171 216 113 171 216 113 171 216 113 171 216 113 171 216 113 171 216 113 171 216 113 171 216 113 171 216 113 171 216 113 171 216 
113 171 216 113 171 216 113 171 216 113 171 216 113 171 216 113 171 216 113 171 216 113 171 216 113 171 216 56 85 108 113 171 216 113 171 216 113 171 216 56 85 108 113 171 216 244 243 242 244 243 242 122 121 121 56 85 108 56 85 108 113 171 216 56 85 108 113 171 216 113 171 216 113 171 216 113 171 216 113 171 216 113 171 216 113 171 216 244 243 242 56 85 108 244 243 242 244 243 242 122 121 121 56 85 108 244 243 242 244 243 242 122 121 121 244 243 242 122 121 121 244 243 242 122 121 121 244 243 242 244 243 242 244 243 242 122 121 121 244 243 242 244 243 242 244 243 242 122 121 121 122 121 121 122 121 121 244 243 242 122 121 121 122 121 121 244 243 242 244 243 242 122 121 121 244 243 242 122 121 121 122 121 121 122 121 121 244 243 242 122 121 121 244 243 242 122 121 121 122 121 121 122 121 121 244 243 242 122 121 121 122 121 121 122 121 121 244 243 242 122 121 121 122 121 121 122 121 121 56 85 108 56 85 108 113 171 216 244 243 242 244 243 242 122 121 121 56 85 108 56 85 108 113 171 216 56 85 108 113 171 216 244 243 242 244 243 242 122 121 121 56 85 108 56 85 108 113 171 216 56 85 108 113 171 216 244 243 242 244 243 242 122 121 121 56 85 108 56 85 108 113 171 216 56 85 108 113 171 216 113 171 216 113 171 216 56 85 108 113 171 216 113 171 216 113 171 216 56 85 108 113 171 216 56 85 108 56 85 108 56 85 108 113 171 216 113 171 216 113 171 216 113 171 216 113 171 216 113 171 216 113 171 216 113 171 216 113 171 216 113 171 216 113 171 216 113 171 216 113 171 216 113 171 216 113 171 216 
113 171 216 113 171 216 113 171 216 113 171 216 113 171 216 113 171 216 113 171 216 113 171 216 113 171 216 113 171 216 113 171 216 113 171 216 113 171 216 113 171 216 244 243 242 113 171 216 244 243 242 56 85 108 244 243 242 113 171 216 113 171 216 113 171 216 113 171 216 113 171 216 113 171 216 113 171 216 113 171 216 113 171 216 244 243 242 113 171 216 244 243 242 113 171 216 244 243 242 56 85 108 244 243 242 113 171 216 244 243 242 244 243 242 244 243 242 244 243 242 244 243 242 122 121 121 244 243 242 122 121 121 244 243 242 244 243 242 244 243 242 122 121 121 244 243 242 122 121 121 244 243 242 122 121 121 244 243 242 122 121 121 244 243 242 244 243 242 244 243 242 244 243 242 244 243 242 244 243 242 244 243 242 244 243 242 244 243 242 122 121 121 244 243 242 122 121 121 244 243 242 122 121 121 244 243 242 122 121 121 244 243 242 244 243 242 244 243 242 122 121 121 244 243 242 244 243 242 244 243 242 113 171 216 244 243 242 113 171 216 244 243 242 56 85 108 244 243 242 113 171 216 113 171 216 113 171 216 244 243 242 113 171 216 244 243 242 56 85 108 244 243 242 113 171 216 244 243 242 113 171 216 244 243 242 113 171 216 244 243 242 56 85 108 244 243 242 113 171 216 113 171 216 113 171 216 113 171 216 113 171 216 113 171 216 113 171 216 113 171 216 113 171 216 113 171 216 113 171 216 244 243 242 113 171 216 113 171 216 113 171 216 113 171 216 113 171 216 113 171 216 113 171 216 113 171 216 113 171 216 113 171 216 113 171 216 113 171 216 113 171 216 113 171 216 113 171 216 113 171 216 113 171 216 113 171 216 
113 171 216 113 171 216 113 171 216 113 171 216 113 171 216 113 171 216 113 171 216 113 171 216 113 171 216 113 171 216 113 171 216 113 171 216 113 171 216 113 171 216 113 171 216 56 85 108 113 171 216 56 85 108 113 171 216 56 85 108 113 171 216 113 171 216 113 171 216 113 171 216 113 171 216 113 171 216 113 171 216 113 171 216 113 171 216 56 85 108 113 171 216 56 85 108 113 171 216 56 85 108 113 171 216 56 85 108 113 171 216 244 243 242 56 85 108 244 243 242 244 243 242 244 243 242 244 243 242 244 243 242 244 243 242 244 243 242 122 121 121 122 121 121 244 243 242 122 121 121 244 243 242 122 121 121 244 243 242 122 121 121 244 243 242 122 121 121 244 243 242 244 243 242 244 243 242 244 243 242 244 243 242 122 121 121 244 243 242 122 121 121 244 243 242 122 121 121 244 243 242 122 121 121 244 243 242 122 121 121 244 243 242 122 121 121 122 121 121 122 121 121 244 243 242 122 121 121 244 243 242 244 243 242 113 171 216 244 243 242 113 171 216 56 85 108 113 171 216 56 85 108 113 171 216 113 171 216 113 171 216 56 85 108 113 171 216 56 85 108 113 171 216 56 85 108 113 171 216 56 85 108 113 171 216 56 85 108 113 171 216 56 85 108 113 171 216 56 85 108 113 171 216 113 171 216 113 171 216 113 171 216 113 171 216 113 171 216 113 171 216 113 171 216 113 171 216 113 171 216 113 171 216 56 85 108 113 171 216 113 171 216 113 171 216 113 171 216 113 171 216 113 171 216 113 171 216 113 171 216 113 171 216 113 171 216 113 171 216 113 171 216 113 171 216 113 171 216 113 171 216 113 171 216 113 171 216 
113 171 216 113 171 216 113 171 216 113 171 216 113 171 216 113 171 216 113 171 216 113 171 216 113 171 216 113 171 216 113 171 216 113 171 216 244 243 242 113 171 216 113 171 216 113 171 216 244 243 242 113 171 216 113 171 216 113 171 216 113 171 216 113 171 216 113 171 216 113 171 216 113 171 216 113 171 216 113 171 216 113 171 216 244 243 242 113 171 216 113 171 216 113 171 216 244 243 242 113 171 216 113 171 216 113 171 216 244 243 242 113 171 216 244 243 242 244 243 242 244 243 242 244 243 242 244 243 242 122 121 121 244 243 242 122 121 121 244 243 242 244 243 242 244 243 242 244 243 242 244 243 242 244 243 242 244 243 242 244 243 242 244 243 242 244 243 242 244 243 242 244 243 242 244 243 242 244 243 242 244 243 242 244 243 242 244 243 242 122 121 121 244 243 242 122 121 121 244 243 242 244 243 242 244 243 242 244 243 242 244 243 242 122 121 121 244 243 242 244 243 242 244 243 242 56 85 108 244 243 242 56 85 108 244 243 242 113 171 216 244 243 242 113 171 216 113 171 216 113 171 216 244 243 242 113 171 216 113 171 216 113 171 216 244 243 242 113 171 216 113 171 216 113 171 216 244 243 242 113 171 216 113 171 216 113 171 216 244 243 242 113 171 216 113 171 216 113 171 216 244 243 242 113 171 216 113 171 216 113 171 216 113 171 216 113 171 216 113 171 216 113 171 216 244 243 242 113 171 216 113 171 216 113 171 216 113 171 216 113 171 216 113 171 216 113 171 216 113 171 216 113 171 216 113 171 216 113 171 216 113 171 216 113 171 216 113 171 216 113 171 216 113 171 216 113 171 216 113 171 216 113 171 216 113 171 216 
113 171 216 113 171 216 113 171 216 113 171 216 113 171 216 113 171 216 113 171 216 113 171 216 113 171 216 113 171 216 113 171 216 113 171 216 113 171 216 56 85 108 113 171 216 113 171 216 113 171 216 56 85 108 113 171 216 113 171 216 113 171 216 113 171 216 113 171 216 113 171 216 113 171 216 113 171 216 113 171 216 113 171 216 113 171 216 56 85 108 113 171 216 113 171 216 113 171 216 56 85 108 113 171 216 113 171 216 113 171 216 56 85 108 113 171 216 244 243 242 244 243 242 122 121 121 244 243 242 122 121 121 244 243 242 122 121 121 244 243 242 122 121 121 244 243 242 122 121 121 244 243 242 244 243 242 244 243 242 122 121 121 56 85 108 244 243 242 244 243 242 122 121 121 244 243 242 244 243 242 244 243 242 122 121 121 122 121 121 122 121 121 244 243 242 122 121 121 244 243 242 244 243 242 244 243 242 122 121 121 122 121 121 122 121 121 244 243 242 122 121 121 56 85 108 56 85 108 113 171 216 56 85 108 113 171 216 56 85 108 113 171 216 56 85 108 113 171 216 113 171 216 113 171 216 56 85 108 113 171 216 113 171 216 113 171 216 56 85 108 113 171 216 113 171 216 113 171 216 56 85 108 113 171 216 113 171 216 113 171 216 56 85 108 113 171 216 113 171 216 113 171 216 56 85 108 113 171 216 113 171 216 113 171 216 113 171 216 113 171 216 113 171 216 113 171 216 56 85 108 113 171 216 113 171 216 113 171 216 113 171 216 113 171 216 113 171 216 113 171 216 113 171 216 113 171 216 113 171 216 113 171 216 113 171 216 113 171 216 113 171 216 113 171 216 113 171 216 113 171 216 113 171 216 113 171 216 
113 171 216 113 171 216 113 171 216 113 171 216 113 171 216 113 171 216 113 171 216 113 171 216 113 171 216 113 171 216 113 171 216 113 171 216 113 171 216 113 171 216 113 171 216 113 171 216 113 171 216 113 171 216 113 171 216 113 171 216 113 171 216 113 171 216 113 171 216 113 171 216 113 171 216 113 171 216 113 171 216 113 171 216 113 171 216 113 171 216 113 171 216 113 171 216 113 171 216 113 171 216 244 243 242 113 171 216 113 171 216 113 171 216 244 243 242 244 243 242 244 243 242 244 243 242 244 243 242 244 243 242 244 243 242 56 85 108 244 243 242 56 85 108 244 243 242 244 243 242 244 243 242 56 85 108 244 243 242 56 85 108 244 243 242 244 243 242 244 243 242 244 243 242 244 243 242 244 243 242 244 243 242 122 121 121 244 243 242 244 243 242 244 243 242 244 243 242 244 243 242 244 243 242 244 243 242 122 121 121 244 243 242 244 243 242 244 243 242 244 243 242 244 243 242 113 171 216 113 171 216 113 171 216 113 171 216 113 171 216 113 171 216 113 171 216 113 171 216 113 171 216 113 171 216 113 171 216 113 171 216 113 171 216 113 171 216 113 171 216 113 171 216 113 171 216 113 171 216 113 171 216 244 243 242 113 171 216 113 171 216 113 171 216 113 171 216 113 171 216 113 171 216 113 171 216 113 171 216 113 171 216 113 171 216 113 171 216 113 171 216 113 171 216 113 171 216 113 171 216 113 171 216 113 171 216 113 171 216 113 171 216 113 171 216 113 171 216 113 171 216 113 171 216 113 171 216 113 171 216 113 171 216 113 171 216 113 171 216 113 171 216 113 171 216 113 171 216 113 171 216 113 171 216 113 171 216 
113 171 216 113 171 216 113 171 216 113 171 216 113 171 216 113 171 216 113 171 216 113 171 216 113 171 216 113 171 216 113 171 216 113 171 216 113 171 216 113 171 216 113 171 216 113 171 216 113 171 216 113 171 216 113 171 216 113 171 216 113 171 216 113 171 216 113 171 216 113 171 216 113 171 216 113 171 216 113 171 216 113 171 216 113 171 216 113 171 216 113 171 216 113 171 216 113 171 216 244 243 242 113 171 216 56 85 108 113 171 216 113 171 216 113 171 216 244 243 242 244 243 242 244 243 242 244 243 242 122 121 121 56 85 108 56 85 108 113 171 216 244 243 242 244 243 242 244 243 242 56 85 108 56 85 108 113 171 216 56 85 108 113 171 216 244 243 242 244 243 242 244 243 242 244 243 242 244 243 242 244 243 242 244 243 242 244 243 242 122 121 121 244 243 242 244 243 242 244 243 242 244 243 242 122 121 121 122 121 121 244 243 242 122 121 121 244 243 242 244 243 242 56 85 108 56 85 108 113 171 216 113 171 216 113 171 216 113 171 216 113 171 216 113 171 216 113 171 216 113 171 216 113 171 216 113 171 216 113 171 216 113 171 216 113 171 216 113 171 216 113 171 216 113 171 216 113 171 216 113 171 216 113 171 216 56 85 108 113 171 216 113 171 216 113 171 216 113 171 216 113 171 216 113 171 216 113 171 216 113 171 216 113 171 216 113 171 216 113 171 216 113 171 216 113 171 216 113 171 216 113 171 216 113 171 216 113 171 216 113 171 216 113 171 216 113 171 216 113 171 216 113 171 216 113 171 216 113 171 216 113 171 216 113 171 216 113 171 216 113 171 216 113 171 216 113 171 216 113 171 216 113 171 216 113 171 216 
0 401 0 113 171 216 113 171 216 113 171 216 113 171 216 113 171 216 113 171 216 113 171 216 113 171 216 113 171 216 113 171 216 113 171 216 113 171 216 113 171 216 113 171 216 113 171 216 113 171 216 113 171 216 113 171 216 113 171 216 113 171 216 113 171 216 113 171 216 113 171 216 113 171 216 113 171 216 113 171 216 113 171 216 113 171 216 113 171 216 113 171 216 113 171 216 244 243 242 113 171 216 244 243 242 113 171 216 244 243 242 113 171 216 113 171 216 113 171 216 244 243 242 56 85 108 244 243 242 56 85 108 244 243 242 113 171 216 244 243 242 113 171 216 244 243 242 244 243 242 244 243 242 113 171 216 244 243 242 113 171 216 244 243 242 244 243 242 244 243 242 244 243 242 244 243 242 244 243 242 244 243 242 244 243 242 244 243 242 244 243 242 244 243 242 244 243 242 244 243 242 244 243 242 244 243 242 244 243 242 244 243 242 244 243 242 244 243 242 56 85 108 56 85 108 113 171 216 113 171 216 113 171 216 113 171 216 113 171 216 113 171 216 113 171 216 113 171 216 113 171 216 113 171 216 113 171 216 113 171 216 113 171 216 113 171 216 113 171 216 113 171 216 113 171 216 244 243 242 113 171 216 244 243 242 113 171 216 244 243 242 113 171 216 113 171 216 113 171 216 113 171 216 113 171 216 113 171 216 113 171 216 244 243 242 113 171 216 113 171 216 113 171 216 244 243 242 113 171 216 113 171 216 113 171 216 113 171 216 113 171 216 113 171 216 113 171 216 113 171 216 113 171 216 113 171 216 113 171 216 113 171 216 113 171 216 113 171 216 113 171 216 113 171 216 113 171 216 113 171 216 113 171 216 113 171 216 
113 171 216 113 171 216 113 171 216 113 171 216 113 171 216 113 171 216 113 171 216 113 171 216 113 171 216 113 171 216 113 171 216 113 171 216 113 171 216 113 171 216 113 171 216 113 171 216 113 171 216 113 171 216 113 171 216 113 171 216 113 171 216 113 171 216 113 171 216 113 171 216 113 171 216 113 171 216 113 171 216 113 171 216 113 171 216 113 171 216 113 171 216 113 171 216 113 171 216 56 85 108 113 171 216 56 85 108 113 171 216 56 85 108 113 171 216 113 171 216 113 171 216 56 85 108 113 171 216 56 85 108 113 171 216 56 85 108 113 171 216 56 85 108 113 171 216 56 85 108 56 85 108 56 85 108 113 171 216 56 85 108 113 171 216 244 243 242 244 243 242 122 121 121 122 121 121 244 243 242 244 243 242 122 121 121 122 121 121 244 243 242 122 121 121 122 121 121 244 243 242 122 121 121 244 243 242 122 121 121 56 85 108 244 243 242 56 85 108 56 85 108 113 171 216 113 171 216 113 171 216 113 171 216 113 171 216 113 171 216 113 171 216 113 171 216 113 171 216 113 171 216 113 171 216 113 171 216 113 171 216 113 171 216 113 171 216 113 171 216 113 171 216 113 171 216 113 171 216 56 85 108 113 171 216 56 85 108 113 171 216 56 85 108 113 171 216 113 171 216 113 171 216 113 171 216 113 171 216 113 171 216 113 171 216 56 85 108 113 171 216 113 171 216 113 171 216 56 85 108 113 171 216 113 171 216 113 171 216 113 171 216 113 171 216 113 171 216 113 171 216 113 171 216 113 171 216 113 171 216 113 171 216 113 171 216 113 171 216 113 171 216 113 171 216 113 171 216 113 171 216 113 171 216 113 171 216 
113 171 216 113 171 216 113 171 216 113 171 216 113 171 216 113 171 216 113 171 216 113 171 216 113 171 216 113 171 216 113 171 216 113 171 216 113 171 216 113 171 216 113 171 216 113 171 216 113 171 216 113 171 216 113 171 216 113 171 216 113 171 216 113 171 216 113 171 216 113 171 216 113 171 216 113 171 216 113 171 216 113 171 216 113 171 216 113 171 216 113 171 216 113 171 216 113 171 216 113 171 216 244 243 242 113 171 216 113 171 216 113 171 216 113 171 216 113 171 216 113 171 216 113 171 216 113 171 216 113 171 216 113 171 216 113 171 216 113 171 216 113 171 216 113 171 216 113 171 216 244 243 242 113 171 216 113 171 216 113 171 216 244 243 242 113 171 216 244 243 242 244 243 242 244 243 242 244 243 242 244 243 242 122 121 121 244 243 242 244 243 242 122 121 121 56 85 108 244 243 242 56 85 108 244 243 242 56 85 108 244 243 242 113 171 216 244 243 242 113 171 216 113 171 216 113 171 216 113 171 216 113 171 216 113 171 216 113 171 216 113 171 216 113 171 216 113 171 216 113 171 216 113 171 216 113 171 216 113 171 216 113 171 216 113 171 216 113 171 216 113 171 216 113 171 216 113 171 216 113 171 216 113 171 216 113 171 216 113 171 216 113 171 216 113 171 216 113 171 216 113 171 216 113 171 216 113 171 216 113 171 216 244 243 242 113 171 216 244 243 242 113 171 216 113 171 216 113 171 216 113 171 216 113 171 216 113 171 216 113 171 216 113 171 216 113 171 216 113 171 216 113 171 216 113 171 216 113 171 216 113 171 216 113 171 216 113 171 216 113 171 216 113 171 216 113 171 216 113 171 216 113 171 216 113 171 216 
113 171 216 113 171 216 113 171 216 113 171 216 113 171 216 113 171 216 113 171 216 113 171 216 113 171 216 113 171 216 113 171 216 113 171 216 113 171 216 113 171 216 113 171 216 113 171 216 113 171 216 113 171 216 113 171 216 113 171 216 113 171 216 113 171 216 113 171 216 113 171 216 113 171 216 113 171 216 113 171 216 113 171 216 113 171 216 113 171 216 113 171 216 113 171 216 113 171 216 113 171 216 113 171 216 56 85 108 113 171 216 113 171 216 113 171 216 113 171 216 113 171 216 113 171 216 113 171 216 113 171 216 113 171 216 113 171 216 113 171 216 113 171 216 113 171 216 113 171 216 113 171 216 56 85 108 113 171 216 113 171 216 113 171 216 56 85 108 113 171 216 244 243 242 244 243 242 122 121 121 244 243 242 122 121 121 244 243 242 122 121 121 56 85 108 56 85 108 113 171 216 56 85 108 113 171 216 56 85 108 113 171 216 56 85 108 113 171 216 56 85 108 113 171 216 113 171 216 113 171 216 113 171 216 113 171 216 113 171 216 113 171 216 113 171 216 113 171 216 113 171 216 113 171 216 113 171 216 113 171 216 113 171 216 113 171 216 113 171 216 113 171 216 113 171 216 113 171 216 113 171 216 113 171 216 113 171 216 113 171 216 113 171 216 113 171 216 113 171 216 113 171 216 113 171 216 113 171 216 113 171 216 113 171 216 56 85 108 113 171 216 56 85 108 113 171 216 113 171 216 113 171 216 113 171 216 113 171 216 113 171 216 113 171 216 113 171 216 113 171 216 113 171 216 113 171 216 113 171 216 113 171 216 113 171 216 113 171 216 113 171 216 113 171 216 113 171 216 113 171 216 113 171 216 113 171 216 
113 171 216 113 171 216 113 171 216 113 171 216 113 171 216 113 171 216 113 171 216 113 171 216 113 171 216 113 171 216 113 171 216 113 171 216 113 171 216 113 171 216 113 171 216 113 171 216 113 171 216 113 171 216 113 171 216 113 171 216 113 171 216 113 171 216 113 171 216 113 171 216 113 171 216 113 171 216 113 171 216 113 171 216 113 171 216 113 171 216 113 171 216 113 171 216 113 171 216 113 171 216 113 171 216 113 171 216 113 171 216 113 171 216 113 171 216 113 171 216 113 171 216 113 171 216 113 171 216 113 171 216 113 171 216 113 171 216 113 171 216 113 171 216 113 171 216 113 171 216 113 171 216 113 171 216 244 243 242 113 171 216 113 171 216 113 171 216 244 243 242 113 171 216 244 243 242 244 243 242 244 243 242 244 243 242 244 243 242 244 243 242 244 243 242 113 171 216 113 171 216 113 171 216 244 243 242 113 171 216 113 171 216 113 171 216 244 243 242 113 171 216 113 171 216 113 171 216 113 171 216 113 171 216 113 171 216 113 171 216 113 171 216 113 171 216 113 171 216 113 171 216 113 171 216 113 171 216 113 171 216 113 171 216 113 171 216 113 171 216 113 171 216 113 171 216 113 171 216 113 171 216 113 171 216 113 171 216 113 171 216 113 171 216 113 171 216 113 171 216 113 171 216 113 171 216 113 171 216 113 171 216 244 243 242 113 171 216 113 171 216 113 171 216 244 243 242 113 171 216 113 171 216 113 171 216 244 243 242 113 171 216 113 171 216 113 171 216 244 243 242 113 171 216 113 171 216 113 171 216 113 171 216 113 171 216 113 171 216 113 171 216 113 171 216 113 171 216 113 171 216 113 171 216 244 243 242 
113 171 216 113 171 216 113 171 216 113 171 216 113 171 216 113 171 216 113 171 216 113 171 216 113 171 216 113 171 216 113 171 216 113 171 216 113 171 216 113 171 216 113 171 216 113 171 216 113 171 216 113 171 216 113 171 216 113 171 216 113 171 216 113 171 216 113 171 216 113 171 216 113 171 216 113 171 216 113 171 216 113 171 216 113 171 216 113 171 216 113 171 216 113 171 216 113 171 216 113 171 216 113 171 216 113 171 216 113 171 216 113 171 216 113 171 216 113 171 216 113 171 216 113 171 216 113 171 216 113 171 216 113 171 216 113 171 216 113 171 216 113 171 216 113 171 216 113 171 216 113 171 216 113 171 216 113 171 216 56 85 108 113 171 216 113 171 216 113 171 216 56 85 108 113 171 216 244 243 242 244 243 242 122 121 121 56 85 108 244 243 242 56 85 108 56 85 108 113 171 216 113 171 216 113 171 216 56 85 108 113 171 216 113 171 216 113 171 216 56 85 108 113 171 216 113 171 216 113 171 216 113 171 216 113 171 216 113 171 216 113 171 216 113 171 216 113 171 216 113 171 216 113 171 216 113 171 216 113 171 216 113 171 216 113 171 216 113 171 216 113 171 216 113 171 216 113 171 216 113 171 216 113 171 216 113 171 216 113 171 216 113 171 216 113 171 216 113 171 216 113 171 216 113 171 216 113 171 216 113 171 216 113 171 216 56 85 108 113 171 216 113 171 216 113 171 216 56 85 108 113 171 216 113 171 216 113 171 216 56 85 108 113 171 216 113 171 216 113 171 216 56 85 108 113 171 216 113 171 216 113 171 216 113 171 216 113 171 216 113 171 216 113 171 216 113 171 216 113 171 216 113 171 216 113 171 216 
113 171 216 113 171 216 113 171 216 113 171 216 113 171 216 113 171 216 113 171 216 113 171 216 113 171 216 113 171 216 113 171 216 113 171 216 113 171 216 113 171 216 113 171 216 113 171 216 113 171 216 113 171 216 113 171 216 113 171 216 113 171 216 113 171 216 113 171 216 113 171 216 113 171 216 113 171 216 113 171 216 113 171 216 113 171 216 113 171 216 113 171 216 113 171 216 113 171 216 113 171 216 113 171 216 113 171 216 113 171 216 113 171 216 113 171 216 113 171 216 113 171 216 113 171 216 113 171 216 113 171 216 113 171 216 113 171 216 113 171 216 113 171 216 113 171 216 113 171 216 113 171 216 113 171 216 113 171 216 113 171 216 113 171 216 113 171 216 113 171 216 113 171 216 244 243 242 113 171 216 244 243 242 56 85 108 244 243 242 244 243 242 244 243 242 113 171 216 244 243 242 113 171 216 113 171 216 113 171 216 113 171 216 113 171 216 113 171 216 113 171 216 113 171 216 113 171 216 113 171 216 113 171 216 113 171 216 113 171 216 113 171 216 113 171 216 113 171 216 113 171 216 113 171 216 113 171 216 113 171 216 113 171 216 113 171 216 113 171 216 113 171 216 113 171 216 113 171 216 113 171 216 113 171 216 113 171 216 113 171 216 113 171 216 113 171 216 113 171 216 113 171 216 113 171 216 113 171 216 113 171 216 113 171 216 113 171 216 113 171 216 113 171 216 113 171 216 113 171 216 244 243 242 113 171 216 244 243 242 113 171 216 113 171 216 113 171 216 113 171 216 113 171 216 113 171 216 113 171 216 113 171 216 113 171 216 113 171 216 113 171 216 113 171 216 113 171 216 244 243 242 113 171 216 244 243 242 
113 171 216 113 171 216 113 171 216 113 171 216 113 171 216 113 171 216 113 171 216 113 171 216 113 171 216 113 171 216 113 171 216 113 171 216 113 171 216 113 171 216 113 171 216 113 171 216 113 171 216 113 171 216 113 171 216 113 171 216 113 171 216 113 171 216 113 171 216 113 171 216 113 171 216 113 171 216 113 171 216 113 171 216 113 171 216 113 171 216 113 171 216 113 171 216 113 171 216 113 171 216 113 171 216 113 171 216 113 171 216 113 171 216 113 171 216 113 171 216 113 171 216 113 171 216 113 171 216 113 171 216 113 171 216 113 171 216 113 171 216 113 171 216 113 171 216 113 171 216 113 171 216 113 171 216 113 171 216 113 171 216 113 171 216 113 171 216 113 171 216 113 171 216 113 171 216 56 85 108 113 171 216 56 85 108 113 171 216 244 243 242 244 243 242 56 85 108 113 171 216 56 85 108 113 171 216 113 171 216 113 171 216 113 171 216 113 171 216 113 171 216 113 171 216 113 171 216 113 171 216 113 171 216 113 171 216 113 171 216 113 171 216 113 171 216 113 171 216 113 171 216 113 171 216 113 171 216 113 171 216 113 171 216 113 171 216 113 171 216 113 171 216 113 171 216 113 171 216 113 171 216 113 171 216 113 171 216 113 171 216 113 171 216 113 171 216 113 171 216 113 171 216 113 171 216 113 171 216 113 171 216 113 171 216 113 171 216 113 171 216 113 171 216 113 171 216 113 171 216 113 171 216 244 243 242 113 171 216 56 85 108 113 171 216 113 171 216 113 171 216 113 171 216 113 171 216 113 171 216 113 171 216 113 171 216 113 171 216 113 171 216 113 171 216 113 171 216 113 171 216 244 243 242 244 243 242 
113 171 216 113 171 216 113 171 216 113 171 216 113 171 216 113 171 216 113 171 216 113 171 216 0 200 0 113 171 216 113 171 216 113 171 216 113 171 216 113 171 216 113 171 216 113 171 216 113 171 216 113 171 216 113 171 216 113 171 216 113 171 216 113 171 216 113 171 216 113 171 216 113 171 216 113 171 216 113 171 216 113 171 216 113 171 216 113 171 216 113 171 216 113 171 216 113 171 216 113 171 216 113 171 216 113 171 216 113 171 216 113 171 216 113 171 216 113 171 216 113 171 216 113 171 216 113 171 216 113 171 216 113 171 216 113 171 216 113 171 216 113 171 216 113 171 216 113 171 216 113 171 216 113 171 216 113 171 216 113 171 216 113 171 216 113 171 216 244 243 242 113 171 216 113 171 216 113 171 216 244 243 242 113 171 216 244 243 242 113 171 216 244 243 242 56 85 108 113 171 216 113 171 216 113 171 216 113 171 216 113 171 216 113 171 216 113 171 216 113 171 216 113 171 216 113 171 216 113 171 216 113 171 216 113 171 216 113 171 216 113 171 216 113 171 216 113 171 216 113 171 216 113 171 216 113 171 216 113 171 216 113 171 216 113 171 216 113 171 216 113 171 216 113 171 216 113 171 216 113 171 216 113 171 216 113 171 216 244 243 242 113 171 216 113 171 216 113 171 216 113 171 216 113 171 216 113 171 216 113 171 216 113 171 216 113 171 216 113 171 216 113 171 216 113 171 216 113 171 216 113 171 216 113 171 216 244 243 242 113 171 216 113 171 216 113 171 216 113 171 216 113 171 216 113 171 216 113 171 216 244 243 242 113 171 216 113 171 216 113 171 216 113 171 216 113 171 216 244 243 242 244 243 242 244 243 242 
113 171 216 113 171 216 113 171 216 113 171 216 113 171 216 113 171 216 113 171 216 113 171 216 113 171 216 113 171 216 113 171 216 113 171 216 113 171 216 113 171 216 113 171 216 113 171 216 113 171 216 113 171 216 113 171 216 113 171 216 113 171 216 113 171 216 113 171 216 113 171 216 113 171 216 113 171 216 113 171 216 113 171 216 113 171 216 113 171 216 113 171 216 113 171 216 113 171 216 113 171 216 113 171 216 113 171 216 113 171 216 113 171 216 113 171 216 113 171 216 113 171 216 113 171 216 113 171 216 113 171 216 113 171 216 113 171 216 113 171 216 113 171 216 113 171 216 113 171 216 113 171 216 113 171 216 113 171 216 113 171 216 113 171 216 113 171 216 113 171 216 56 85 108 113 171 216 113 171 216 113 171 216 56 85 108 113 171 216 56 85 108 113 171 216 56 85 108 113 171 216 113 171 216 113 171 216 113 171 216 113 171 216 113 171 216 113 171 216 113 171 216 113 171 216 113 171 216 113 171 216 113 171 216 113 171 216 113 171 216 113 171 216 113 171 216 113 171 216 113 171 216 113 171 216 113 171 216 113 171 216 113 171 216 113 171 216 113 171 216 113 171 216 113 171 216 113 171 216 113 171 216 113 171 216 113 171 216 113 171 216 56 85 108 113 171 216 113 171 216 113 171 216 113 171 216 113 171 216 113 171 216 113 171 216 113 171 216 113 171 216 113 171 216 113 171 216 113 171 216 113 171 216 113 171 216 244 243 242 122 121 121 113 171 216 113 171 216 113 171 216 113 171 216 113 171 216 113 171 216 113 171 216 56 85 108 113 171 216 113 171 216 113 171 216 113 171 216 113 171 216 244 243 242 244 243 242 
113 171 216 113 171 216 113 171 216 113 171 216 113 171 216 113 171 216 113 171 216 113 171 216 113 171 216 113 171 216 113 171 216 113 171 216 113 171 216 113 171 216 113 171 216 113 171 216 113 171 216 113 171 216 113 171 216 113 171 216 113 171 216 113 171 216 113 171 216 113 171 216 113 171 216 113 171 216 113 171 216 113 171 216 113 171 216 113 171 216 113 171 216 113 171 216 113 171 216 113 171 216 113 171 216 113 171 216 113 171 216 113 171 216 113 171 216 113 171 216 113 171 216 113 171 216 113 171 216 113 171 216 113 171 216 113 171 216 113 171 216 113 171 216 113 171 216 113 171 216 113 171 216 113 171 216 113 171 216 113 171 216 113 171 216 113 171 216 113 171 216 113 171 216 113 171 216 113 171 216 113 171 216 113 171 216 113 171 216 113 171 216 113 171 216 113 171 216 113 171 216 113 171 216 113 171 216 113 171 216 113 171 216 113 171 216 113 171 216 113 171 216 113 171 216 113 171 216 113 171 216 113 171 216 113 171 216 113 171 216 113 171 216 113 171 216 113 171 216 113 171 216 113 171 216 113 171 216 113 171 216 113 171 216 113 171 216 113 171 216 113 171 216 113 171 216 113 171 216 113 171 216 113 171 216 113 171 216 113 171 216 113 171 216 113 171 216 113 171 216 113 171 216 113 171 216 113 171 216 113 171 216 113 171 216 113 171 216 113 171 216 113 171 216 113 171 216 113 171 216 113 171 216 113 171 216 244 243 242 56 85 108 244 243 242 113 171 216 113 171 216 113 171 216 113 171 216 113 171 216 113 171 216 113 171 216 113 171 216 113 171 216 113 171 216 113 171 216 244 243 242 244 243 242 244 243 242 
113 171 216 113 171 216 113 171 216 113 171 216 113 171 216 113 171 216 113 171 216 113 171 216 113 171 216 113 171 216 113 171 216 113 171 216 113 171 216 113 171 216 113 171 216 113 171 216 113 171 216 113 171 216 113 171 216 113 171 216 113 171 216 113 171 216 113 171 216 113 171 216 113 171 216 113 171 216 113 171 216 113 171 216 113 171 216 113 171 216 113 171 216 113 171 216 113 171 216 113 171 216 113 171 216 113 171 216 113 171 216 113 171 216 113 171 216 113 171 216 113 171 216 113 171 216 113 171 216 113 171 216 113 171 216 113 171 216 113 171 216 113 171 216 113 171 216 113 171 216 113 171 216 113 171 216 113 171 216 113 171 216 113 171 216 113 171 216 113 171 216 113 171 216 113 171 216 113 171 216 113 171 216 113 171 216 113 171 216 113 171 216 113 171 216 113 171 216 113 171 216 113 171 216 113 171 216 113 171 216 113 171 216 113 171 216 113 171 216 113 171 216 113 171 216 113 171 216 113 171 216 113 171 216 113 171 216 113 171 216 113 171 216 113 171 216 113 171 216 113 171 216 113 171 216 113 171 216 113 171 216 113 171 216 113 171 216 113 171 216 113 171 216 113 171 216 113 171 216 113 171 216 113 171 216 113 171 216 113 171 216 113 171 216 113 171 216 113 171 216 113 171 216 113 171 216 113 171 216 113 171 216 113 171 216 113 171 216 113 171 216 113 171 216 113 171 216 113 171 216 113 171 216 113 171 216 113 171 216 56 85 108 113 171 216 56 85 108 113 171 216 113 171 216 113 171 216 113 171 216 113 171 216 113 171 216 113 171 216 113 171 216 113 171 216 113 171 216 113 171 216 244 243 242 244 243 242 
113 171 216 113 171 216 113 171 216 113 171 216 113 171 216 113 171 216 113 171 216 113 171 216 113 171 216 113 171 216 113 171 216 113 171 216 113 171 216 113 171 216 113 171 216 113 171 216 113 171 216 113 171 216 113 171 216 113 171 216 113 171 216 113 171 216 113 171 216 113 171 216 113 171 216 113 171 216 113 171 216 113 171 216 113 171 216 113 171 216 113 171 216 113 171 216 113 171 216 113 171 216 113 171 216 113 171 216 113 171 216 113 171 216 113 171 216 113 171 216 113 171 216 113 171 216 113 171 216 113 171 216 113 171 216 113 171 216 113 171 216 113 171 216 113 171 216 113 171 216 113 171 216 113 171 216 113 171 216 113 171 216 113 171 216 113 171 216 113 171 216 113 171 216 113 171 216 113 171 216 113 171 216 113 171 216 113 171 216 113 171 216 113 171 216 113 171 216 113 171 216 113 171 216 113 171 216 113 171 216 113 171 216 113 171 216 113 171 216 113 171 216 113 171 216 113 171 216 113 171 216 113 171 216 113 171 216 113 171 216 113 171 216 113 171 216 113 171 216 113 171 216 113 171 216 113 171 216 113 171 216 113 171 216 113 171 216 113 171 216 113 171 216 113 171 216 113 171 216 113 171 216 113 171 216 113 171 216 113 171 216 113 171 216 113 171 216 113 171 216 113 171 216 113 171 216 113 171 216 113 171 216 113 171 216 113 171 216 113 171 216 113 171 216 113 171 216 113 171 216 113 171 216 113 171 216 244 243 242 113 171 216 113 171 216 113 171 216 244 243 242 113 171 216 113 171 216 113 171 216 244 243 242 113 171 216 244 243 242 244 243 242 244 243 242 113 171 216 244 243 242 244 243 242 244 243 242 
113 171 216 113 171 216 113 171 216 113 171 216 113 171 216 113 171 216 113 171 216 113 171 216 113 171 216 113 171 216 113 171 216 113 171 216 113 171 216 113 171 216 113 171 216 113 171 216 113 171 216 113 171 216 113 171 216 113 171 216 113 171 216 113 171 216 113 171 216 113 171 216 113 171 216 113 171 216 113 171 216 113 171 216 113 171 216 113 171 216 113 171 216 113 171 216 113 171 216 113 171 216 113 171 216 113 171 216 113 171 216 113 171 216 113 171 216 113 171 216 113 171 216 113 171 216 113 171 216 113 171 216 113 171 216 113 171 216 113 171 216 113 171 216 113 171 216 113 171 216 113 171 216 113 171 216 113 171 216 113 171 216 113 171 216 113 171 216 113 171 216 113 171 216 113 171 216 113 171 216 113 171 216 113 171 216 113 171 216 113 171 216 113 171 216 113 171 216 113 171 216 113 171 216 113 171 216 113 171 216 113 171 216 113 171 216 113 171 216 113 171 216 113 171 216 113 171 216 113 171 216 113 171 216 113 171 216 113 171 216 113 171 216 113 171 216 113 171 216 113 171 216 113 171 216 113 171 216 113 171 216 113 171 216 113 171 216 113 171 216 113 171 216 113 171 216 113 171 216 113 171 216 113 171 216 113 171 216 113 171 216 113 171 216 113 171 216 113 171 216 113 171 216 113 171 216 113 171 216 113 171 216 113 171 216 113 171 216 113 171 216 113 171 216 113 171 216 113 171 216 113 171 216 113 171 216 113 171 216 56 85 108 113 171 216 113 171 216 113 171 216 56 85 108 113 171 216 113 171 216 113 171 216 244 243 242 244 243 242 244 243 242 244 243 242 122 121 121 244 243 242 244 243 242 244 243 242 
113 171 216 113 171 216 113 171 216 113 171 216 113 171 216 113 171 216 113 171 216 113 171 216 113 171 216 113 171 216 113 171 216 113 171 216 113 171 216 113 171 216 113 171 216 113 171 216 113 171 216 113 171 216 113 171 216 113 171 216 113 171 216 113 171 216 113 171 216 113 171 216 113 171 216 113 171 216 113 171 216 113 171 216 113 171 216 113 171 216 113 171 216 113 171 216 113 171 216 113 171 216 113 171 216 113 171 216 113 171 216 113 171 216 113 171 216 113 171 216 113 171 216 113 171 216 113 171 216 113 171 216 113 171 216 113 171 216 113 171 216 113 171 216 113 171 216 113 171 216 113 171 216 113 171 216 113 171 216 113 171 216 113 171 216 113 171 216 113 171 216 113 171 216 113 171 216 113 171 216 113 171 216 113 171 216 113 171 216 113 171 216 113 171 216 113 171 216 113 171 216 113 171 216 113 171 216 113 171 216 113 171 216 113 171 216 113 171 216 113 171 216 113 171 216 113 171 216 113 171 216 113 171 216 113 171 216 113 171 216 113 171 216 113 171 216 113 171 216 113 171 216 113 171 216 113 171 216 113 171 216 113 171 216 113 171 216 113 171 216 113 171 216 113 171 216 113 171 216 113 171 216 113 171 216 113 171 216 113 171 216 113 171 216 113 171 216 113 171 216 113 171 216 113 171 216 113 171 216 113 171 216 113 171 216 113 171 216 113 171 216 113 171 216 113 171 216 113 171 216 113 171 216 113 171 216 113 171 216 113 171 216 113 171 216 113 171 216 113 171 216 113 171 216 244 243 242 113 171 216 244 243 242 244 243 242 244 243 242 244 243 242 244 243 242 244 243 242 244 243 242 244 243 242 244 243 242 
113 171 216 113 171 216 113 171 216 113 171 216 113 171 216 113 171 216 113 171 216 113 171 216 113 171 216 113 171 216 113 171 216 113 171 216 113 171 216 113 171 216 113 171 216 113 171 216 113 171 216 113 171 216 113 171 216 113 171 216 113 171 216 113 171 216 113 171 216 113 171 216 113 171 216 113 171 216 113 171 216 113 171 216 113 171 216 113 171 216 113 171 216 113 171 216 113 171 216 113 171 216 113 171 216 113 171 216 113 171 216 113 171 216 113 171 216 113 171 216 113 171 216 113 171 216 113 171 216 113 171 216 113 171 216 113 171 216 113 171 216 113 171 216 113 171 216 113 171 216 113 171 216 113 171 216 113 171 216 113 171 216 113 171 216 113 171 216 113 171 216 113 171 216 113 171 216 113 171 216 113 171 216 113 171 216 113 171 216 113 171 216 113 171 216 113 171 216 113 171 216 113 171 216 113 171 216 113 171 216 113 171 216 113 171 216 113 171 216 113 171 216 113 171 216 113 171 216 113 171 216 113 171 216 113 171 216 113 171 216 113 171 216 113 171 216 113 171 216 113 171 216 113 171 216 113 171 216 113 171 216 113 171 216 113 171 216 113 171 216 113 171 216 113 171 216 113 171 216 113 171 216 113 171 216 113 171 216 113 171 216 113 171 216 113 171 216 113 171 216 113 171 216 113 171 216 113 171 216 113 171 216 113 171 216 113 171 216 113 171 216 113 171 216 113 171 216 113 171 216 113 171 216 113 171 216 113 171 216 113 171 216 113 171 216 113 171 216 113 171 216 113 171 216 113 171 216 244 243 242 244 243 242 244 243 242 244 243 242 244 243 242 244 243 242 244 243 242 244 243 242 244 243 242 244 243 242 
0 401 0 113 171 216 113 171 216 113 171 216 0 200 0 113 171 216 113 171 216 113 171 216 0 200 0 113 171 216 113 171 216 113 171 216 113 171 216 113 171 216 113 171 216 113 171 216 113 171 216 113 171 216 113 171 216 113 171 216 113 171 216 113 171 216 113 171 216 113 171 216 113 171 216 113 171 216 113 171 216 113 171 216 113 171 216 113 171 216 113 171 216 113 171 216 113 171 216 113 171 216 113 171 216 113 171 216 113 171 216 113 171 216 0 200 0 113 171 216 0 200 0 113 171 216 113 171 216 113 171 216 113 171 216 113 171 216 113 171 216 113 171 216 0 200 0 113 171 216 113 171 216 113 171 216 113 171 216 113 171 216 113 171 216 113 171 216 113 171 216 113 171 216 113 171 216 113 171 216 113 171 216 113 171 216 113 171 216 113 171 216 113 171 216 113 171 216 113 171 216 113 171 216 113 171 216 113 171 216 113 171 216 113 171 216 113 171 216 113 171 216 113 171 216 113 171 216 113 171 216 113 171 216 113 171 216 113 171 216 113 171 216 113 171 216 113 171 216 113 171 216 113 171 216 113 171 216 113 171 216 113 171 216 113 171 216 113 171 216 113 171 216 113 171 216 113 171 216 113 171 216 113 171 216 113 171 216 113 171 216 113 171 216 113 171 216 113 171 216 113 171 216 113 171 216 113 171 216 113 171 216 113 171 216 113 171 216 113 171 216 113 171 216 113 171 216 113 171 216 113 171 216 113 171 216 113 171 216 113 171 216 113 171 216 113 171 216 113 171 216 113 171 216 113 171 216 244 243 242 244 243 242 244 243 242 244 243 242 244 243 242 244 243 242 244 243 242 244 243 242 244 243 242 244 243 242 
0 401 0 0 401 0 113 171 216 113 171 216 113 171 216 113 171 216 113 171 216 113 171 216 113 171 216 113 171 216 113 171 216 113 171 216 113 171 216 113 171 216 113 171 216 113 171 216 113 171 216 113 171 216 113 171 216 113 171 216 113 171 216 113 171 216 113 171 216 113 171 216 113 171 216 113 171 216 113 171 216 113 171 216 113 171 216 113 171 216 113 171 216 113 171 216 113 171 216 113 171 216 113 171 216 113 171 216 113 171 216 113 171 216 113 171 216 0 401 0 113 171 216 113 171 216 113 171 216 113 171 216 113 171 216 113 171 216 113 171 216 113 171 216 113 171 216 113 171 216 113 171 216 113 171 216 113 171 216 113 171 216 113 171 216 113 171 216 113 171 216 113 171 216 113 171 216 113 171 216 113 171 216 113 171 216 113 171 216 113 171 216 113 171 216 113 171 216 113 171 216 113 171 216 113 171 216 113 171 216 113 171 216 113 171 216 113 171 216 113 171 216 113 171 216 113 171 216 113 171 216 113 171 216 113 171 216 113 171 216 113 171 216 113 171 216 113 171 216 113 171 216 113 171 216 113 171 216 113 171 216 113 171 216 113 171 216 113 171 216 113 171 216 113 171 216 113 171 216 113 171 216 113 171 216 113 171 216 113 171 216 113 171 216 113 171 216 113 171 216 113 171 216 113 171 216 113 171 216 113 171 216 113 171 216 113 171 216 113 171 216 113 171 216 113 171 216 113 171 216 113 171 216 113 171 216 113 171 216 113 171 216 113 171 216 113 171 216 113 171 216 113 171 216 113 171 216 244 243 242 244 243 242 122 121 121 122 121 121 244 243 242 122 121 121 122 121 121 244 243 242 244 243 242 244 243 242 
0 401 0 0 401 0 0 401 0 113 171 216 0 200 0 113 171 216 0 200 0 113 171 216 113 171 216 113 171 216 113 171 216 113 171 216 113 171 216 113 171 216 113 171 216 113 171 216 113 171 216 113 171 216 113 171 216 113 171 216 113 171 216 113 171 216 113 171 216 113 171 216 113 171 216 113 171 216 113 171 216 113 171 216 113 171 216 113 171 216 113 171 216 113 171 216 113 171 216 113 171 216 113 171 216 113 171 216 113 171 216 113 171 216 0 200 0 113 171 216 113 171 216 113 171 216 0 200 0 113 171 216 0 200 0 113 171 216 0 200 0 113 171 216 0 200 0 113 171 216 113 171 216 113 171 216 113 171 216 113 171 216 113 171 216 113 171 216 113 171 216 113 171 216 113 171 216 113 171 216 113 171 216 113 171 216 113 171 216 113 171 216 113 171 216 113 171 216 113 171 216 113 171 216 113 171 216 113 171 216 113 171 216 113 171 216 113 171 216 113 171 216 113 171 216 113 171 216 113 171 216 113 171 216 113 171 216 113 171 216 113 171 216 113 171 216 113 171 216 113 171 216 113 171 216 113 171 216 113 171 216 113 171 216 113 171 216 113 171 216 113 171 216 113 171 216 113 171 216 113 171 216 113 171 216 113 171 216 113 171 216 113 171 216 113 171 216 113 171 216 113 171 216 113 171 216 113 171 216 113 171 216 113 171 216 113 171 216 113 171 216 113 171 216 113 171 216 113 171 216 113 171 216 113 171 216 113 171 216 113 171 216 113 171 216 113 171 216 113 171 216 113 171 216 113 171 216 113 171 216 244 243 242 244 243 242 244 243 242 244 243 242 244 243 242 244 243 242 244 243 242 244 243 242 244 243 242 
0 401 0 0 401 0 0 401 0 0 401 0 0 200 0 0 401 0 113 171 216 113 171 216 113 171 216 113 171 216 113 171 216 113 171 216 113 171 216 113 171 216 113 171 216 113 171 216 113 171 216 113 171 216 113 171 216 113 171 216 113 171 216 113 171 216 113 171 216 113 171 216 113 171 216 113 171 216 113 171 216 113 171 216 113 171 216 113 171 216 113 171 216 113 171 216 113 171 216 113 171 216 113 171 216 113 171 216 113 171 216 113 171 216 113 171 216 113 171 216 113 171 216 113 171 216 113 171 216 0 401 0 0 200 0 0 401 0 113 171 216 113 171 216 113 171 216 113 171 216 113 171 216 113 171 216 113 171 216 113 171 216 113 171 216 113 171 216 113 171 216 113 171 216 113 171 216 113 171 216 113 171 216 113 171 216 113 171 216 113 171 216 113 171 216 113 171 216 113 171 216 113 171 216 113 171 216 113 171 216 113 171 216 113 171 216 113 171 216 113 171 216 113 171 216 113 171 216 113 171 216 113 171 216 113 171 216 113 171 216 113 171 216 113 171 216 113 171 216 113 171 216 113 171 216 113 171 216 113 171 216 113 171 216 113 171 216 113 171 216 113 171 216 113 171 216 113 171 216 113 171 216 113 171 216 113 171 216 113 171 216 113 171 216 113 171 216 113 171 216 113 171 216 113 171 216 113 171 216 113 171 216 113 171 216 113 171 216 113 171 216 113 171 216 113 171 216 113 171 216 113 171 216 113 171 216 113 171 216 113 171 216 113 171 216 113 171 216 113 171 216 113 171 216 113 171 216 113 171 216 113 171 216 244 243 242 244 243 242 122 121 121 244 243 242 122 121 121 244 243 242 244 243 242 244 243 242 
0 401 0 0 401 0 0 200 0 0 401 0 0 200 0 0 401 0 0 401 0 113 171 216 0 200 0 113 171 216 113 171 216 113 171 216 113 171 216 113 171 216 113 171 216 113 171 216 113 171 216 113 171 216 113 171 216 113 171 216 0 200 0 113 171 216 113 171 216 113 171 216 113 171 216 113 171 216 113 171 216 113 171 216 0 200 0 113 171 216 113 171 216 113 171 216 0 200 0 113 171 216 113 171 216 113 171 216 0 200 0 113 171 216 113 171 216 113 171 216 0 200 0 113 171 216 0 200 0 0 200 0 0 200 0 0 401 0 0 401 0 113 171 216 0 200 0 113 171 216 113 171 216 113 171 216 0 200 0 113 171 216 113 171 216 113 171 216 113 171 216 113 171 216 113 171 216 113 171 216 0 200 0 113 171 216 113 171 216 113 171 216 0 200 0 113 171 216 113 171 216 113 171 216 0 200 0 113 171 216 113 171 216 113 171 216 113 171 216 113 171 216 113 171 216 113 171 216 113 171 216 113 171 216 113 171 216 113 171 216 113 171 216 113 171 216 113 171 216 113 171 216 113 171 216 113 171 216 113 171 216 113 171 216 113 171 216 113 171 216 113 171 216 113 171 216 113 171 216 113 171 216 113 171 216 113 171 216 113 171 216 113 171 216 113 171 216 113 171 216 113 171 216 113 171 216 113 171 216 113 171 216 113 171 216 113 171 216 113 171 216 113 171 216 113 171 216 113 171 216 113 171 216 113 171 216 113 171 216 113 171 216 113 171 216 113 171 216 113 171 216 113 171 216 113 171 216 113 171 216 113 171 216 113 171 216 244 243 242 244 243 242 244 243 242 244 243 242 244 243 242 244 243 242 244 243 242 
0 401 0 0 401 0 0 401 0 0 401 0 0 401 0 0 401 0 113 171 216 113 171 216 113 171 216 113 171 216 113 171 216 113 171 216 113 171 216 113 171 216 113 171 216 113 171 216 113 171 216 113 171 216 113 171 216 113 171 216 113 171 216 113 171 216 113 171 216 113 171 216 113 171 216 113 171 216 113 171 216 113 171 216 113 171 216 113 171 216 113 171 216 113 171 216 113 171 216 113 171 216 113 171 216 113 171 216 113 171 216 113 171 216 113 171 216 113 171 216 113 171 216 0 401 0 0 200 0 0 401 0 0 401 0 0 401 0 0 401 0 0 401 0 0 200 0 0 401 0 113 171 216 113 171 216 113 171 216 113 171 216 113 171 216 113 171 216 113 171 216 113 171 216 113 171 216 113 171 216 113 171 216 113 171 216 113 171 216 113 171 216 113 171 216 113 171 216 113 171 216 113 171 216 113 171 216 113 171 216 113 171 216 113 171 216 113 171 216 113 171 216 113 171 216 113 171 216 113 171 216 113 171 216 113 171 216 113 171 216 113 171 216 113 171 216 113 171 216 113 171 216 113 171 216 113 171 216 113 171 216 113 171 216 113 171 216 113 171 216 113 171 216 113 171 216 113 171 216 113 171 216 113 171 216 113 171 216 113 171 216 113 171 216 113 171 216 113 171 216 113 171 216 113 171 216 113 171 216 113 171 216 113 171 216 113 171 216 113 171 216 113 171 216 113 171 216 113 171 216 113 171 216 113 171 216 113 171 216 113 171 216 113 171 216 113 171 216 113 171 216 113 171 216 113 171 216 113 171 216 113 171 216 113 171 216 113 171 216 244 243 242 244 243 242 122 121 121 244 243 242 244 243 242 244 243 242 
0 401 0 0 401 0 0 401 0 0 401 0 0 401 0 0 401 0 0 401 0 113 171 216 113 171 216 113 171 216 113 171 216 113 171 216 113 171 216 113 171 216 113 171 216 113 171 216 113 171 216 113 171 216 113 171 216 113 171 216 0 200 0 113 171 216 0 200 0 113 171 216 0 200 0 113 171 216 0 200 0 113 171 216 0 200 0 113 171 216 0 200 0 113 171 216 0 200 0 113 171 216 0 200 0 113 171 216 0 200 0 113 171 216 0 200 0 113 171 216 0 200 0 0 200 0 0 200 0 0 401 0 0 401 0 0 401 0 0 200 0 0 401 0 0 200 0 0 401 0 0 200 0 113 171 216 0 200 0 113 171 216 113 171 216 113 171 216 113 171 216 113 171 216 0 200 0 113 171 216 0 200 0 113 171 216 0 200 0 113 171 216 0 200 0 113 171 216 0 200 0 113 171 216 113 171 216 113 171 216 113 171 216 113 171 216 113 171 216 113 171 216 113 171 216 113 171 216 113 171 216 113 171 216 113 171 216 113 171 216 113 171 216 113 171 216 113 171 216 113 171 216 113 171 216 113 171 216 113 171 216 113 171 216 113 171 216 113 171 216 113 171 216 113 171 216 113 171 216 113 171 216 113 171 216 113 171 216 113 171 216 113 171 216 113 171 216 113 171 216 113 171 216 113 171 216 113 171 216 113 171 216 113 171 216 113 171 216 113 171 216 113 171 216 113 171 216 113 171 216 113 171 216 113 171 216 113 171 216 113 171 216 113 171 216 113 171 216 113 171 216 113 171 216 113 171 216 113 171 216 113 171 216 113 171 216 244 243 242 244 243 242 244 243 242 244 243 242 244 243 242 244 243 242 244 243 242 
0 401 0 0 401 0 0 401 0 0 401 0 0 401 0 0 401 0 113 171 216 113 171 216 113 171 216 113 171 216 113 171 216 113 171 216 113 171 216 113 171 216 113 171 216 113 171 216 113 171 216 113 171 216 113 171 216 113 171 216 113 171 216 113 171 216 113 171 216 0 401 0 0 200 0 0 401 0 113 171 216 0 401 0 0 200 0 0 401 0 113 171 216 0 401 0 0 200 0 0 401 0 0 200 0 0 401 0 0 200 0 0 401 0 0 200 0 0 401 0 0 200 0 0 200 0 0 200 0 0 401 0 0 401 0 0 200 0 0 200 0 0 401 0 0 200 0 0 401 0 0 401 0 0 401 0 0 200 0 113 171 216 113 171 216 113 171 216 113 171 216 113 171 216 113 171 216 0 401 0 0 200 0 0 401 0 0 200 0 0 401 0 0 200 0 0 401 0 113 171 216 113 171 216 113 171 216 113 171 216 113 171 216 113 171 216 113 171 216 113 171 216 113 171 216 113 171 216 113 171 216 113 171 216 113 171 216 113 171 216 113 171 216 113 171 216 113 171 216 113 171 216 113 171 216 113 171 216 113 171 216 113 171 216 113 171 216 113 171 216 113 171 216 113 171 216 113 171 216 113 171 216 113 171 216 113 171 216 113 171 216 113 171 216 113 171 216 113 171 216 113 171 216 113 171 216 113 171 216 113 171 216 113 171 216 113 171 216 113 171 216 113 171 216 113 171 216 113 171 216 113 171 216 113 171 216 113 171 216 113 171 216 113 171 216 113 171 216 113 171 216 113 171 216 113 171 216 113 171 216 113 171 216 113 171 216 113 171 216 244 243 242 244 243 242 244 243 242 244 243 242 244 243 242 244 243 242 
0 401 0 0 401 0 0 401 0 0 401 0 0 200 0 0 401 0 0 401 0 113 171 216 0 200 0 113 171 216 113 171 216 113 171 216 113 171 216 113 171 216 113 171 216 113 171 216 0 200 0 113 171 216 113 171 216 113 171 216 0 200 0 113 171 216 113 171 216 113 171 216 0 200 0 0 401 0 0 401 0 113 171 216 0 401 0 113 171 216 0 401 0 0 200 0 0 200 0 0 401 0 0 401 0 0 401 0 0 200 0 0 401 0 0 401 0 0 401 0 0 200 0 0 200 0 0 401 0 0 401 0 0 200 0 0 200 0 0 200 0 0 401 0 0 200 0 0 401 0 0 401 0 0 401 0 0 200 0 113 171 216 113 171 216 113 171 216 0 200 0 113 171 216 0 200 0 0 200 0 0 200 0 0 401 0 0 200 0 0 401 0 0 200 0 0 401 0 0 401 0 113 171 216 0 200 0 113 171 216 113 171 216 113 171 216 0 200 0 113 171 216 113 171 216 113 171 216 113 171 216 113 171 216 113 171 216 113 171 216 113 171 216 113 171 216 113 171 216 113 171 216 113 171 216 113 171 216 113 171 216 113 171 216 113 171 216 113 171 216 113 171 216 113 171 216 113 171 216 113 171 216 113 171 216 113 171 216 113 171 216 113 171 216 113 171 216 113 171 216 113 171 216 113 171 216 113 171 216 113 171 216 113 171 216 113 171 216 113 171 216 113 171 216 113 171 216 113 171 216 113 171 216 113 171 216 113 171 216 113 171 216 113 171 216 113 171 216 113 171 216 113 171 216 113 171 216 113 171 216 244 243 242 113 171 216 244 243 242 244 243 242 244 243 242 244 243 242 244 243 242 244 243 242 244 243 242 
0 401 0 0 401 0 0 401 0 0 401 0 0 401 0 0 401 0 113 171 216 113 171 216 113 171 216 113 171 216 113 171 216 113 171 216 113 171 216 113 171 216 113 171 216 113 171 216 113 171 216 113 171 216 113 171 216 113 171 216 113 171 216 113 171 216 113 171 216 113 171 216 113 171 216 113 171 216 113 171 216 113 171 216 113 171 216 113 171 216 113 171 216 0 401 0 0 401 0 0 401 0 0 401 0 0 401 0 0 401 0 0 401 0 0 401 0 0 401 0 0 401 0 0 401 0 0 401 0 0 401 0 0 401 0 0 401 0 0 401 0 0 401 0 0 200 0 0 401 0 0 401 0 0 401 0 0 401 0 0 401 0 113 171 216 113 171 216 113 171 216 113 171 216 113 171 216 0 401 0 0 401 0 0 401 0 0 401 0 0 401 0 0 401 0 0 401 0 113 171 216 113 171 216 113 171 216 113 171 216 113 171 216 113 171 216 113 171 216 113 171 216 113 171 216 113 171 216 113 171 216 113 171 216 113 171 216 113 171 216 113 171 216 113 171 216 113 171 216 113 171 216 113 171 216 113 171 216 113 171 216 113 171 216 113 171 216 113 171 216 113 171 216 113 171 216 113 171 216 113 171 216 113 171 216 113 171 216 113 171 216 113 171 216 113 171 216 113 171 216 113 171 216 113 171 216 113 171 216 113 171 216 113 171 216 113 171 216 113 171 216 113 171 216 113 171 216 113 171 216 113 171 216 113 171 216 113 171 216 113 171 216 113 171 216 113 171 216 113 171 216 113 171 216 113 171 216 113 171 216 113 171 216 56 85 108 113 171 216 244 243 242 244 243 242 122 121 121 244 243 242 244 243 242 244 243 242 
0 401 0 0 401 0 0 401 0 0 401 0 0 401 0 113 171 216 0 401 0 113 171 216 113 171 216 113 171 216 113 171 216 113 171 216 113 171 216 113 171 216 113 171 216 113 171 216 113 171 216 113 171 216 113 171 216 113 171 216 113 171 216 113 171 216 113 171 216 113 171 216 113 171 216 113 171 216 0 200 0 113 171 216 0 200 0 113 171 216 0 200 0 0 200 0 0 200 0 0 401 0 0 401 0 0 401 0 0 401 0 0 401 0 0 200 0 0 401 0 0 200 0 0 200 0 0 200 0 0 401 0 0 401 0 0 401 0 0 200 0 0 401 0 0 401 0 0 401 0 0 200 0 0 401 0 0 401 0 0 401 0 0 401 0 113 171 216 113 171 216 113 171 216 0 200 0 113 171 216 0 401 0 0 401 0 0 200 0 0 401 0 0 401 0 113 171 216 0 401 0 113 171 216 113 171 216 113 171 216 0 200 0 113 171 216 113 171 216 113 171 216 113 171 216 113 171 216 113 171 216 113 171 216 113 171 216 113 171 216 113 171 216 113 171 216 113 171 216 113 171 216 113 171 216 113 171 216 113 171 216 113 171 216 113 171 216 113 171 216 113 171 216 113 171 216 113 171 216 113 171 216 113 171 216 113 171 216 113 171 216 113 171 216 113 171 216 113 171 216 113 171 216 113 171 216 113 171 216 113 171 216 113 171 216 113 171 216 113 171 216 113 171 216 113 171 216 113 171 216 113 171 216 113 171 216 113 171 216 113 171 216 113 171 216 113 171 216 113 171 216 113 171 216 113 171 216 113 171 216 113 171 216 113 171 216 244 243 242 113 171 216 244 243 242 244 243 242 244 243 242 244 243 242 244 243 242 
0 401 0 0 401 0 0 401 0 0 401 0 0 401 0 0 401 0 113 171 216 113 171 216 113 171 216 113 171 216 113 171 216 113 171 216 113 171 216 113 171 216 113 171 216 113 171 216 113 171 216 113 171 216 113 171 216 113 171 216 113 171 216 113 171 216 113 171 216 113 171 216 113 171 216 113 171 216 113 171 216 0 401 0 0 200 0 0 401 0 113 171 216 0 401 0 0 401 0 0 401 0 0 401 0 0 401 0 0 401 0 0 401 0 0 401 0 0 401 0 0 200 0 0 401 0 0 401 0 0 401 0 0 401 0 0 401 0 0 401 0 0 401 0 0 401 0 0 401 0 0 401 0 0 401 0 0 401 0 0 401 0 113 171 216 113 171 216 113 171 216 113 171 216 113 171 216 0 401 0 0 200 0 0 401 0 0 401 0 0 401 0 113 171 216 113 171 216 113 171 216 113 171 216 113 171 216 113 171 216 113 171 216 113 171 216 113 171 216 113 171 216 113 171 216 113 171 216 113 171 216 113 171 216 113 171 216 113 171 216 113 171 216 113 171 216 113 171 216 113 171 216 113 171 216 113 171 216 113 171 216 113 171 216 113 171 216 113 171 216 113 171 216 113 171 216 113 171 216 113 171 216 113 171 216 113 171 216 113 171 216 113 171 216 113 171 216 113 171 216 113 171 216 113 171 216 113 171 216 113 171 216 113 171 216 113 171 216 113 171 216 113 171 216 113 171 216 113 171 216 113 171 216 113 171 216 113 171 216 113 171 216 113 171 216 113 171 216 113 171 216 113 171 216 113 171 216 113 171 216 113 171 216 113 171 216 113 171 216 56 85 108 113 171 216 244 243 242 244 243 242 122 121 121 244 243 242 
0 401 0 113 171 216 0 401 0 0 401 0 0 200 0 0 401 0 0 401 0 113 171 216 0 200 0 113 171 216 113 171 216 113 171 216 113 171 216 113 171 216 113 171 216 113 171 216 113 171 216 113 171 216 113 171 216 113 171 216 0 200 0 113 171 216 113 171 216 113 171 216 0 200 0 113 171 216 0 200 0 0 200 0 0 200 0 0 401 0 0 401 0 0 200 0 0 200 0 0 401 0 0 200 0 0 401 0 0 200 0 0 401 0 0 200 0 0 200 0 0 200 0 0 401 0 0 401 0 0 401 0 0 200 0 0 401 0 0 401 0 0 401 0 0 200 0 0 401 0 0 401 0 0 401 0 0 200 0 0 401 0 0 401 0 113 171 216 0 200 0 113 171 216 0 200 0 0 200 0 0 200 0 0 401 0 0 401 0 0 401 0 0 401 0 113 171 216 113 171 216 113 171 216 0 200 0 113 171 216 0 200 0 113 171 216 0 200 0 113 171 216 113 171 216 113 171 216 113 171 216 113 171 216 113 171 216 113 171 216 113 171 216 113 171 216 113 171 216 113 171 216 113 171 216 113 171 216 113 171 216 113 171 216 113 171 216 113 171 216 113 171 216 113 171 216 113 171 216 113 171 216 113 171 216 113 171 216 113 171 216 113 171 216 113 171 216 113 171 216 113 171 216 113 171 216 113 171 216 113 171 216 113 171 216 113 171 216 113 171 216 113 171 216 113 171 216 113 171 216 113 171 216 113 171 216 113 171 216 113 171 216 113 171 216 113 171 216 113 171 216 113 171 216 113 171 216 113 171 216 113 171 216 113 171 216 113 171 216 113 171 216 244 243 242 113 171 216 56 85 108 56 85 108 244 243 242 
113 171 216 113 171 216 113 171 216 113 171 216 113 171 216 0 401 0 113 171 216 113 171 216 113 171 216 113 171 216 113 171 216 113 171 216 113 171 216 113 171 216 113 171 216 113 171 216 113 171 216 113 171 216 113 171 216 113 171 216 113 171 216 113 171 216 113 171 216 113 171 216 113 171 216 113 171 216 113 171 216 0 401 0 0 401 0 0 401 0 0 401 0 0 401 0 0 401 0 0 401 0 0 401 0 0 401 0 0 200 0 0 401 0 0 200 0 0 401 0 0 401 0 0 401 0 0 401 0 0 401 0 0 401 0 0 401 0 0 401 0 0 401 0 0 401 0 0 401 0 0 401 0 0 401 0 0 401 0 0 401 0 0 401 0 0 401 0 0 200 0 0 401 0 0 200 0 0 401 0 0 401 0 0 401 0 0 401 0 0 401 0 113 171 216 113 171 216 113 171 216 113 171 216 113 171 216 113 171 216 113 171 216 113 171 216 113 171 216 113 171 216 113 171 216 113 171 216 113 171 216 113 171 216 113 171 216 113 171 216 113 171 216 113 171 216 113 171 216 113 171 216 113 171 216 113 171 216 113 171 216 113 171 216 113 171 216 113 171 216 113 171 216 113 171 216 113 171 216 113 171 216 113 171 216 113 171 216 113 171 216 113 171 216 113 171 216 113 171 216 113 171 216 113 171 216 113 171 216 113 171 216 113 171 216 113 171 216 113 171 216 113 171 216 113 171 216 113 171 216 113 171 216 113 171 216 113 171 216 113 171 216 113 171 216 113 171 216 113 171 216 113 171 216 113 171 216 113 171 216 113 171 216 113 171 216 113 171 216 113 171 216 113 171 216 56 85 108 113 171 216 113 171 216 113 171 216 
113 171 216 113 171 216 113 171 216 113 171 216 113 171 216 113 171 216 0 401 0 113 171 216 113 171 216 113 171 216 113 171 216 113 171 216 113 171 216 113 171 216 113 171 216 113 171 216 113 171 216 113 171 216 113 171 216 113 171 216 113 171 216 113 171 216 113 171 216 113 171 216 113 171 216 113 171 216 0 200 0 0 200 0 0 401 0 113 171 216 0 401 0 113 171 216 0 401 0 0 401 0 0 200 0 0 401 0 0 401 0 0 401 0 0 200 0 0 401 0 0 200 0 0 401 0 0 200 0 0 401 0 0 401 0 0 401 0 0 401 0 0 401 0 0 401 0 0 401 0 0 401 0 0 401 0 0 401 0 0 401 0 0 200 0 0 401 0 0 200 0 0 401 0 0 200 0 0 401 0 0 401 0 0 401 0 0 401 0 113 171 216 0 401 0 113 171 216 0 200 0 113 171 216 0 200 0 113 171 216 0 200 0 113 171 216 113 171 216 113 171 216 113 171 216 113 171 216 113 171 216 113 171 216 113 171 216 113 171 216 113 171 216 113 171 216 113 171 216 113 171 216 113 171 216 113 171 216 113 171 216 113 171 216 113 171 216 113 171 216 113 171 216 113 171 216 113 171 216 113 171 216 113 171 216 113 171 216 113 171 216 113 171 216 113 171 216 113 171 216 113 171 216 113 171 216 113 171 216 113 171 216 113 171 216 113 171 216 113 171 216 113 171 216 113 171 216 113 171 216 113 171 216 113 171 216 113 171 216 113 171 216 113 171 216 113 171 216 113 171 216 113 171 216 113 171 216 113 171 216 113 171 216 113 171 216 113 171 216 113 171 216 113 171 216 113 171 216 113 171 216 113 171 216 113 171 216 
113 171 216 113 171 216 113 171 216 113 171 216 113 171 216 113 171 216 113 171 216 113 171 216 113 171 216 113 171 216 113 171 216 113 171 216 113 171 216 113 171 216 113 171 216 113 171 216 113 171 216 113 171 216 113 171 216 113 171 216 113 171 216 113 171 216 113 171 216 113 171 216 113 171 216 113 171 216 113 171 216 0 401 0 113 171 216 113 171 216 113 171 216 0 401 0 0 200 0 0 200 0 0 200 0 0 401 0 0 200 0 0 401 0 0 401 0 0 401 0 0 200 0 0 401 0 0 401 0 0 401 0 0 401 0 0 401 0 0 401 0 0 401 0 0 200 0 0 401 0 0 401 0 0 401 0 0 401 0 0 200 0 0 200 0 0 401 0 0 200 0 0 401 0 0 401 0 0 401 0 0 401 0 0 401 0 113 171 216 113 171 216 113 171 216 0 401 0 113 171 216 0 401 0 113 171 216 113 171 216 113 171 216 113 171 216 113 171 216 113 171 216 113 171 216 113 171 216 113 171 216 113 171 216 113 171 216 113 171 216 113 171 216 113 171 216 113 171 216 113 171 216 113 171 216 113 171 216 113 171 216 113 171 216 113 171 216 113 171 216 113 171 216 113 171 216 113 171 216 113 171 216 113 171 216 113 171 216 113 171 216 113 171 216 113 171 216 113 171 216 113 171 216 113 171 216 113 171 216 113 171 216 113 171 216 113 171 216 113 171 216 113 171 216 113 171 216 113 171 216 113 171 216 113 171 216 113 171 216 113 171 216 113 171 216 113 171 216 113 171 216 113 171 216 113 171 216 113 171 216 113 171 216 113 171 216 113 171 216 113 171 216 113 171 216 113 171 216 113 171 216 113 171 216 113 171 216 
0 401 0 113 171 216 113 171 216 113 171 216 113 171 216 113 171 216 113 171 216 113 171 216 0 200 0 113 171 216 113 171 216 113 171 216 0 200 0 113 171 216 113 171 216 113 171 216 113 171 216 113 171 216 113 171 216 113 171 216 113 171 216 113 171 216 113 171 216 113 171 216 0 200 0 113 171 216 0 200 0 0 200 0 0 401 0 113 171 216 0 200 0 0 200 0 0 200 0 0 200 0 0 401 0 0 401 0 0 200 0 0 401 0 0 200 0 0 200 0 0 200 0 0 401 0 0 401 0 0 401 0 0 200 0 0 401 0 0 401 0 0 200 0 0 200 0 0 401 0 0 401 0 0 401 0 0 200 0 0 200 0 0 200 0 0 200 0 0 200 0 0 401 0 0 401 0 0 401 0 0 200 0 0 401 0 0 401 0 113 171 216 0 200 0 113 171 216 0 401 0 113 171 216 0 401 0 113 171 216 113 171 216 113 171 216 0 200 0 113 171 216 113 171 216 113 171 216 113 171 216 113 171 216 113 171 216 113 171 216 113 171 216 113 171 216 113 171 216 113 171 216 113 171 216 113 171 216 113 171 216 113 171 216 244 243 242 113 171 216 113 171 216 113 171 216 113 171 216 113 171 216 113 171 216 113 171 216 244 243 242 113 171 216 113 171 216 113 171 216 113 171 216 113 171 216 113 171 216 113 171 216 113 171 216 113 171 216 113 171 216 113 171 216 113 171 216 113 171 216 113 171 216 113 171 216 244 243 242 113 171 216 113 171 216 113 171 216 113 171 216 113 171 216 113 171 216 113 171 216 244 243 242 113 171 216 113 171 216 113 171 216 113 171 216 113 171 216 113 171 216 113 171 216 244 243 242 
113 171 216 113 171 216 113 171 216 113 171 216 113 171 216 113 171 216 113 171 216 113 171 216 113 171 216 113 171 216 113 171 216 113 171 216 113 171 216 113 171 216 113 171 216 113 171 216 113 171 216 113 171 216 113 171 216 113 171 216 113 171 216 113 171 216 113 171 216 0 200 0 0 200 0 0 401 0 0 200 0 0 401 0 0 401 0 0 401 0 0 200 0 0 200 0 0 200 0 0 401 0 0 401 0 0 401 0 0 401 0 0 401 0 0 401 0 0 401 0 0 401 0 0 401 0 0 401 0 0 401 0 0 401 0 0 401 0 0 401 0 0 401 0 0 401 0 0 401 0 0 401 0 0 401 0 0 401 0 0 401 0 0 401 0 0 401 0 0 401 0 0 401 0 0 401 0 0 401 0 0 401 0 0 401 0 113 171 216 113 171 216 113 171 216 113 171 216 113 171 216 113 171 216 113 171 216 113 171 216 113 171 216 113 171 216 113 171 216 113 171 216 113 171 216 113 171 216 113 171 216 113 171 216 113 171 216 113 171 216 113 171 216 113 171 216 113 171 216 113 171 216 113 171 216 113 171 216 113 171 216 113 171 216 113 171 216 56 85 108 113 171 216 113 171 216 113 171 216 113 171 216 113 171 216 113 171 216 113 171 216 56 85 108 113 171 216 113 171 216 113 171 216 113 171 216 113 171 216 113 171 216 113 171 216 113 171 216 113 171 216 113 171 216 113 171 216 113 171 216 113 171 216 113 171 216 113 171 216 56 85 108 113 171 216 113 171 216 113 171 216 113 171 216 113 171 216 113 171 216 113 171 216 56 85 108 113 171 216 113 171 216 113 171 216 113 171 216 113 171 216 113 171 216 113 171 216 
113 171 216 113 171 216 113 171 216 113 171 216 113 171 216 113 171 216 113 171 216 113 171 216 113 171 216 113 171 216 113 171 216 113 171 216 113 171 216 113 171 216 113 171 216 113 171 216 113 171 216 113 171 216 113 171 216 113 171 216 113 171 216 113 171 216 0 200 0 0 200 0 0 200 0 0 401 0 0 200 0 0 401 0 0 401 0 0 401 0 0 200 0 0 200 0 0 200 0 0 401 0 0 200 0 0 401 0 0 200 0 0 401 0 0 401 0 0 401 0 0 401 0 0 401 0 0 401 0 0 401 0 0 200 0 0 401 0 0 200 0 0 401 0 0 401 0 0 401 0 0 401 0 0 401 0 0 401 0 0 401 0 0 200 0 0 401 0 0 401 0 0 401 0 0 401 0 0 401 0 0 401 0 113 171 216 0 401 0 113 171 216 0 200 0 113 171 216 113 171 216 113 171 216 113 171 216 113 171 216 0 200 0 113 171 216 113 171 216 113 171 216 113 171 216 113 171 216 113 171 216 113 171 216 113 171 216 113 171 216 113 171 216 113 171 216 113 171 216 113 171 216 113 171 216 113 171 216 113 171 216 113 171 216 113 171 216 113 171 216 113 171 216 113 171 216 113 171 216 113 171 216 113 171 216 113 171 216 113 171 216 113 171 216 113 171 216 113 171 216 113 171 216 113 171 216 113 171 216 113 171 216 113 171 216 113 171 216 113 171 216 113 171 216 113 171 216 113 171 216 113 171 216 113 171 216 113 171 216 113 171 216 113 171 216 113 171 216 113 171 216 113 171 216 113 171 216 113 171 216 113 171 216 113 171 216 113 171 216 113 171 216 113 171 216 113 171 216 113 171 216 113 171 216 113 171 216 
113 171 216 113 171 216 113 171 216 113 171 216 113 171 216 113 171 216 113 171 216 113 171 216 113 171 216 113 171 216 113 171 216 113 171 216 113 171 216 113 171 216 113 171 216 113 171 216 113 171 216 113 171 216 113 171 216 113 171 216 113 171 216 113 171 216 113 171 216 0 401 0 0 200 0 0 401 0 0 401 0 0 401 0 0 401 0 0 200 0 0 200 0 0 200 0 0 200 0 0 401 0 0 200 0 0 401 0 0 200 0 0 401 0 0 401 0 0 401 0 0 200 0 0 401 0 0 200 0 0 401 0 0 200 0 0 401 0 0 401 0 0 401 0 0 401 0 0 401 0 0 401 0 0 401 0 0 200 0 0 401 0 0 401 0 0 401 0 0 401 0 0 401 0 0 401 0 0 401 0 0 401 0 0 401 0 113 171 216 113 171 216 113 171 216 113 171 216 113 171 216 113 171 216 113 171 216 113 171 216 113 171 216 113 171 216 113 171 216 113 171 216 113 171 216 113 171 216 113 171 216 113 171 216 113 171 216 113 171 216 113 171 216 113 171 216 113 171 216 113 171 216 113 171 216 113 171 216 113 171 216 113 171 216 113 171 216 113 171 216 113 171 216 113 171 216 113 171 216 113 171 216 113 171 216 113 171 216 113 171 216 113 171 216 113 171 216 113 171 216 113 171 216 113 171 216 113 171 216 113 171 216 113 171 216 113 171 216 113 171 216 113 171 216 113 171 216 113 171 216 113 171 216 113 171 216 113 171 216 113 171 216 113 171 216 113 171 216 113 171 216 113 171 216 113 171 216 113 171 216 113 171 216 113 171 216 113 171 216 113 171 216 113 171 216 113 171 216 113 171 216 113 171 216 113 171 216 
113 171 216 113 171 216 113 171 216 113 171 216 0 200 0 113 171 216 113 171 216 113 171 216 113 171 216 113 171 216 113 171 216 113 171 216 0 200 0 113 171 216 113 171 216 113 171 216 113 171 216 113 171 216 113 171 216 113 171 216 0 200 0 113 171 216 0 200 0 0 200 0 0 200 0 0 401 0 0 401 0 0 200 0 0 200 0 0 200 0 0 200 0 0 200 0 0 200 0 0 401 0 0 401 0 0 401 0 0 200 0 0 401 0 0 401 0 0 200 0 0 200 0 0 401 0 0 401 0 0 401 0 0 200 0 0 401 0 0 401 0 0 401 0 0 200 0 0 401 0 0 401 0 0 200 0 0 200 0 0 401 0 0 401 0 0 401 0 0 200 0 0 401 0 0 401 0 0 401 0 0 200 0 0 401 0 0 401 0 113 171 216 0 200 0 113 171 216 113 171 216 113 171 216 0 200 0 113 171 216 113 171 216 113 171 216 113 171 216 113 171 216 113 171 216 113 171 216 113 171 216 113 171 216 113 171 216 113 171 216 113 171 216 113 171 216 113 171 216 113 171 216 113 171 216 113 171 216 113 171 216 113 171 216 113 171 216 113 171 216 113 171 216 113 171 216 113 171 216 113 171 216 113 171 216 113 171 216 113 171 216 113 171 216 113 171 216 113 171 216 113 171 216 113 171 216 113 171 216 113 171 216 113 171 216 113 171 216 113 171 216 113 171 216 244 243 242 113 171 216 113 171 216 113 171 216 113 171 216 113 171 216 113 171 216 113 171 216 244 243 242 113 171 216 113 171 216 113 171 216 113 171 216 113 171 216 113 171 216 113 171 216 113 171 216 113 171 216 113 171 216 113 171 216 244 243 242 
113 171 216 113 171 216 113 171 216 113 171 216 113 171 216 113 171 216 113 171 216 113 171 216 113 171 216 113 171 216 113 171 216 113 171 216 113 171 216 113 171 216 113 171 216 113 171 216 113 171 216 113 171 216 113 171 216 113 171 216 113 171 216 0 401 0 0 200 0 0 200 0 0 200 0 0 401 0 0 401 0 0 401 0 0 401 0 0 401 0 0 200 0 0 401 0 0 401 0 0 401 0 0 401 0 0 401 0 0 401 0 0 401 0 0 401 0 0 401 0 0 401 0 0 401 0 0 401 0 0 401 0 0 401 0 0 401 0 0 401 0 0 401 0 0 401 0 0 401 0 0 401 0 0 401 0 0 401 0 0 401 0 0 401 0 0 401 0 0 401 0 0 401 0 0 401 0 0 401 0 0 401 0 0 401 0 113 171 216 113 171 216 113 171 216 113 171 216 113 171 216 113 171 216 113 171 216 113 171 216 113 171 216 113 171 216 113 171 216 113 171 216 113 171 216 113 171 216 113 171 216 113 171 216 113 171 216 113 171 216 113 171 216 113 171 216 113 171 216 113 171 216 113 171 216 113 171 216 113 171 216 113 171 216 113 171 216 113 171 216 113 171 216 113 171 216 113 171 216 113 171 216 113 171 216 113 171 216 113 171 216 113 171 216 113 171 216 113 171 216 113 171 216 113 171 216 113 171 216 113 171 216 113 171 216 113 171 216 113 171 216 113 171 216 113 171 216 56 85 108 113 171 216 113 171 216 113 171 216 113 171 216 113 171 216 113 171 216 113 171 216 56 85 108 113 171 216 113 171 216 113 171 216 113 171 216 113 171 216 113 171 216 113 171 216 113 171 216 113 171 216 113 171 216 113 171 216 
113 171 216 113 171 216 113 171 216 113 171 216 113 171 216 113 171 216 113 171 216 113 171 216 113 171 216 113 171 216 113 171 216 113 171 216 113 171 216 113 171 216 113 171 216 113 171 216 0 200 0 113 171 216 0 200 0 113 171 216 0 200 0 0 200 0 0 200 0 0 200 0 0 200 0 0 401 0 0 200 0 0 401 0 0 200 0 0 200 0 0 200 0 0 401 0 0 200 0 0 401 0 0 200 0 0 401 0 0 401 0 0 401 0 0 200 0 0 401 0 0 200 0 0 401 0 0 200 0 0 401 0 0 401 0 0 401 0 0 200 0 0 401 0 0 401 0 0 401 0 0 200 0 0 401 0 0 200 0 0 401 0 0 401 0 0 200 0 0 401 0 0 401 0 0 401 0 0 401 0 0 401 0 0 401 0 0 401 0 113 171 216 113 171 216 113 171 216 113 171 216 113 171 216 113 171 216 113 171 216 113 171 216 113 171 216 113 171 216 113 171 216 113 171 216 113 171 216 113 171 216 113 171 216 113 171 216 113 171 216 113 171 216 113 171 216 113 171 216 113 171 216 113 171 216 113 171 216 113 171 216 113 171 216 113 171 216 113 171 216 113 171 216 113 171 216 113 171 216 113 171 216 113 171 216 113 171 216 113 171 216 113 171 216 113 171 216 113 171 216 113 171 216 113 171 216 113 171 216 113 171 216 113 171 216 113 171 216 113 171 216 113 171 216 113 171 216 113 171 216 113 171 216 113 171 216 113 171 216 113 171 216 113 171 216 113 171 216 113 171 216 113 171 216 113 171 216 113 171 216 113 171 216 113 171 216 113 171 216 113 171 216 113 171 216 113 171 216 113 171 216 113 171 216 113 171 216 
113 171 216 113 171 216 113 171 216 113 171 216 113 171 216 113 171 216 113 171 216 113 171 216 113 171 216 113 171 216 113 171 216 113 171 216 113 171 216 113 171 216 113 171 216 113 171 216 0 200 0 0 401 0 0 200 0 0 401 0 0 200 0 0 401 0 0 401 0 0 401 0 0 401 0 0 401 0 0 401 0 0 401 0 0 401 0 0 401 0 0 401 0 0 401 0 0 200 0 0 401 0 0 200 0 0 401 0 0 401 0 0 200 0 0 200 0 0 401 0 0 200 0 0 401 0 0 401 0 0 401 0 0 401 0 0 401 0 0 401 0 0 401 0 0 401 0 0 401 0 0 200 0 0 401 0 0 401 0 0 401 0 0 401 0 0 401 0 0 401 0 0 401 0 0 401 0 0 401 0 0 401 0 0 401 0 113 171 216 113 171 216 113 171 216 113 171 216 113 171 216 113 171 216 113 171 216 113 171 216 113 171 216 113 171 216 113 171 216 113 171 216 113 171 216 113 171 216 113 171 216 113 171 216 113 171 216 113 171 216 113 171 216 113 171 216 113 171 216 113 171 216 113 171 216 113 171 216 113 171 216 113 171 216 113 171 216 113 171 216 113 171 216 113 171 216 113 171 216 113 171 216 113 171 216 113 171 216 113 171 216 113 171 216 113 171 216 113 171 216 113 171 216 113 171 216 113 171 216 113 171 216 113 171 216 113 171 216 113 171 216 113 171 216 113 171 216 113 171 216 113 171 216 113 171 216 113 171 216 113 171 216 113 171 216 113 171 216 113 171 216 113 171 216 113 171 216 113 171 216 113 171 216 113 171 216 113 171 216 113 171 216 113 171 216 113 171 216 113 171 216 113 171 216 113 171 216 
0 401 0 113 171 216 113 171 216 113 171 216 113 171 216 113 171 216 113 171 216 113 171 216 0 200 0 113 171 216 113 171 216 113 171 216 0 200 0 113 171 216 113 171 216 113 171 216 0 200 0 0 401 0 0 200 0 0 401 0 0 200 0 0 401 0 0 200 0 0 200 0 0 200 0 0 200 0 0 401 0 0 401 0 0 200 0 0 200 0 0 401 0 0 200 0 0 200 0 0 401 0 0 200 0 0 401 0 0 200 0 0 200 0 0 401 0 0 401 0 0 200 0 0 401 0 0 401 0 0 401 0 0 200 0 0 401 0 0 200 0 0 200 0 0 200 0 0 401 0 0 401 0 0 401 0 0 401 0 0 401 0 0 401 0 0 200 0 0 200 0 0 401 0 0 401 0 0 401 0 0 200 0 0 401 0 0 401 0 113 171 216 0 200 0 113 171 216 113 171 216 113 171 216 113 171 216 113 171 216 113 171 216 113 171 216 113 171 216 113 171 216 113 171 216 113 171 216 113 171 216 113 171 216 113 171 216 113 171 216 0 200 0 113 171 216 113 171 216 113 171 216 113 171 216 113 171 216 113 171 216 113 171 216 113 171 216 113 171 216 113 171 216 113 171 216 113 171 216 113 171 216 113 171 216 113 171 216 244 243 242 113 171 216 113 171 216 113 171 216 113 171 216 113 171 216 113 171 216 113 171 216 113 171 216 113 171 216 113 171 216 113 171 216 113 171 216 113 171 216 113 171 216 113 171 216 244 243 242 113 171 216 113 171 216 113 171 216 113 171 216 113 171 216 113 171 216 113 171 216 113 171 216 113 171 216 113 171 216 113 171 216 113 171 216 113 171 216 113 171 216 113 171 216 244 243 242 
113 171 216 113 171 216 113 171 216 113 171 216 113 171 216 113 171 216 113 171 216 113 171 216 113 171 216 113 171 216 113 171 216 113 171 216 113 171 216 113 171 216 113 171 216 0 200 0 0 200 0 0 401 0 0 401 0 0 401 0 0 401 0 0 401 0 0 401 0 0 401 0 0 200 0 0 401 0 0 401 0 0 401 0 0 200 0 0 401 0 0 401 0 0 200 0 0 401 0 0 401 0 0 401 0 0 401 0 0 401 0 0 401 0 0 401 0 0 401 0 0 401 0 0 401 0 0 401 0 0 401 0 0 401 0 0 401 0 0 200 0 0 401 0 0 401 0 0 401 0 0 401 0 0 401 0 0 401 0 0 401 0 0 401 0 0 401 0 0 401 0 0 401 0 0 401 0 0 401 0 113 171 216 113 171 216 113 171 216 113 171 216 113 171 216 113 171 216 113 171 216 113 171 216 113 171 216 113 171 216 113 171 216 113 171 216 113 171 216 113 171 216 113 171 216 113 171 216 113 171 216 113 171 216 113 171 216 113 171 216 113 171 216 113 171 216 113 171 216 113 171 216 113 171 216 113 171 216 113 171 216 113 171 216 113 171 216 113 171 216 113 171 216 113 171 216 113 171 216 113 171 216 113 171 216 113 171 216 113 171 216 56 85 108 113 171 216 113 171 216 113 171 216 113 171 216 113 171 216 113 171 216 113 171 216 113 171 216 113 171 216 113 171 216 113 171 216 113 171 216 113 171 216 113 171 216 113 171 216 56 85 108 113 171 216 113 171 216 113 171 216 113 171 216 113 171 216 113 171 216 113 171 216 113 171 216 113 171 216 113 171 216 113 171 216 113 171 216 113 171 216 113 171 216 113 171 216 
113 171 216 113 171 216 113 171 216 113 171 216 113 171 216 113 171 216 113 171 216 113 171 216 113 171 216 113 171 216 113 171 216 113 171 216 113 171 216 113 171 216 0 200 0 113 171 216 0 401 0 0 401 0 0 200 0 0 401 0 0 200 0 0 401 0 0 200 0 0 200 0 0 200 0 0 401 0 0 200 0 0 401 0 0 200 0 0 401 0 0 200 0 0 200 0 0 200 0 0 401 0 0 200 0 0 401 0 0 401 0 0 401 0 0 200 0 0 401 0 0 401 0 0 401 0 0 401 0 0 401 0 0 200 0 0 200 0 0 401 0 0 401 0 0 401 0 0 401 0 0 200 0 0 401 0 0 401 0 0 401 0 0 200 0 0 401 0 0 401 0 0 401 0 0 401 0 0 401 0 0 401 0 113 171 216 113 171 216 113 171 216 113 171 216 113 171 216 113 171 216 113 171 216 113 171 216 113 171 216 113 171 216 113 171 216 113 171 216 113 171 216 113 171 216 113 171 216 113 171 216 113 171 216 113 171 216 113 171 216 113 171 216 113 171 216 113 171 216 113 171 216 113 171 216 113 171 216 113 171 216 113 171 216 113 171 216 113 171 216 113 171 216 113 171 216 113 171 216 113 171 216 113 171 216 113 171 216 113 171 216 113 171 216 113 171 216 113 171 216 113 171 216 113 171 216 113 171 216 113 171 216 113 171 216 113 171 216 113 171 216 113 171 216 113 171 216 113 171 216 113 171 216 113 171 216 113 171 216 113 171 216 113 171 216 113 171 216 113 171 216 113 171 216 113 171 216 113 171 216 113 171 216 113 171 216 113 171 216 113 171 216 113 171 216 113 171 216 113 171 216 113 171 216 113 171 216 
113 171 216 113 171 216 113 171 216 113 171 216 113 171 216 113 171 216 113 171 216 113 171 216 113 171 216 113 171 216 113 171 216 113 171 216 113 171 216 113 171 216 113 171 216 113 171 216 113 171 216 0 401 0 0 401 0 0 401 0 0 200 0 0 401 0 0 200 0 0 401 0 0 401 0 0 401 0 0 401 0 0 401 0 0 200 0 0 401 0 0 200 0 0 401 0 0 401 0 0 401 0 0 401 0 0 401 0 0 401 0 0 401 0 0 401 0 0 401 0 0 401 0 0 401 0 0 401 0 0 401 0 0 200 0 0 401 0 0 401 0 0 401 0 0 401 0 0 401 0 0 401 0 0 401 0 0 401 0 0 401 0 0 401 0 0 401 0 0 401 0 0 401 0 0 401 0 0 401 0 0 401 0 113 171 216 113 171 216 113 171 216 113 171 216 113 171 216 113 171 216 113 171 216 113 171 216 113 171 216 113 171 216 113 171 216 113 171 216 113 171 216 113 171 216 113 171 216 113 171 216 113 171 216 113 171 216 113 171 216 113 171 216 113 171 216 113 171 216 113 171 216 113 171 216 113 171 216 113 171 216 113 171 216 113 171 216 113 171 216 113 171 216 113 171 216 113 171 216 113 171 216 113 171 216 113 171 216 113 171 216 113 171 216 113 171 216 113 171 216 113 171 216 113 171 216 113 171 216 113 171 216 113 171 216 113 171 216 113 171 216 113 171 216 113 171 216 113 171 216 113 171 216 113 171 216 113 171 216 113 171 216 113 171 216 113 171 216 113 171 216 113 171 216 113 171 216 113 171 216 113 171 216 113 171 216 113 171 216 113 171 216 113 171 216 113 171 216 113 171 216 113 171 216 113 171 216 
113 171 216 113 171 216 113 171 216 113 171 216 113 171 216 113 171 216 113 171 216 113 171 216 113 171 216 113 171 216 113 171 216 113 171 216 0 200 0 113 171 216 113 171 216 113 171 216 0 200 0 0 200 0 0 200 0 0 200 0 0 200 0 0 401 0 0 401 0 0 401 0 0 200 0 0 200 0 0 200 0 0 200 0 0 200 0 0 401 0 0 401 0 0 401 0 0 200 0 0 401 0 0 200 0 0 401 0 0 200 0 0 401 0 0 200 0 0 401 0 0 200 0 0 401 0 0 401 0 0 200 0 0 200 0 0 401 0 0 401 0 0 401 0 0 401 0 0 401 0 0 200 0 0 200 0 0 200 0 0 401 0 0 401 0 0 401 0 0 200 0 0 401 0 0 401 0 0 401 0 0 200 0 113 171 216 113 171 216 113 171 216 113 171 216 113 171 216 113 171 216 113 171 216 113 171 216 113 171 216 113 171 216 113 171 216 113 171 216 113 171 216 113 171 216 113 171 216 113 171 216 113 171 216 113 171 216 113 171 216 113 171 216 113 171 216 113 171 216 113 171 216 113 171 216 113 171 216 113 171 216 113 171 216 113 171 216 113 171 216 113 171 216 113 171 216 113 171 216 113 171 216 113 171 216 113 171 216 113 171 216 113 171 216 113 171 216 113 171 216 113 171 216 113 171 216 113 171 216 113 171 216 113 171 216 113 171 216 113 171 216 113 171 216 113 171 216 113 171 216 113 171 216 113 171 216 113 171 216 113 171 216 113 171 216 113 171 216 113 171 216 113 171 216 113 171 216 113 171 216 113 171 216 113 171 216 113 171 216 113 171 216 113 171 216 113 171 216 113 171 216 113 171 216 113 171 216 
113 171 216 113 171 216 113 171 216 113 171 216 113 171 216 113 171 216 113 171 216 113 171 216 113 171 216 113 171 216 113 171 216 113 171 216 113 171 216 113 171 216 113 171 216 113 171 216 0 200 0 0 401 0 0 401 0 0 401 0 0 401 0 0 401 0 0 401 0 0 401 0 0 401 0 0 401 0 0 401 0 0 401 0 0 401 0 0 401 0 0 401 0 0 401 0 0 401 0 0 401 0 0 401 0 0 401 0 0 401 0 0 401 0 0 401 0 0 401 0 0 401 0 0 401 0 0 401 0 0 401 0 0 401 0 0 401 0 0 401 0 0 401 0 0 200 0 0 401 0 0 200 0 0 401 0 0 401 0 0 401 0 0 401 0 0 401 0 0 401 0 0 401 0 0 401 0 0 401 0 0 401 0 0 401 0 113 171 216 113 171 216 113 171 216 113 171 216 113 171 216 113 171 216 113 171 216 113 171 216 113 171 216 113 171 216 113 171 216 113 171 216 113 171 216 113 171 216 113 171 216 113 171 216 113 171 216 113 171 216 113 171 216 113 171 216 113 171 216 113 171 216 113 171 216 113 171 216 113 171 216 113 171 216 113 171 216 113 171 216 113 171 216 113 171 216 113 171 216 113 171 216 113 171 216 113 171 216 113 171 216 113 171 216 113 171 216 113 171 216 113 171 216 113 171 216 113 171 216 113 171 216 113 171 216 113 171 216 113 171 216 113 171 216 113 171 216 113 171 216 113 171 216 113 171 216 113 171 216 113 171 216 113 171 216 113 171 216 113 171 216 113 171 216 113 171 216 113 171 216 113 171 216 113 171 216 113 171 216 113 171 216 113 171 216 113 171 216 113 171 216 113 171 216 113 171 216 
113 171 216 113 171 216 113 171 216 113 171 216 113 171 216 113 171 216 113 171 216 113 171 216 113 171 216 113 171 216 113 171 216 113 171 216 113 171 216 113 171 216 113 171 216 113 171 216 0 200 0 0 401 0 0 200 0 0 401 0 0 401 0 0 401 0 0 401 0 0 401 0 0 200 0 0 200 0 0 200 0 0 401 0 0 401 0 0 401 0 0 401 0 0 401 0 0 401 0 0 401 0 0 200 0 0 401 0 0 401 0 0 401 0 0 200 0 0 200 0 0 401 0 0 401 0 0 200 0 0 401 0 0 200 0 0 401 0 0 200 0 0 401 0 0 200 0 0 401 0 0 200 0 0 401 0 0 401 0 0 401 0 0 401 0 0 401 0 0 401 0 0 401 0 0 401 0 0 401 0 0 401 0 113 171 216 0 401 0 113 171 216 113 171 216 113 171 216 113 171 216 113 171 216 113 171 216 113 171 216 113 171 216 113 171 216 113 171 216 113 171 216 113 171 216 113 171 216 113 171 216 113 171 216 113 171 216 113 171 216 113 171 216 113 171 216 113 171 216 113 171 216 113 171 216 113 171 216 113 171 216 113 171 216 113 171 216 113 171 216 113 171 216 113 171 216 113 171 216 113 171 216 113 171 216 113 171 216 113 171 216 113 171 216 113 171 216 113 171 216 113 171 216 113 171 216 113 171 216 113 171 216 113 171 216 113 171 216 113 171 216 113 171 216 113 171 216 113 171 216 113 171 216 113 171 216 113 171 216 113 171 216 113 171 216 113 171 216 113 171 216 113 171 216 113 171 216 113 171 216 113 171 216 113 171 216 113 171 216 113 171 216 113 171 216 113 171 216 113 171 216 113 171 216 113 171 216 
113 171 216 113 171 216 113 171 216 113 171 216 113 171 216 113 171 216 113 171 216 113 171 216 113 171 216 113 171 216 113 171 216 113 171 216 113 171 216 113 171 216 113 171 216 113 171 216 0 200 0 0 401 0 0 401 0 0 401 0 0 401 0 0 401 0 0 401 0 0 401 0 0 200 0 0 401 0 0 401 0 0 401 0 0 401 0 0 401 0 0 401 0 0 401 0 0 401 0 0 401 0 0 401 0 0 401 0 0 401 0 0 401 0 0 401 0 0 401 0 0 401 0 0 401 0 0 401 0 0 401 0 0 200 0 0 401 0 0 401 0 0 401 0 0 200 0 0 401 0 0 401 0 0 401 0 0 401 0 0 401 0 0 401 0 0 401 0 0 401 0 0 401 0 0 401 0 0 401 0 0 401 0 0 401 0 113 171 216 113 171 216 113 171 216 113 171 216 113 171 216 113 171 216 113 171 216 113 171 216 113 171 216 113 171 216 113 171 216 113 171 216 113 171 216 113 171 216 113 171 216 113 171 216 113 171 216 113 171 216 113 171 216 113 171 216 113 171 216 113 171 216 113 171 216 113 171 216 113 171 216 113 171 216 113 171 216 113 171 216 113 171 216 113 171 216 113 171 216 113 171 216 113 171 216 113 171 216 113 171 216 113 171 216 113 171 216 113 171 216 113 171 216 113 171 216 113 171 216 113 171 216 113 171 216 113 171 216 113 171 216 113 171 216 113 171 216 113 171 216 113 171 216 113 171 216 113 171 216 113 171 216 113 171 216 113 171 216 113 171 216 113 171 216 113 171 216 113 171 216 113 171 216 113 171 216 113 171 216 113 171 216 113 171 216 113 171 216 113 171 216 113 171 216 113 171 216 
244 243 242 113 171 216 113 171 216 113 171 216 113 171 216 113 171 216 113 171 216 113 171 216 113 171 216 113 171 216 113 171 216 113 171 216 113 171 216 113 171 216 113 171 216 113 171 216 0 200 0 0 401 0 0 401 0 0 401 0 0 200 0 0 401 0 0 401 0 0 200 0 0 200 0 0 401 0 0 401 0 0 401 0 0 200 0 0 401 0 0 401 0 0 401 0 0 200 0 0 401 0 0 401 0 0 401 0 0 200 0 0 401 0 0 200 0 0 200 0 0 200 0 0 401 0 0 401 0 0 200 0 0 200 0 0 401 0 0 401 0 0 200 0 0 200 0 0 401 0 0 401 0 0 401 0 0 401 0 0 401 0 0 401 0 0 401 0 0 200 0 0 401 0 0 401 0 0 401 0 0 200 0 0 401 0 0 401 0 0 200 0 0 200 0 113 171 216 0 200 0 113 171 216 0 200 0 113 171 216 113 171 216 113 171 216 113 171 216 113 171 216 113 171 216 113 171 216 113 171 216 113 171 216 113 171 216 113 171 216 113 171 216 113 171 216 113 171 216 113 171 216 113 171 216 113 171 216 113 171 216 113 171 216 113 171 216 113 171 216 113 171 216 113 171 216 113 171 216 113 171 216 113 171 216 113 171 216 113 171 216 113 171 216 113 171 216 113 171 216 113 171 216 113 171 216 113 171 216 113 171 216 244 243 242 113 171 216 113 171 216 113 171 216 113 171 216 113 171 216 113 171 216 113 171 216 113 171 216 113 171 216 113 171 216 113 171 216 113 171 216 113 171 216 113 171 216 113 171 216 113 171 216 113 171 216 113 171 216 113 171 216 113 171 216 113 171 216 113 171 216 113 171 216 113 171 216 
113 171 216 56 85 108 113 171 216 113 171 216 113 171 216 113 171 216 113 171 216 113 171 216 113 171 216 113 171 216 113 171 216 113 171 216 113 171 216 113 171 216 113 171 216 113 171 216 113 171 216 0 401 0 113 171 216 0 401 0 0 401 0 0 401 0 0 401 0 0 401 0 0 200 0 0 401 0 0 401 0 0 401 0 0 401 0 0 401 0 0 401 0 0 401 0 0 401 0 0 401 0 0 401 0 0 401 0 0 401 0 0 401 0 0 401 0 0 401 0 0 401 0 0 401 0 0 401 0 0 401 0 0 401 0 0 401 0 0 401 0 0 401 0 0 401 0 0 401 0 0 401 0 0 401 0 0 401 0 0 401 0 0 401 0 0 401 0 0 401 0 0 401 0 0 401 0 0 401 0 0 401 0 0 401 0 0 401 0 0 401 0 0 401 0 0 401 0 0 200 0 0 401 0 113 171 216 113 171 216 113 171 216 113 171 216 113 171 216 113 171 216 113 171 216 113 171 216 113 171 216 113 171 216 113 171 216 113 171 216 113 171 216 113 171 216 113 171 216 113 171 216 113 171 216 113 171 216 113 171 216 113 171 216 113 171 216 113 171 216 113 171 216 113 171 216 113 171 216 113 171 216 113 171 216 113 171 216 113 171 216 113 171 216 113 171 216 113 171 216 113 171 216 113 171 216 113 171 216 113 171 216 113 171 216 56 85 108 113 171 216 113 171 216 113 171 216 113 171 216 113 171 216 113 171 216 113 171 216 113 171 216 113 171 216 113 171 216 113 171 216 113 171 216 113 171 216 113 171 216 113 171 216 113 171 216 113 171 216 113 171 216 113 171 216 113 171 216 113 171 216 113 171 216 113 171 216 
244 243 242 113 171 216 244 243 242 113 171 216 113 171 216 113 171 216 113 171 216 113 171 216 113 171 216 113 171 216 113 171 216 113 171 216 113 171 216 113 171 216 113 171 216 113 171 216 0 200 0 0 200 0 0 401 0 113 171 216 0 401 0 0 401 0 0 200 0 0 200 0 0 200 0 0 401 0 0 401 0 0 401 0 0 401 0 0 401 0 0 401 0 0 401 0 0 200 0 0 200 0 0 401 0 0 401 0 0 401 0 0 401 0 0 200 0 0 200 0 0 401 0 0 401 0 0 401 0 0 401 0 0 401 0 0 401 0 0 401 0 0 401 0 0 401 0 0 401 0 0 401 0 0 401 0 0 401 0 0 401 0 0 401 0 0 401 0 0 401 0 0 401 0 0 401 0 0 401 0 0 200 0 0 401 0 0 200 0 0 401 0 0 401 0 113 171 216 0 401 0 0 401 0 0 401 0 113 171 216 0 200 0 113 171 216 113 171 216 113 171 216 113 171 216 113 171 216 113 171 216 113 171 216 113 171 216 113 171 216 113 171 216 113 171 216 113 171 216 113 171 216 113 171 216 113 171 216 113 171 216 113 171 216 113 171 216 113 171 216 113 171 216 113 171 216 113 171 216 113 171 216 113 171 216 113 171 216 113 171 216 113 171 216 113 171 216 113 171 216 113 171 216 113 171 216 113 171 216 113 171 216 113 171 216 113 171 216 113 171 216 113 171 216 113 171 216 113 171 216 113 171 216 113 171 216 113 171 216 113 171 216 113 171 216 113 171 216 113 171 216 113 171 216 113 171 216 113 171 216 113 171 216 113 171 216 113 171 216 113 171 216 113 171 216 113 171 216 113 171 216 113 171 216 113 171 216 
244 243 242 244 243 242 113 171 216 56 85 108 113 171 216 113 171 216 113 171 216 113 171 216 113 171 216 113 171 216 113 171 216 113 171 216 113 171 216 113 171 216 113 171 216 113 171 216 113 171 216 0 401 0 0 401 0 0 401 0 0 200 0 0 401 0 0 401 0 0 401 0 0 401 0 0 401 0 0 401 0 0 401 0 0 401 0 0 401 0 0 401 0 0 401 0 0 401 0 0 401 0 0 401 0 0 401 0 0 200 0 0 401 0 0 401 0 0 401 0 0 401 0 0 401 0 0 401 0 0 401 0 0 401 0 0 401 0 0 401 0 0 401 0 0 401 0 0 401 0 0 401 0 0 401 0 0 401 0 0 401 0 0 401 0 0 401 0 0 401 0 0 401 0 0 401 0 0 401 0 0 401 0 0 401 0 0 401 0 0 401 0 0 401 0 0 401 0 113 171 216 0 401 0 0 401 0 0 401 0 113 171 216 113 171 216 113 171 216 113 171 216 113 171 216 113 171 216 113 171 216 113 171 216 113 171 216 113 171 216 113 171 216 113 171 216 113 171 216 113 171 216 113 171 216 113 171 216 113 171 216 113 171 216 113 171 216 113 171 216 113 171 216 113 171 216 113 171 216 113 171 216 113 171 216 113 171 216 113 171 216 113 171 216 113 171 216 113 171 216 113 171 216 113 171 216 113 171 216 113 171 216 113 171 216 113 171 216 113 171 216 113 171 216 113 171 216 113 171 216 113 171 216 113 171 216 113 171 216 113 171 216 113 171 216 113 171 216 113 171 216 113 171 216 113 171 216 113 171 216 113 171 216 113 171 216 113 171 216 113 171 216 113 171 216 113 171 216 113 171 216 113 171 216 113 171 216 
244 243 242 244 243 242 244 243 242 113 171 216 244 243 242 113 171 216 113 171 216 113 171 216 113 171 216 113 171 216 113 171 216 113 171 216 113 171 216 113 171 216 113 171 216 113 171 216 0 200 0 113 171 216 0 401 0 0 401 0 0 200 0 0 401 0 0 401 0 0 401 0 0 200 0 0 401 0 0 401 0 0 401 0 0 200 0 0 401 0 0 200 0 0 200 0 0 200 0 0 401 0 0 401 0 0 200 0 0 200 0 0 401 0 0 200 0 0 401 0 0 401 0 0 401 0 0 401 0 0 401 0 0 200 0 0 401 0 0 401 0 0 401 0 0 200 0 0 401 0 0 401 0 0 401 0 0 200 0 0 401 0 0 401 0 0 401 0 0 401 0 0 401 0 0 401 0 0 401 0 0 200 0 0 401 0 0 401 0 0 401 0 0 200 0 0 401 0 0 401 0 0 200 0 0 200 0 0 401 0 0 401 0 113 171 216 0 200 0 113 171 216 113 171 216 113 171 216 0 200 0 113 171 216 113 171 216 113 171 216 113 171 216 113 171 216 113 171 216 113 171 216 113 171 216 113 171 216 113 171 216 113 171 216 113 171 216 113 171 216 113 171 216 113 171 216 113 171 216 113 171 216 113 171 216 113 171 216 113 171 216 113 171 216 113 171 216 113 171 216 244 243 242 113 171 216 113 171 216 113 171 216 113 171 216 113 171 216 113 171 216 113 171 216 113 171 216 113 171 216 113 171 216 113 171 216 113 171 216 113 171 216 113 171 216 113 171 216 113 171 216 113 171 216 113 171 216 113 171 216 113 171 216 113 171 216 113 171 216 113 171 216 113 171 216 113 171 216 113 171 216 113 171 216 244 243 242 
244 243 242 122 121 121 56 85 108 56 85 108 113 171 216 56 85 108 113 171 216 113 171 216 113 171 216 113 171 216 113 171 216 113 171 216 113 171 216 113 171 216 113 171 216 113 171 216 113 171 216 113 171 216 113 171 216 0 401 0 0 401 0 0 401 0 0 401 0 0 401 0 0 401 0 0 401 0 0 401 0 0 401 0 0 401 0 0 401 0 0 401 0 0 401 0 0 401 0 0 401 0 0 401 0 0 401 0 0 401 0 0 401 0 0 401 0 0 401 0 0 401 0 0 401 0 0 401 0 0 401 0 0 401 0 0 401 0 0 401 0 0 401 0 0 401 0 0 401 0 0 401 0 0 401 0 0 401 0 0 401 0 0 401 0 0 401 0 0 401 0 0 401 0 0 401 0 0 401 0 0 401 0 0 401 0 0 401 0 0 401 0 0 200 0 0 401 0 0 401 0 0 401 0 0 401 0 0 401 0 0 401 0 0 401 0 113 171 216 113 171 216 113 171 216 113 171 216 113 171 216 113 171 216 113 171 216 113 171 216 113 171 216 113 171 216 113 171 216 113 171 216 113 171 216 113 171 216 113 171 216 113 171 216 113 171 216 113 171 216 113 171 216 113 171 216 113 171 216 113 171 216 113 171 216 113 171 216 113 171 216 113 171 216 113 171 216 113 171 216 113 171 216 56 85 108 113 171 216 113 171 216 113 171 216 113 171 216 113 171 216 113 171 216 113 171 216 113 171 216 113 171 216 113 171 216 113 171 216 113 171 216 113 171 216 113 171 216 113 171 216 113 171 216 113 171 216 113 171 216 113 171 216 113 171 216 113 171 216 113 171 216 113 171 216 113 171 216 113 171 216 113 171 216 113 171 216 
244 243 242 56 85 108 244 243 242 113 171 216 113 171 216 113 171 216 113 171 216 113 171 216 113 171 216 113 171 216 113 171 216 113 171 216 113 171 216 113 171 216 113 171 216 113 171 216 113 171 216 113 171 216 0 200 0 113 171 216 0 401 0 113 171 216 0 401 0 113 171 216 0 401 0 0 401 0 0 401 0 0 401 0 0 401 0 0 401 0 0 200 0 0 200 0 0 401 0 0 401 0 0 200 0 0 401 0 0 401 0 0 401 0 0 401 0 0 401 0 0 401 0 0 401 0 0 401 0 0 401 0 0 401 0 0 401 0 0 401 0 0 401 0 0 401 0 0 401 0 0 401 0 0 401 0 0 401 0 0 401 0 0 401 0 0 401 0 0 401 0 0 401 0 0 200 0 0 401 0 0 200 0 0 401 0 0 200 0 0 200 0 0 200 0 0 401 0 0 200 0 0 200 0 0 200 0 0 401 0 0 200 0 0 401 0 0 401 0 113 171 216 113 171 216 113 171 216 113 171 216 113 171 216 113 171 216 113 171 216 113 171 216 113 171 216 113 171 216 113 171 216 113 171 216 113 171 216 113 171 216 113 171 216 113 171 216 113 171 216 113 171 216 113 171 216 113 171 216 113 171 216 113 171 216 113 171 216 113 171 216 113 171 216 113 171 216 113 171 216 113 171 216 113 171 216 113 171 216 113 171 216 113 171 216 113 171 216 113 171 216 113 171 216 113 171 216 113 171 216 113 171 216 113 171 216 113 171 216 113 171 216 113 171 216 113 171 216 113 171 216 113 171 216 113 171 216 113 171 216 113 171 216 113 171 216 113 171 216 113 171 216 113 171 216 113 171 216 113 171 216 113 171 216 113 171 216 
244 243 242 244 243 242 113 171 216 56 85 108 113 171 216 113 171 216 113 171 216 113 171 216 113 171 216 113 171 216 113 171 216 113 171 216 113 171 216 113 171 216 113 171 216 113 171 216 113 171 216 113 171 216 113 171 216 113 171 216 113 171 216 113 171 216 113 171 216 0 401 0 0 200 0 0 401 0 0 401 0 0 401 0 0 200 0 0 401 0 0 401 0 0 401 0 0 401 0 0 401 0 0 401 0 0 401 0 0 401 0 0 401 0 0 401 0 0 401 0 0 200 0 0 401 0 0 401 0 0 401 0 0 200 0 0 401 0 0 401 0 0 401 0 0 401 0 0 401 0 0 401 0 0 401 0 0 401 0 0 401 0 0 401 0 0 401 0 0 200 0 0 200 0 0 401 0 0 401 0 0 401 0 0 401 0 0 200 0 0 200 0 0 200 0 0 401 0 0 401 0 0 401 0 0 401 0 0 401 0 0 401 0 0 401 0 113 171 216 113 171 216 113 171 216 113 171 216 113 171 216 113 171 216 113 171 216 113 171 216 113 171 216 113 171 216 113 171 216 113 171 216 113 171 216 113 171 216 113 171 216 113 171 216 113 171 216 113 171 216 113 171 216 113 171 216 113 171 216 113 171 216 113 171 216 113 171 216 113 171 216 113 171 216 113 171 216 113 171 216 113 171 216 113 171 216 113 171 216 113 171 216 113 171 216 113 171 216 113 171 216 113 171 216 113 171 216 113 171 216 113 171 216 113 171 216 113 171 216 113 171 216 113 171 216 113 171 216 113 171 216 113 171 216 113 171 216 113 171 216 113 171 216 113 171 216 113 171 216 113 171 216 113 171 216 113 171 216 113 171 216 113 171 216 113 171 216 
244 243 242 244 243 242 244 243 242 113 171 216 244 243 242 113 171 216 113 171 216 113 171 216 113 171 216 113 171 216 113 171 216 113 171 216 113 171 216 113 171 216 113 171 216 113 171 216 0 200 0 113 171 216 0 200 0 113 171 216 0 200 0 113 171 216 0 200 0 0 200 0 0 200 0 0 401 0 0 200 0 0 200 0 0 200 0 0 401 0 0 200 0 0 200 0 0 200 0 0 401 0 0 401 0 0 401 0 0 200 0 0 401 0 0 200 0 0 200 0 0 200 0 0 401 0 0 401 0 0 401 0 0 200 0 0 401 0 0 401 0 0 200 0 0 200 0 0 401 0 0 401 0 0 401 0 0 401 0 0 401 0 0 401 0 0 200 0 0 200 0 0 401 0 0 401 0 0 401 0 0 401 0 0 401 0 0 200 0 0 200 0 0 200 0 0 401 0 0 401 0 0 401 0 0 200 0 0 401 0 0 401 0 0 401 0 0 200 0 113 171 216 113 171 216 113 171 216 113 171 216 113 171 216 113 171 216 113 171 216 0 200 0 113 171 216 113 171 216 113 171 216 113 171 216 113 171 216 113 171 216 113 171 216 113 171 216 113 171 216 113 171 216 113 171 216 113 171 216 113 171 216 113 171 216 113 171 216 244 243 242 113 171 216 113 171 216 113 171 216 113 171 216 113 171 216 113 171 216 113 171 216 113 171 216 113 171 216 113 171 216 113 171 216 113 171 216 113 171 216 113 171 216 113 171 216 0 200 0 113 171 216 113 171 216 113 171 216 113 171 216 113 171 216 113 171 216 113 171 216 244 243 242 113 171 216 113 171 216 113 171 216 113 171 216 113 171 216 113 171 216 113 171 216 244 243 242 
244 243 242 122 121 121 56 85 108 56 85 108 113 171 216 56 85 108 113 171 216 113 171 216 113 171 216 113 171 216 113 171 216 113 171 216 113 171 216 113 171 216 113 171 216 113 171 216 113 171 216 113 171 216 113 171 216 113 171 216 113 171 216 113 171 216 113 171 216 0 401 0 0 401 0 0 401 0 0 401 0 0 401 0 0 401 0 0 401 0 0 401 0 0 401 0 0 401 0 0 401 0 0 401 0 0 401 0 0 401 0 0 401 0 0 401 0 0 401 0 0 401 0 0 401 0 0 401 0 0 401 0 0 401 0 0 401 0 0 401 0 0 401 0 0 401 0 0 401 0 0 401 0 0 401 0 0 401 0 0 401 0 0 401 0 0 401 0 0 401 0 0 401 0 0 401 0 0 401 0 0 401 0 0 401 0 0 401 0 0 401 0 0 401 0 0 401 0 0 401 0 0 401 0 0 401 0 0 401 0 0 401 0 0 401 0 113 171 216 113 171 216 113 171 216 113 171 216 113 171 216 113 171 216 113 171 216 113 171 216 113 171 216 113 171 216 113 171 216 113 171 216 113 171 216 113 171 216 113 171 216 113 171 216 113 171 216 113 171 216 113 171 216 113 171 216 113 171 216 113 171 216 113 171 216 113 171 216 113 171 216 56 85 108 113 171 216 113 171 216 113 171 216 113 171 216 113 171 216 113 171 216 113 171 216 113 171 216 113 171 216 113 171 216 113 171 216 113 171 216 113 171 216 113 171 216 113 171 216 113 171 216 113 171 216 113 171 216 113 171 216 113 171 216 113 171 216 113 171 216 113 171 216 56 85 108 113 171 216 113 171 216 113 171 216 113 171 216 113 171 216 113 171 216 113 171 216 
244 243 242 56 85 108 244 243 242 113 171 216 113 171 216 113 171 216 113 171 216 113 171 216 113 171 216 113 171 216 113 171 216 113 171 216 113 171 216 113 171 216 113 171 216 113 171 216 113 171 216 113 171 216 113 171 216 113 171 216 113 171 216 113 171 216 0 200 0 113 171 216 0 401 0 0 401 0 0 200 0 0 200 0 0 401 0 0 401 0 0 200 0 0 401 0 0 401 0 0 401 0 0 401 0 0 401 0 0 401 0 0 401 0 0 200 0 0 401 0 0 401 0 0 401 0 0 401 0 0 401 0 0 401 0 0 401 0 0 401 0 0 401 0 0 401 0 0 401 0 0 401 0 0 401 0 0 401 0 0 401 0 0 401 0 0 401 0 0 401 0 0 401 0 0 401 0 0 401 0 0 401 0 0 401 0 0 200 0 0 401 0 0 401 0 0 401 0 0 401 0 0 401 0 0 401 0 0 401 0 0 401 0 0 401 0 0 401 0 113 171 216 113 171 216 113 171 216 113 171 216 113 171 216 113 171 216 113 171 216 113 171 216 113 171 216 113 171 216 113 171 216 113 171 216 113 171 216 113 171 216 113 171 216 113 171 216 113 171 216 113 171 216 113 171 216 113 171 216 113 171 216 113 171 216 113 171 216 113 171 216 113 171 216 113 171 216 113 171 216 113 171 216 113 171 216 113 171 216 113 171 216 113 171 216 113 171 216 113 171 216 113 171 216 113 171 216 113 171 216 113 171 216 113 171 216 113 171 216 113 171 216 113 171 216 113 171 216 113 171 216 113 171 216 113 171 216 113 171 216 113 171 216 113 171 216 113 171 216 113 171 216 113 171 216 113 171 216 113 171 216 113 171 216 113 171 216 
113 171 216 56 85 108 113 171 216 56 85 108 113 171 216 113 171 216 113 171 216 113 171 216 113 171 216 113 171 216 113 171 216 113 171 216 113 171 216 113 171 216 113 171 216 113 171 216 113 171 216 113 171 216 113 171 216 113 171 216 113 171 216 113 171 216 113 171 216 113 171 216 113 171 216 0 401 0 0 401 0 0 401 0 0 401 0 0 401 0 0 401 0 0 401 0 0 401 0 0 401 0 0 401 0 0 401 0 0 200 0 0 401 0 0 401 0 0 401 0 0 401 0 0 401 0 0 401 0 0 401 0 0 401 0 0 401 0 0 401 0 0 401 0 0 401 0 0 401 0 0 401 0 0 401 0 0 401 0 0 401 0 0 401 0 0 401 0 0 401 0 0 401 0 0 401 0 0 401 0 0 401 0 0 401 0 0 401 0 0 401 0 0 401 0 0 401 0 0 401 0 0 401 0 0 401 0 0 401 0 0 401 0 0 401 0 113 171 216 113 171 216 113 171 216 113 171 216 113 171 216 113 171 216 113 171 216 113 171 216 113 171 216 113 171 216 113 171 216 113 171 216 113 171 216 113 171 216 113 171 216 113 171 216 113 171 216 113 171 216 113 171 216 113 171 216 113 171 216 113 171 216 113 171 216 113 171 216 113 171 216 113 171 216 113 171 216 113 171 216 113 171 216 113 171 216 113 171 216 113 171 216 113 171 216 113 171 216 113 171 216 113 171 216 113 171 216 113 171 216 113 171 216 113 171 216 113 171 216 113 171 216 113 171 216 113 171 216 113 171 216 113 171 216 113 171 216 113 171 216 113 171 216 113 171 216 113 171 216 113 171 216 113 171 216 113 171 216 113 171 216 113 171 216 113 171 216 
113 171 216 113 171 216 113 171 216 113 171 216 113 171 216 113 171 216 113 171 216 113 171 216 113 171 216 113 171 216 113 171 216 113 171 216 113 171 216 113 171 216 113 171 216 113 171 216 113 171 216 113 171 216 113 171 216 113 171 216 0 200 0 113 171 216 113 171 216 113 171 216 0 200 0 0 200 0 0 200 0 0 200 0 0 200 0 0 401 0 0 200 0 0 401 0 0 401 0 0 401 0 0 200 0 0 200 0 0 200 0 0 401 0 0 401 0 0 401 0 0 200 0 0 401 0 0 401 0 0 401 0 0 200 0 0 401 0 0 401 0 0 401 0 0 401 0 0 401 0 0 401 0 0 401 0 0 200 0 0 401 0 0 401 0 0 401 0 0 200 0 0 401 0 0 401 0 0 401 0 0 200 0 0 401 0 0 401 0 0 401 0 0 200 0 0 401 0 0 401 0 0 401 0 0 200 0 0 401 0 0 401 0 113 171 216 0 401 0 113 171 216 113 171 216 113 171 216 113 171 216 113 171 216 113 171 216 113 171 216 113 171 216 113 171 216 113 171 216 113 171 216 113 171 216 113 171 216 113 171 216 113 171 216 113 171 216 113 171 216 113 171 216 113 171 216 113 171 216 113 171 216 113 171 216 113 171 216 113 171 216 113 171 216 113 171 216 113 171 216 113 171 216 113 171 216 113 171 216 113 171 216 113 171 216 113 171 216 113 171 216 113 171 216 113 171 216 113 171 216 113 171 216 113 171 216 113 171 216 113 171 216 113 171 216 113 171 216 113 171 216 113 171 216 113 171 216 113 171 216 113 171 216 113 171 216 113 171 216 113 171 216 244 243 242 113 171 216 113 171 216 113 171 216 113 171 216 
113 171 216 113 171 216 113 171 216 113 171 216 113 171 216 113 171 216 113 171 216 113 171 216 113 171 216 113 171 216 113 171 216 113 171 216 113 171 216 113 171 216 113 171 216 113 171 216 113 171 216 113 171 216 113 171 216 113 171 216 113 171 216 113 171 216 113 171 216 113 171 216 113 171 216 0 401 0 0 401 0 0 401 0 0 401 0 0 401 0 0 401 0 0 401 0 0 401 0 0 401 0 0 401 0 0 401 0 0 401 0 0 401 0 0 401 0 0 401 0 0 401 0 0 401 0 0 401 0 0 401 0 0 401 0 0 401 0 0 401 0 0 401 0 0 401 0 0 401 0 0 401 0 0 401 0 0 401 0 0 401 0 0 401 0 0 401 0 0 401 0 0 401 0 0 401 0 0 401 0 0 401 0 0 401 0 113 171 216 0 401 0 0 401 0 0 401 0 0 401 0 0 401 0 0 401 0 0 401 0 113 171 216 113 171 216 113 171 216 113 171 216 113 171 216 113 171 216 113 171 216 113 171 216 113 171 216 113 171 216 113 171 216 113 171 216 113 171 216 113 171 216 113 171 216 113 171 216 113 171 216 113 171 216 113 171 216 113 171 216 113 171 216 113 171 216 113 171 216 113 171 216 113 171 216 113 171 216 113 171 216 113 171 216 113 171 216 113 171 216 113 171 216 113 171 216 113 171 216 113 171 216 113 171 216 113 171 216 113 171 216 113 171 216 113 171 216 113 171 216 113 171 216 113 171 216 113 171 216 113 171 216 113 171 216 113 171 216 113 171 216 113 171 216 113 171 216 113 171 216 113 171 216 113 171 216 113 171 216 113 171 216 113 171 216 56 85 108 113 171 216 113 171 216 113 171 216 
113 171 216 113 171 216 113 171 216 113 171 216 113 171 216 113 171 216 113 171 216 113 171 216 113 171 216 113 171 216 113 171 216 113 171 216 113 171 216 113 171 216 113 171 216 113 171 216 113 171 216 113 171 216 113 171 216 113 171 216 113 171 216 113 171 216 113 171 216 113 171 216 0 200 0 0 200 0 0 200 0 0 401 0 0 401 0 0 401 0 0 401 0 0 401 0 0 200 0 0 401 0 0 200 0 0 401 0 0 401 0 0 401 0 0 401 0 0 200 0 0 401 0 0 401 0 0 401 0 0 401 0 0 401 0 0 401 0 0 401 0 0 401 0 0 401 0 0 401 0 0 401 0 0 401 0 0 401 0 0 401 0 0 200 0 0 401 0 0 401 0 0 401 0 0 200 0 0 401 0 0 401 0 0 401 0 0 401 0 0 200 0 0 401 0 0 401 0 0 200 0 0 401 0 0 401 0 113 171 216 0 401 0 113 171 216 113 171 216 113 171 216 113 171 216 113 171 216 113 171 216 113 171 216 113 171 216 113 171 216 113 171 216 113 171 216 113 171 216 113 171 216 113 171 216 113 171 216 113 171 216 113 171 216 113 171 216 113 171 216 113 171 216 113 171 216 113 171 216 113 171 216 113 171 216 113 171 216 113 171 216 113 171 216 113 171 216 113 171 216 113 171 216 113 171 216 113 171 216 113 171 216 113 171 216 113 171 216 113 171 216 113 171 216 113 171 216 113 171 216 113 171 216 113 171 216 113 171 216 113 171 216 113 171 216 113 171 216 113 171 216 113 171 216 113 171 216 113 171 216 113 171 216 113 171 216 113 171 216 113 171 216 113 171 216 113 171 216 113 171 216 113 171 216 113 171 216 
113 171 216 113 171 216 113 171 216 113 171 216 113 171 216 113 171 216 113 171 216 113 171 216 113 171 216 113 171 216 113 171 216 113 171 216 113 171 216 113 171 216 113 171 216 113 171 216 113 171 216 113 171 216 113 171 216 113 171 216 113 171 216 113 171 216 113 171 216 113 171 216 113 171 216 0 401 0 0 401 0 0 401 0 0 401 0 0 401 0 0 401 0 0 401 0 0 401 0 0 401 0 0 401 0 0 401 0 0 401 0 0 401 0 0 401 0 0 401 0 0 401 0 0 401 0 0 401 0 0 401 0 0 401 0 0 401 0 0 401 0 0 401 0 0 401 0 0 401 0 0 401 0 0 401 0 0 401 0 0 401 0 0 401 0 0 401 0 0 401 0 0 401 0 0 401 0 0 401 0 0 401 0 0 401 0 0 401 0 0 401 0 0 401 0 0 401 0 0 401 0 0 401 0 113 171 216 113 171 216 113 171 216 113 171 216 113 171 216 113 171 216 113 171 216 113 171 216 113 171 216 113 171 216 113 171 216 113 171 216 113 171 216 113 171 216 113 171 216 113 171 216 113 171 216 113 171 216 113 171 216 113 171 216 113 171 216 113 171 216 113 171 216 113 171 216 113 171 216 113 171 216 113 171 216 113 171 216 113 171 216 113 171 216 113 171 216 113 171 216 113 171 216 113 171 216 113 171 216 113 171 216 113 171 216 113 171 216 113 171 216 113 171 216 113 171 216 113 171 216 113 171 216 113 171 216 113 171 216 113 171 216 113 171 216 113 171 216 113 171 216 113 171 216 113 171 216 113 171 216 113 171 216 113 171 216 113 171 216 113 171 216 113 171 216 113 171 216 113 171 216 113 171 216 113 171 216 
113 171 216 113 171 216 113 171 216 113 171 216 113 171 216 113 171 216 113 171 216 113 171 216 113 171 216 113 171 216 113 171 216 113 171 216 113 171 216 113 171 216 113 171 216 113 171 216 113 171 216 113 171 216 113 171 216 113 171 216 113 171 216 113 171 216 113 171 216 113 171 216 0 200 0 0 200 0 0 401 0 0 401 0 0 200 0 0 401 0 0 401 0 0 401 0 0 200 0 0 401 0 0 401 0 0 401 0 0 200 0 0 401 0 0 200 0 0 200 0 0 200 0 0 401 0 0 401 0 0 401 0 0 200 0 0 401 0 0 401 0 0 401 0 0 401 0 0 401 0 0 401 0 0 401 0 0 200 0 0 401 0 0 200 0 0 401 0 0 200 0 0 401 0 0 401 0 0 401 0 0 200 0 0 401 0 0 401 0 0 401 0 0 200 0 0 401 0 0 401 0 113 171 216 0 401 0 113 171 216 113 171 216 113 171 216 0 200 0 113 171 216 113 171 216 113 171 216 113 171 216 113 171 216 113 171 216 113 171 216 113 171 216 113 171 216 113 171 216 113 171 216 113 171 216 113 171 216 113 171 216 113 171 216 113 171 216 113 171 216 113 171 216 113 171 216 113 171 216 113 171 216 113 171 216 113 171 216 113 171 216 113 171 216 113 171 216 113 171 216 113 171 216 113 171 216 113 171 216 113 171 216 0 200 0 113 171 216 113 171 216 113 171 216 113 171 216 113 171 216 113 171 216 113 171 216 113 171 216 113 171 216 113 171 216 113 171 216 113 171 216 113 171 216 113 171 216 113 171 216 113 171 216 113 171 216 113 171 216 113 171 216 113 171 216 113 171 216 113 171 216 113 171 216 113 171 216 
113 171 216 113 171 216 113 171 216 113 171 216 113 171 216 113 171 216 113 171 216 113 171 216 113 171 216 113 171 216 113 171 216 113 171 216 113 171 216 113 171 216 113 171 216 113 171 216 113 171 216 113 171 216 113 171 216 113 171 216 113 171 216 113 171 216 113 171 216 113 171 216 113 171 216 0 401 0 0 401 0 0 401 0 0 401 0 0 401 0 0 401 0 0 401 0 0 401 0 0 401 0 0 401 0 0 401 0 0 401 0 0 401 0 0 200 0 0 401 0 0 401 0 0 401 0 0 401 0 0 401 0 0 401 0 0 401 0 0 401 0 0 401 0 0 401 0 0 401 0 0 401 0 0 401 0 0 401 0 0 401 0 0 401 0 0 401 0 0 401 0 0 401 0 113 171 216 0 401 0 0 401 0 0 401 0 113 171 216 0 401 0 0 401 0 0 401 0 113 171 216 113 171 216 113 171 216 113 171 216 113 171 216 113 171 216 113 171 216 113 171 216 113 171 216 113 171 216 113 171 216 113 171 216 113 171 216 113 171 216 113 171 216 113 171 216 113 171 216 113 171 216 113 171 216 113 171 216 113 171 216 113 171 216 113 171 216 113 171 216 113 171 216 113 171 216 113 171 216 113 171 216 113 171 216 113 171 216 113 171 216 113 171 216 113 171 216 113 171 216 113 171 216 113 171 216 113 171 216 113 171 216 113 171 216 113 171 216 113 171 216 113 171 216 113 171 216 113 171 216 113 171 216 113 171 216 113 171 216 113 171 216 113 171 216 113 171 216 113 171 216 113 171 216 113 171 216 113 171 216 113 171 216 113 171 216 113 171 216 113 171 216 113 171 216 113 171 216 113 171 216 113 171 216 113 171 216 
113 171 216 113 171 216 113 171 216 113 171 216 113 171 216 113 171 216 113 171 216 113 171 216 113 171 216 113 171 216 113 171 216 113 171 216 113 171 216 113 171 216 113 171 216 113 171 216 113 171 216 113 171 216 113 171 216 113 171 216 113 171 216 113 171 216 113 171 216 113 171 216 113 171 216 113 171 216 0 401 0 113 171 216 0 401 0 0 401 0 0 200 0 0 200 0 0 401 0 0 401 0 0 401 0 0 200 0 0 200 0 0 200 0 0 401 0 0 401 0 0 401 0 0 401 0 0 401 0 0 401 0 0 401 0 0 401 0 0 401 0 0 401 0 0 401 0 0 401 0 0 200 0 0 401 0 0 200 0 0 401 0 0 200 0 0 401 0 0 401 0 0 401 0 0 401 0 0 200 0 0 401 0 0 401 0 0 401 0 113 171 216 0 401 0 113 171 216 0 401 0 113 171 216 113 171 216 113 171 216 113 171 216 113 171 216 113 171 216 113 171 216 113 171 216 113 171 216 113 171 216 113 171 216 113 171 216 113 171 216 113 171 216 113 171 216 113 171 216 113 171 216 113 171 216 113 171 216 113 171 216 113 171 216 113 171 216 113 171 216 113 171 216 113 171 216 113 171 216 113 171 216 113 171 216 113 171 216 113 171 216 113 171 216 113 171 216 113 171 216 113 171 216 113 171 216 113 171 216 113 171 216 113 171 216 113 171 216 113 171 216 113 171 216 113 171 216 113 171 216 113 171 216 113 171 216 113 171 216 113 171 216 113 171 216 113 171 216 113 171 216 113 171 216 113 171 216 113 171 216 113 171 216 113 171 216 113 171 216 113 171 216 113 171 216 113 171 216 113 171 216 113 171 216 113 171 216 
113 171 216 113 171 216 113 171 216 113 171 216 113 171 216 113 171 216 113 171 216 113 171 216 113 171 216 113 171 216 113 171 216 113 171 216 113 171 216 113 171 216 113 171 216 113 171 216 113 171 216 113 171 216 113 171 216 113 171 216 113 171 216 113 171 216 113 171 216 113 171 216 113 171 216 113 171 216 113 171 216 0 401 0 0 200 0 0 401 0 0 401 0 0 401 0 0 401 0 0 401 0 0 401 0 0 401 0 0 401 0 0 401 0 0 401 0 0 401 0 0 401 0 0 401 0 0 401 0 0 401 0 0 401 0 0 401 0 0 401 0 0 401 0 0 401 0 0 401 0 0 401 0 0 401 0 0 401 0 0 401 0 0 401 0 0 401 0 113 171 216 0 401 0 113 171 216 0 401 0 0 401 0 0 401 0 113 171 216 113 171 216 113 171 216 113 171 216 113 171 216 113 171 216 113 171 216 113 171 216 113 171 216 113 171 216 113 171 216 113 171 216 113 171 216 113 171 216 113 171 216 113 171 216 113 171 216 113 171 216 113 171 216 113 171 216 113 171 216 113 171 216 113 171 216 113 171 216 113 171 216 113 171 216 113 171 216 113 171 216 113 171 216 113 171 216 113 171 216 113 171 216 113 171 216 113 171 216 113 171 216 113 171 216 113 171 216 113 171 216 113 171 216 113 171 216 113 171 216 113 171 216 113 171 216 113 171 216 113 171 216 113 171 216 113 171 216 113 171 216 113 171 216 113 171 216 113 171 216 113 171 216 113 171 216 113 171 216 113 171 216 113 171 216 113 171 216 113 171 216 113 171 216 113 171 216 113 171 216 113 171 216 113 171 216 113 171 216 113 171 216 113 171 216 113 171 216 
113 171 216 113 171 216 113 171 216 113 171 216 113 171 216 113 171 216 113 171 216 113 171 216 113 171 216 113 171 216 113 171 216 113 171 216 113 171 216 113 171 216 113 171 216 113 171 216 113 171 216 113 171 216 113 171 216 113 171 216 113 171 216 113 171 216 113 171 216 113 171 216 0 200 0 113 171 216 0 200 0 0 200 0 0 200 0 0 401 0 0 200 0 0 401 0 0 401 0 0 401 0 0 401 0 0 200 0 0 200 0 0 200 0 0 401 0 0 401 0 0 200 0 0 401 0 0 401 0 0 401 0 0 200 0 0 401 0 0 401 0 0 401 0 0 200 0 0 401 0 0 200 0 0 401 0 0 401 0 0 401 0 0 401 0 113 171 216 0 401 0 113 171 216 0 401 0 0 200 0 0 200 0 113 171 216 113 171 216 113 171 216 0 200 0 113 171 216 113 171 216 113 171 216 0 200 0 113 171 216 113 171 216 113 171 216 113 171 216 113 171 216 113 171 216 113 171 216 113 171 216 113 171 216 113 171 216 113 171 216 113 171 216 113 171 216 113 171 216 113 171 216 113 171 216 113 171 216 113 171 216 113 171 216 113 171 216 113 171 216 113 171 216 113 171 216 113 171 216 113 171 216 113 171 216 113 171 216 113 171 216 113 171 216 113 171 216 113 171 216 113 171 216 113 171 216 113 171 216 113 171 216 113 171 216 113 171 216 113 171 216 113 171 216 113 171 216 113 171 216 113 171 216 113 171 216 113 171 216 113 171 216 113 171 216 113 171 216 113 171 216 113 171 216 113 171 216 113 171 216 113 171 216 113 171 216 113 171 216 113 171 216 113 171 216 113 171 216 113 171 216 113 171 216 113 171 216 
113 171 216 113 171 216 113 171 216 113 171 216 113 171 216 113 171 216 113 171 216 113 171 216 113 171 216 113 171 216 113 171 216 113 171 216 113 171 216 113 171 216 113 171 216 113 171 216 113 171 216 113 171 216 113 171 216 113 171 216 113 171 216 113 171 216 113 171 216 113 171 216 113 171 216 113 171 216 113 171 216 0 401 0 0 401 0 0 401 0 0 401 0 0 401 0 0 200 0 0 401 0 0 401 0 0 200 0 0 200 0 0 401 0 0 401 0 0 401 0 0 401 0 0 401 0 0 401 0 0 401 0 0 401 0 0 401 0 0 401 0 0 401 0 0 401 0 0 401 0 0 401 0 0 401 0 0 401 0 0 401 0 113 171 216 113 171 216 113 171 216 113 171 216 113 171 216 113 171 216 113 171 216 113 171 216 113 171 216 113 171 216 113 171 216 113 171 216 113 171 216 113 171 216 113 171 216 113 171 216 113 171 216 113 171 216 113 171 216 113 171 216 113 171 216 113 171 216 113 171 216 113 171 216 113 171 216 113 171 216 113 171 216 113 171 216 113 171 216 113 171 216 113 171 216 113 171 216 113 171 216 113 171 216 113 171 216 113 171 216 113 171 216 113 171 216 113 171 216 113 171 216 113 171 216 113 171 216 113 171 216 113 171 216 113 171 216 113 171 216 113 171 216 113 171 216 113 171 216 113 171 216 113 171 216 113 171 216 113 171 216 113 171 216 113 171 216 113 171 216 113 171 216 113 171 216 113 171 216 113 171 216 113 171 216 113 171 216 113 171 216 113 171 216 113 171 216 113 171 216 113 171 216 113 171 216 113 171 216 113 171 216 113 171 216 113 171 216 113 171 216 113 171 216 113 171 216 
113 171 216 113 171 216 113 171 216 113 171 216 113 171 216 113 171 216 113 171 216 113 171 216 113 171 216 113 171 216 113 171 216 113 171 216 113 171 216 113 171 216 113 171 216 113 171 216 113 171 216 113 171 216 113 171 216 113 171 216 113 171 216 113 171 216 113 171 216 113 171 216 113 171 216 113 171 216 0 200 0 113 171 216 0 401 0 0 401 0 0 200 0 0 401 0 0 401 0 0 401 0 0 200 0 0 200 0 0 401 0 0 401 0 0 401 0 0 401 0 0 401 0 0 401 0 0 200 0 0 401 0 0 401 0 0 401 0 0 401 0 0 401 0 0 200 0 0 200 0 0 401 0 0 401 0 0 401 0 113 171 216 0 401 0 113 171 216 113 171 216 113 171 216 0 200 0 113 171 216 113 171 216 113 171 216 0 200 0 113 171 216 113 171 216 113 171 216 113 171 216 113 171 216 113 171 216 113 171 216 113 171 216 113 171 216 113 171 216 113 171 216 113 171 216 113 171 216 113 171 216 113 171 216 113 171 216 113 171 216 113 171 216 113 171 216 113 171 216 113 171 216 113 171 216 113 171 216 113 171 216 113 171 216 113 171 216 113 171 216 113 171 216 113 171 216 113 171 216 113 171 216 113 171 216 113 171 216 113 171 216 113 171 216 113 171 216 113 171 216 113 171 216 113 171 216 113 171 216 113 171 216 113 171 216 113 171 216 113 171 216 113 171 216 113 171 216 113 171 216 113 171 216 113 171 216 113 171 216 113 171 216 113 171 216 113 171 216 113 171 216 113 171 216 113 171 216 113 171 216 113 171 216 113 171 216 113 171 216 113 171 216 113 171 216 113 171 216 113 171 216 113 171 216 113 171 216 
113 171 216 113 171 216 113 171 216 113 171 216 113 171 216 113 171 216 113 171 216 113 171 216 113 171 216 113 171 216 113 171 216 113 171 216 113 171 216 113 171 216 113 171 216 113 171 216 113 171 216 113 171 216 113 171 216 113 171 216 113 171 216 113 171 216 113 171 216 113 171 216 113 171 216 113 171 216 113 171 216 0 401 0 113 171 216 0 401 0 0 401 0 0 401 0 0 200 0 0 200 0 0 200 0 0 401 0 0 401 0 0 401 0 0 401 0 0 401 0 0 401 0 0 401 0 0 401 0 0 401 0 0 401 0 0 401 0 0 401 0 0 401 0 0 200 0 0 401 0 0 401 0 0 401 0 0 401 0 0 401 0 113 171 216 113 171 216 113 171 216 113 171 216 113 171 216 113 171 216 113 171 216 113 171 216 113 171 216 113 171 216 113 171 216 113 171 216 113 171 216 113 171 216 113 171 216 113 171 216 113 171 216 113 171 216 113 171 216 113 171 216 113 171 216 113 171 216 113 171 216 113 171 216 113 171 216 113 171 216 113 171 216 113 171 216 113 171 216 113 171 216 113 171 216 113 171 216 113 171 216 113 171 216 113 171 216 113 171 216 113 171 216 113 171 216 113 171 216 113 171 216 113 171 216 113 171 216 113 171 216 113 171 216 113 171 216 113 171 216 113 171 216 113 171 216 113 171 216 113 171 216 113 171 216 113 171 216 113 171 216 113 171 216 113 171 216 113 171 216 113 171 216 113 171 216 113 171 216 113 171 216 113 171 216 113 171 216 113 171 216 113 171 216 113 171 216 113 171 216 113 171 216 113 171 216 113 171 216 113 171 216 113 171 216 113 171 216 113 171 216 113 171 216 113 171 216 
244 243 242 113 171 216 113 171 216 113 171 216 113 171 216 113 171 216 113 171 216 113 171 216 113 171 216 113 171 216 113 171 216 113 171 216 113 171 216 113 171 216 113 171 216 113 171 216 0 200 0 113 171 216 113 171 216 113 171 216 113 171 216 113 171 216 113 171 216 113 171 216 0 200 0 113 171 216 0 200 0 113 171 216 0 401 0 0 200 0 0 200 0 0 200 0 0 200 0 0 401 0 0 200 0 0 401 0 0 200 0 0 401 0 0 401 0 0 401 0 0 200 0 0 401 0 0 401 0 0 401 0 0 200 0 0 401 0 0 200 0 0 401 0 0 200 0 0 401 0 0 401 0 0 401 0 0 200 0 0 401 0 0 401 0 113 171 216 0 200 0 113 171 216 0 200 0 113 171 216 0 200 0 113 171 216 0 200 0 113 171 216 0 200 0 113 171 216 113 171 216 113 171 216 0 200 0 113 171 216 113 171 216 113 171 216 0 200 0 113 171 216 113 171 216 113 171 216 113 171 216 113 171 216 113 171 216 113 171 216 0 200 0 113 171 216 113 171 216 113 171 216 113 171 216 113 171 216 113 171 216 113 171 216 113 171 216 113 171 216 113 171 216 113 171 216 113 171 216 113 171 216 113 171 216 113 171 216 113 171 216 113 171 216 113 171 216 113 171 216 113 171 216 113 171 216 113 171 216 113 171 216 0 200 0 113 171 216 113 171 216 113 171 216 113 171 216 113 171 216 113 171 216 113 171 216 113 171 216 113 171 216 113 171 216 113 171 216 113 171 216 113 171 216 113 171 216 113 171 216 113 171 216 113 171 216 113 171 216 113 171 216 113 171 216 113 171 216 113 171 216 113 171 216 113 171 216 
244 243 242 56 85 108 113 171 216 113 171 216 113 171 216 113 171 216 113 171 216 113 171 216 113 171 216 113 171 216 113 171 216 113 171 216 113 171 216 113 171 216 113 171 216 113 171 216 113 171 216 113 171 216 113 171 216 113 171 216 113 171 216 113 171 216 113 171 216 113 171 216 113 171 216 113 171 216 113 171 216 0 401 0 0 200 0 0 401 0 0 401 0 0 401 0 0 200 0 0 401 0 0 401 0 0 401 0 0 401 0 0 401 0 0 401 0 0 401 0 0 401 0 0 401 0 0 401 0 0 401 0 0 401 0 0 401 0 0 401 0 0 401 0 0 401 0 0 401 0 0 401 0 0 401 0 0 401 0 0 401 0 113 171 216 113 171 216 113 171 216 113 171 216 113 171 216 113 171 216 113 171 216 113 171 216 113 171 216 113 171 216 113 171 216 113 171 216 113 171 216 113 171 216 113 171 216 113 171 216 113 171 216 113 171 216 113 171 216 113 171 216 113 171 216 113 171 216 113 171 216 113 171 216 113 171 216 113 171 216 113 171 216 113 171 216 113 171 216 113 171 216 113 171 216 113 171 216 113 171 216 113 171 216 113 171 216 113 171 216 113 171 216 113 171 216 113 171 216 113 171 216 113 171 216 113 171 216 113 171 216 113 171 216 113 171 216 113 171 216 113 171 216 113 171 216 113 171 216 113 171 216 113 171 216 113 171 216 113 171 216 113 171 216 113 171 216 113 171 216 113 171 216 113 171 216 113 171 216 113 171 216 113 171 216 113 171 216 113 171 216 113 171 216 113 171 216 113 171 216 113 171 216 113 171 216 113 171 216 113 171 216 113 171 216 113 171 216 113 171 216 113 171 216 113 171 216 
244 243 242 56 85 108 244 243 242 113 171 216 113 171 216 113 171 216 113 171 216 113 171 216 113 171 216 113 171 216 113 171 216 113 171 216 113 171 216 113 171 216 113 171 216 113 171 216 113 171 216 113 171 216 113 171 216 113 171 216 113 171 216 113 171 216 113 171 216 113 171 216 113 171 216 113 171 216 0 200 0 0 200 0 0 401 0 0 401 0 0 200 0 0 200 0 0 200 0 0 401 0 0 200 0 0 401 0 0 401 0 0 401 0 0 401 0 0 401 0 0 200 0 0 401 0 0 200 0 0 401 0 0 200 0 0 401 0 0 200 0 0 401 0 0 401 0 0 401 0 0 401 0 0 401 0 0 401 0 113 171 216 0 401 0 113 171 216 113 171 216 113 171 216 113 171 216 113 171 216 113 171 216 113 171 216 0 200 0 113 171 216 0 200 0 113 171 216 0 200 0 113 171 216 0 200 0 113 171 216 0 200 0 113 171 216 113 171 216 113 171 216 113 171 216 113 171 216 113 171 216 113 171 216 113 171 216 113 171 216 113 171 216 113 171 216 113 171 216 113 171 216 113 171 216 113 171 216 113 171 216 113 171 216 113 171 216 113 171 216 113 171 216 113 171 216 113 171 216 113 171 216 113 171 216 113 171 216 113 171 216 113 171 216 113 171 216 113 171 216 113 171 216 113 171 216 113 171 216 113 171 216 113 171 216 113 171 216 113 171 216 113 171 216 113 171 216 113 171 216 113 171 216 113 171 216 113 171 216 113 171 216 113 171 216 113 171 216 113 171 216 113 171 216 113 171 216 113 171 216 113 171 216 113 171 216 113 171 216 113 171 216 113 171 216 113 171 216 113 171 216 113 171 216 113 171 216 
113 171 216 56 85 108 113 171 216 56 85 108 113 171 216 113 171 216 113 171 216 113 171 216 113 171 216 113 171 216 113 171 216 113 171 216 113 171 216 113 171 216 113 171 216 113 171 216 113 171 216 113 171 216 113 171 216 113 171 216 113 171 216 113 171 216 113 171 216 113 171 216 113 171 216 113 171 216 113 171 216 0 401 0 0 401 0 0 401 0 0 401 0 0 401 0 0 401 0 0 401 0 0 401 0 0 401 0 0 401 0 0 401 0 0 401 0 0 401 0 0 200 0 0 401 0 0 200 0 0 401 0 0 200 0 0 401 0 0 401 0 0 401 0 0 401 0 0 401 0 0 401 0 0 401 0 0 401 0 0 401 0 113 171 216 113 171 216 113 171 216 113 171 216 113 171 216 113 171 216 113 171 216 0 200 0 0 200 0 0 401 0 0 200 0 0 401 0 113 171 216 0 401 0 0 200 0 0 401 0 113 171 216 0 401 0 113 171 216 113 171 216 113 171 216 113 171 216 113 171 216 113 171 216 113 171 216 113 171 216 113 171 216 113 171 216 113 171 216 113 171 216 113 171 216 113 171 216 113 171 216 113 171 216 113 171 216 113 171 216 113 171 216 113 171 216 113 171 216 113 171 216 113 171 216 113 171 216 113 171 216 113 171 216 113 171 216 113 171 216 113 171 216 113 171 216 113 171 216 113 171 216 113 171 216 113 171 216 113 171 216 113 171 216 113 171 216 113 171 216 113 171 216 113 171 216 113 171 216 113 171 216 113 171 216 113 171 216 113 171 216 113 171 216 113 171 216 113 171 216 113 171 216 113 171 216 113 171 216 113 171 216 113 171 216 113 171 216 113 171 216 113 171 216 113 171 216 
244 243 242 113 171 216 113 171 216 113 171 216 244 243 242 113 171 216 113 171 216 113 171 216 113 171 216 113 171 216 113 171 216 113 171 216 113 171 216 113 171 216 113 171 216 113 171 216 113 171 216 113 171 216 113 171 216 113 171 216 0 200 0 113 171 216 113 171 216 113 171 216 0 200 0 113 171 216 0 200 0 0 200 0 0 200 0 0 401 0 0 200 0 0 200 0 0 200 0 0 401 0 0 401 0 0 401 0 0 401 0 0 401 0 0 200 0 0 200 0 0 200 0 0 401 0 0 200 0 0 401 0 0 200 0 0 401 0 0 401 0 0 401 0 0 200 0 0 401 0 0 401 0 0 200 0 0 200 0 0 401 0 0 401 0 113 171 216 0 200 0 113 171 216 0 200 0 0 200 0 0 200 0 0 200 0 0 200 0 0 401 0 0 200 0 0 401 0 0 401 0 0 200 0 0 200 0 0 401 0 0 401 0 0 200 0 0 200 0 0 200 0 0 200 0 113 171 216 0 200 0 113 171 216 113 171 216 113 171 216 113 171 216 113 171 216 113 171 216 113 171 216 0 200 0 113 171 216 113 171 216 113 171 216 0 200 0 113 171 216 113 171 216 113 171 216 0 200 0 113 171 216 113 171 216 113 171 216 113 171 216 113 171 216 113 171 216 113 171 216 113 171 216 113 171 216 113 171 216 113 171 216 113 171 216 113 171 216 113 171 216 113 171 216 113 171 216 113 171 216 113 171 216 113 171 216 113 171 216 113 171 216 113 171 216 113 171 216 113 171 216 113 171 216 113 171 216 113 171 216 113 171 216 113 171 216 113 171 216 113 171 216 113 171 216 113 171 216 113 171 216 113 171 216 113 171 216 
113 171 216 56 85 108 113 171 216 113 171 216 113 171 216 56 85 108 113 171 216 113 171 216 113 171 216 113 171 216 113 171 216 113 171 216 113 171 216 113 171 216 113 171 216 113 171 216 113 171 216 113 171 216 113 171 216 113 171 216 113 171 216 113 171 216 113 171 216 113 171 216 113 171 216 113 171 216 113 171 216 0 401 0 0 401 0 0 401 0 0 401 0 0 401 0 0 401 0 0 401 0 0 401 0 0 401 0 0 401 0 0 401 0 0 200 0 0 401 0 0 401 0 0 401 0 0 401 0 0 401 0 0 401 0 0 401 0 0 401 0 0 401 0 0 401 0 0 401 0 0 401 0 0 401 0 0 401 0 0 401 0 0 401 0 0 401 0 0 200 0 0 401 0 0 200 0 0 401 0 0 401 0 0 401 0 0 200 0 0 401 0 0 401 0 0 401 0 0 401 0 0 401 0 0 401 0 0 401 0 0 401 0 0 401 0 0 401 0 0 401 0 0 401 0 0 401 0 113 171 216 113 171 216 113 171 216 113 171 216 113 171 216 113 171 216 113 171 216 113 171 216 113 171 216 113 171 216 113 171 216 113 171 216 113 171 216 113 171 216 113 171 216 113 171 216 113 171 216 113 171 216 113 171 216 113 171 216 113 171 216 113 171 216 113 171 216 113 171 216 113 171 216 113 171 216 113 171 216 113 171 216 113 171 216 113 171 216 113 171 216 113 171 216 113 171 216 113 171 216 113 171 216 113 171 216 113 171 216 113 171 216 113 171 216 113 171 216 113 171 216 113 171 216 113 171 216 113 171 216 113 171 216 113 171 216 113 171 216 113 171 216 113 171 216 113 171 216 113 171 216 113 171 216 113 171 216 
113 171 216 113 171 216 113 171 216 113 171 216 113 171 216 113 171 216 113 171 216 113 171 216 113 171 216 113 171 216 113 171 216 113 171 216 113 171 216 113 171 216 113 171 216 113 171 216 113 171 216 113 171 216 113 171 216 113 171 216 113 171 216 113 171 216 113 171 216 113 171 216 0 200 0 113 171 216 0 200 0 0 200 0 0 401 0 0 401 0 0 200 0 0 200 0 0 401 0 0 401 0 0 200 0 0 401 0 0 200 0 0 200 0 0 200 0 0 401 0 0 200 0 0 401 0 0 200 0 0 401 0 0 401 0 0 401 0 0 200 0 0 401 0 0 401 0 0 401 0 0 200 0 0 401 0 0 401 0 0 401 0 0 401 0 0 401 0 0 200 0 0 401 0 0 200 0 0 401 0 0 200 0 0 200 0 0 200 0 0 401 0 0 200 0 0 200 0 0 200 0 0 401 0 0 200 0 0 401 0 0 200 0 0 401 0 0 401 0 0 401 0 0 401 0 0 401 0 0 401 0 113 171 216 0 200 0 113 171 216 113 171 216 113 171 216 113 171 216 113 171 216 113 171 216 113 171 216 0 200 0 113 171 216 0 200 0 113 171 216 0 200 0 113 171 216 113 171 216 113 171 216 113 171 216 113 171 216 113 171 216 113 171 216 113 171 216 113 171 216 113 171 216 113 171 216 113 171 216 113 171 216 113 171 216 113 171 216 113 171 216 113 171 216 113 171 216 113 171 216 113 171 216 113 171 216 113 171 216 113 171 216 113 171 216 113 171 216 113 171 216 113 171 216 113 171 216 113 171 216 113 171 216 113 171 216 113 171 216 113 171 216 113 171 216 113 171 216 113 171 216 113 171 216 113 171 216 
113 171 216 113 171 216 113 171 216 113 171 216 113 171 216 113 171 216 113 171 216 113 171 216 113 171 216 113 171 216 113 171 216 113 171 216 113 171 216 113 171 216 113 171 216 113 171 216 113 171 216 113 171 216 113 171 216 113 171 216 113 171 216 113 171 216 113 171 216 113 171 216 113 171 216 0 401 0 0 200 0 0 401 0 0 401 0 0 401 0 0 401 0 0 401 0 0 401 0 0 401 0 0 401 0 0 401 0 0 401 0 0 401 0 0 401 0 0 401 0 0 200 0 0 401 0 0 401 0 0 401 0 0 401 0 0 401 0 0 401 0 0 401 0 0 401 0 0 401 0 0 401 0 0 401 0 0 401 0 0 401 0 0 200 0 0 401 0 0 200 0 0 401 0 0 200 0 0 401 0 0 200 0 0 200 0 0 200 0 0 401 0 0 200 0 0 401 0 0 401 0 0 401 0 0 200 0 0 401 0 0 200 0 0 401 0 0 401 0 0 401 0 0 401 0 0 401 0 0 401 0 0 401 0 113 171 216 0 401 0 113 171 216 113 171 216 113 171 216 113 171 216 113 171 216 113 171 216 113 171 216 0 401 0 0 200 0 0 401 0 113 171 216 113 171 216 113 171 216 113 171 216 113 171 216 113 171 216 113 171 216 113 171 216 113 171 216 113 171 216 113 171 216 113 171 216 113 171 216 113 171 216 113 171 216 113 171 216 113 171 216 113 171 216 113 171 216 113 171 216 113 171 216 113 171 216 113 171 216 113 171 216 113 171 216 113 171 216 113 171 216 113 171 216 113 171 216 113 171 216 113 171 216 113 171 216 113 171 216 113 171 216 113 171 216 113 171 216 113 171 216 113 171 216 113 171 216 
244 243 242 113 171 216 113 171 216 113 171 216 244 243 242 113 171 216 113 171 216 113 171 216 113 171 216 113 171 216 113 171 216 113 171 216 113 171 216 113 171 216 113 171 216 113 171 216 113 171 216 113 171 216 113 171 216 113 171 216 113 171 216 113 171 216 113 171 216 113 171 216 0 200 0 0 200 0 0 401 0 0 401 0 0 200 0 0 401 0 0 200 0 0 401 0 0 200 0 0 401 0 0 401 0 0 401 0 0 200 0 0 401 0 0 401 0 0 401 0 0 200 0 0 401 0 0 401 0 0 401 0 0 200 0 0 401 0 0 200 0 0 200 0 0 200 0 0 401 0 0 401 0 0 401 0 0 200 0 0 401 0 0 200 0 0 401 0 0 200 0 0 200 0 0 200 0 0 200 0 0 200 0 0 200 0 0 200 0 0 200 0 0 200 0 0 401 0 0 401 0 0 401 0 0 200 0 0 401 0 0 200 0 0 401 0 0 200 0 0 401 0 0 401 0 0 401 0 0 200 0 0 401 0 0 401 0 0 200 0 0 200 0 0 200 0 0 200 0 113 171 216 0 200 0 113 171 216 113 171 216 113 171 216 0 200 0 113 171 216 113 171 216 113 171 216 113 171 216 113 171 216 113 171 216 113 171 216 113 171 216 113 171 216 113 171 216 113 171 216 113 171 216 113 171 216 113 171 216 113 171 216 113 171 216 113 171 216 113 171 216 113 171 216 113 171 216 113 171 216 113 171 216 113 171 216 113 171 216 113 171 216 113 171 216 113 171 216 113 171 216 113 171 216 113 171 216 113 171 216 113 171 216 113 171 216 113 171 216 113 171 216 113 171 216 113 171 216 113 171 216 113 171 216 113 171 216 
113 171 216 56 85 108 113 171 216 113 171 216 113 171 216 56 85 108 113 171 216 113 171 216 113 171 216 113 171 216 113 171 216 113 171 216 113 171 216 113 171 216 113 171 216 113 171 216 113 171 216 113 171 216 113 171 216 113 171 216 113 171 216 113 171 216 113 171 216 113 171 216 113 171 216 0 401 0 113 171 216 0 401 0 0 401 0 0 401 0 0 401 0 0 401 0 0 401 0 0 401 0 0 401 0 0 401 0 0 401 0 0 401 0 0 401 0 0 401 0 0 401 0 0 401 0 0 401 0 0 401 0 0 200 0 0 401 0 0 200 0 0 401 0 0 401 0 0 401 0 0 401 0 0 401 0 0 200 0 0 401 0 0 401 0 0 401 0 0 200 0 0 401 0 0 401 0 0 401 0 0 401 0 0 401 0 0 401 0 0 401 0 0 401 0 0 401 0 0 401 0 0 401 0 0 401 0 0 401 0 0 401 0 0 401 0 0 401 0 0 401 0 0 401 0 0 401 0 0 401 0 0 401 0 0 401 0 0 401 0 0 401 0 0 401 0 0 401 0 0 401 0 113 171 216 113 171 216 113 171 216 113 171 216 113 171 216 113 171 216 113 171 216 113 171 216 113 171 216 113 171 216 113 171 216 113 171 216 113 171 216 113 171 216 113 171 216 113 171 216 113 171 216 113 171 216 113 171 216 113 171 216 113 171 216 113 171 216 113 171 216 113 171 216 113 171 216 113 171 216 113 171 216 113 171 216 113 171 216 113 171 216 113 171 216 113 171 216 113 171 216 113 171 216 113 171 216 113 171 216 113 171 216 113 171 216 113 171 216 113 171 216 113 171 216 113 171 216 113 171 216 113 171 216 113 171 216 
113 171 216 113 171 216 113 171 216 113 171 216 113 171 216 113 171 216 113 171 216 113 171 216 113 171 216 113 171 216 113 171 216 113 171 216 113 171 216 113 171 216 113 171 216 113 171 216 113 171 216 113 171 216 113 171 216 113 171 216 113 171 216 113 171 216 113 171 216 113 171 216 0 200 0 113 171 216 0 401 0 113 171 216 0 401 0 113 171 216 0 401 0 0 401 0 0 200 0 0 401 0 0 401 0 0 401 0 0 401 0 0 401 0 0 200 0 0 200 0 0 401 0 0 401 0 0 401 0 0 401 0 0 401 0 0 401 0 0 200 0 0 401 0 0 401 0 0 401 0 0 200 0 0 401 0 0 401 0 0 401 0 0 401 0 0 200 0 0 401 0 0 401 0 0 200 0 0 401 0 0 200 0 0 200 0 0 401 0 0 401 0 0 401 0 0 401 0 0 200 0 0 401 0 0 401 0 0 401 0 0 200 0 0 401 0 0 401 0 0 401 0 0 401 0 113 171 216 0 401 0 0 401 0 0 401 0 0 401 0 0 401 0 0 401 0 0 200 0 0 401 0 0 401 0 113 171 216 113 171 216 113 171 216 113 171 216 113 171 216 113 171 216 113 171 216 113 171 216 113 171 216 113 171 216 113 171 216 113 171 216 113 171 216 113 171 216 113 171 216 113 171 216 113 171 216 113 171 216 113 171 216 113 171 216 113 171 216 113 171 216 113 171 216 113 171 216 113 171 216 113 171 216 113 171 216 113 171 216 113 171 216 113 171 216 113 171 216 113 171 216 113 171 216 113 171 216 113 171 216 113 171 216 113 171 216 113 171 216 113 171 216 113 171 216 113 171 216 113 171 216 113 171 216 113 171 216 
113 171 216 113 171 216 113 171 216 113 171 216 113 171 216 113 171 216 113 171 216 113 171 216 113 171 216 113 171 216 113 171 216 113 171 216 113 171 216 113 171 216 113 171 216 113 171 216 113 171 216 113 171 216 113 171 216 113 171 216 113 171 216 113 171 216 113 171 216 113 171 216 113 171 216 113 171 216 113 171 216 0 401 0 0 200 0 0 401 0 0 200 0 0 401 0 0 401 0 0 401 0 0 401 0 0 401 0 0 401 0 0 401 0 0 401 0 0 401 0 0 401 0 0 401 0 0 401 0 0 401 0 0 401 0 0 401 0 0 401 0 0 401 0 0 401 0 0 401 0 0 401 0 0 401 0 0 401 0 0 401 0 0 401 0 0 401 0 0 401 0 0 401 0 0 401 0 0 401 0 0 200 0 0 401 0 0 401 0 0 401 0 0 200 0 0 401 0 0 401 0 0 401 0 0 401 0 0 401 0 0 401 0 0 401 0 0 401 0 0 401 0 113 171 216 0 401 0 0 200 0 0 401 0 0 401 0 0 401 0 0 401 0 0 401 0 0 401 0 0 401 0 0 401 0 113 171 216 113 171 216 113 171 216 113 171 216 113 171 216 113 171 216 113 171 216 113 171 216 113 171 216 113 171 216 113 171 216 113 171 216 113 171 216 113 171 216 113 171 216 113 171 216 113 171 216 113 171 216 113 171 216 113 171 216 113 171 216 113 171 216 113 171 216 113 171 216 113 171 216 113 171 216 113 171 216 113 171 216 113 171 216 113 171 216 113 171 216 113 171 216 113 171 216 113 171 216 113 171 216 113 171 216 113 171 216 113 171 216 113 171 216 113 171 216 113 171 216 113 171 216 113 171 216 113 171 216 
113 171 216 113 171 216 113 171 216 113 171 216 113 171 216 113 171 216 113 171 216 113 171 216 113 171 216 113 171 216 113 171 216 113 171 216 113 171 216 113 171 216 113 171 216 113 171 216 113 171 216 113 171 216 113 171 216 113 171 216 113 171 216 113 171 216 113 171 216 113 171 216 0 200 0 113 171 216 0 200 0 0 200 0 0 200 0 0 401 0 0 401 0 0 401 0 0 200 0 0 401 0 0 401 0 0 401 0 0 200 0 0 401 0 0 200 0 0 200 0 0 200 0 0 401 0 0 401 0 0 401 0 0 200 0 0 200 0 0 200 0 0 401 0 0 200 0 0 401 0 0 401 0 0 401 0 0 200 0 0 401 0 0 401 0 0 401 0 0 200 0 0 401 0 0 401 0 0 401 0 0 200 0 0 401 0 0 200 0 0 200 0 0 200 0 0 401 0 0 401 0 0 200 0 0 200 0 0 401 0 0 401 0 0 401 0 0 401 0 0 401 0 0 401 0 0 200 0 0 200 0 0 401 0 0 200 0 0 401 0 0 200 0 0 200 0 0 200 0 0 401 0 0 200 0 113 171 216 113 171 216 113 171 216 113 171 216 113 171 216 113 171 216 113 171 216 113 171 216 113 171 216 113 171 216 113 171 216 113 171 216 113 171 216 113 171 216 113 171 216 113 171 216 113 171 216 113 171 216 113 171 216 113 171 216 113 171 216 113 171 216 113 171 216 113 171 216 113 171 216 113 171 216 113 171 216 113 171 216 113 171 216 113 171 216 113 171 216 113 171 216 113 171 216 113 171 216 113 171 216 113 171 216 113 171 216 113 171 216 113 171 216 113 171 216 113 171 216 113 171 216 113 171 216 113 171 216 
113 171 216 113 171 216 113 171 216 113 171 216 113 171 216 113 171 216 113 171 216 113 171 216 113 171 216 113 171 216 113 171 216 113 171 216 113 171 216 113 171 216 113 171 216 113 171 216 113 171 216 113 171 216 113 171 216 113 171 216 113 171 216 113 171 216 113 171 216 113 171 216 113 171 216 113 171 216 113 171 216 0 401 0 0 401 0 0 401 0 0 401 0 0 401 0 0 401 0 0 401 0 0 401 0 0 401 0 0 200 0 0 401 0 0 401 0 0 401 0 0 401 0 0 401 0 0 401 0 0 200 0 0 200 0 0 401 0 0 401 0 0 401 0 0 401 0 0 401 0 0 401 0 0 401 0 0 401 0 0 401 0 0 401 0 0 401 0 0 401 0 0 401 0 0 401 0 0 401 0 0 200 0 0 401 0 0 401 0 0 401 0 0 401 0 0 401 0 0 401 0 0 401 0 0 401 0 0 401 0 0 401 0 0 401 0 0 401 0 0 401 0 0 401 0 0 401 0 0 401 0 0 401 0 0 200 0 0 401 0 0 200 0 0 401 0 0 401 0 0 401 0 113 171 216 113 171 216 113 171 216 113 171 216 113 171 216 113 171 216 113 171 216 113 171 216 113 171 216 113 171 216 113 171 216 113 171 216 113 171 216 113 171 216 113 171 216 113 171 216 113 171 216 113 171 216 113 171 216 113 171 216 113 171 216 113 171 216 113 171 216 113 171 216 113 171 216 113 171 216 113 171 216 113 171 216 113 171 216 113 171 216 113 171 216 113 171 216 113 171 216 113 171 216 113 171 216 113 171 216 113 171 216 113 171 216 113 171 216 113 171 216 113 171 216 113 171 216 113 171 216 113 171 216 113 171 216 
113 171 216 113 171 216 113 171 216 113 171 216 113 171 216 113 171 216 113 171 216 113 171 216 113 171 216 113 171 216 113 171 216 113 171 216 113 171 216 113 171 216 113 171 216 113 171 216 113 171 216 113 171 216 113 171 216 113 171 216 113 171 216 113 171 216 113 171 216 113 171 216 113 171 216 113 171 216 0 200 0 113 171 216 0 401 0 0 401 0 0 200 0 0 401 0 0 200 0 0 401 0 0 200 0 0 401 0 0 200 0 0 401 0 0 200 0 0 401 0 0 401 0 0 401 0 0 200 0 0 401 0 0 401 0 0 401 0 0 200 0 0 200 0 0 401 0 0 401 0 0 401 0 0 401 0 0 401 0 0 401 0 0 401 0 0 401 0 0 401 0 0 401 0 0 200 0 0 401 0 0 200 0 0 401 0 0 200 0 0 200 0 0 401 0 0 401 0 0 401 0 0 401 0 0 401 0 0 401 0 0 401 0 0 401 0 0 401 0 0 401 0 0 200 0 0 401 0 0 200 0 0 200 0 0 200 0 0 401 0 0 200 0 0 401 0 0 401 0 0 401 0 0 401 0 113 171 216 0 200 0 113 171 216 113 171 216 113 171 216 113 171 216 113 171 216 113 171 216 113 171 216 113 171 216 113 171 216 113 171 216 113 171 216 113 171 216 113 171 216 113 171 216 113 171 216 113 171 216 113 171 216 113 171 216 113 171 216 113 171 216 113 171 216 113 171 216 113 171 216 113 171 216 113 171 216 113 171 216 113 171 216 113 171 216 113 171 216 113 171 216 113 171 216 113 171 216 113 171 216 113 171 216 113 171 216 113 171 216 113 171 216 113 171 216 113 171 216 113 171 216 113 171 216 113 171 216 
113 171 216 113 171 216 113 171 216 113 171 216 113 171 216 113 171 216 113 171 216 113 171 216 113 171 216 113 171 216 113 171 216 113 171 216 113 171 216 113 171 216 113 171 216 113 171 216 113 171 216 113 171 216 113 171 216 113 171 216 113 171 216 113 171 216 113 171 216 113 171 216 113 171 216 0 200 0 113 171 216 113 171 216 113 171 216 0 401 0 0 401 0 0 401 0 0 200 0 0 401 0 0 200 0 0 401 0 0 200 0 0 401 0 0 401 0 0 401 0 0 200 0 0 401 0 0 401 0 0 401 0 0 200 0 0 401 0 0 401 0 0 401 0 0 401 0 0 401 0 0 401 0 0 401 0 0 401 0 0 401 0 0 401 0 0 401 0 0 200 0 0 401 0 0 401 0 0 401 0 0 200 0 0 401 0 0 200 0 0 401 0 0 401 0 0 401 0 0 401 0 0 401 0 0 401 0 0 401 0 0 401 0 0 401 0 0 401 0 0 401 0 0 401 0 0 401 0 0 200 0 0 401 0 0 401 0 0 401 0 0 200 0 0 401 0 0 401 0 0 401 0 0 401 0 0 401 0 113 171 216 113 171 216 113 171 216 113 171 216 113 171 216 113 171 216 113 171 216 113 171 216 113 171 216 113 171 216 113 171 216 113 171 216 113 171 216 113 171 216 113 171 216 113 171 216 113 171 216 113 171 216 113 171 216 113 171 216 113 171 216 113 171 216 113 171 216 113 171 216 113 171 216 113 171 216 113 171 216 113 171 216 113 171 216 113 171 216 113 171 216 113 171 216 113 171 216 113 171 216 113 171 216 113 171 216 113 171 216 113 171 216 113 171 216 113 171 216 113 171 216 113 171 216 113 171 216 
113 171 216 113 171 216 113 171 216 113 171 216 113 171 216 113 171 216 113 171 216 113 171 216 113 171 216 113 171 216 113 171 216 113 171 216 113 171 216 113 171 216 113 171 216 113 171 216 113 171 216 113 171 216 113 171 216 113 171 216 113 171 216 113 171 216 113 171 216 113 171 216 0 200 0 0 200 0 0 401 0 113 171 216 0 200 0 113 171 216 0 401 0 0 401 0 0 200 0 0 401 0 0 401 0 0 401 0 0 200 0 0 401 0 0 200 0 0 200 0 0 200 0 0 401 0 0 200 0 0 200 0 0 200 0 0 401 0 0 200 0 0 401 0 0 200 0 0 401 0 0 401 0 0 401 0 0 200 0 0 401 0 0 401 0 0 200 0 0 200 0 0 401 0 0 200 0 0 200 0 0 200 0 0 200 0 0 200 0 0 200 0 0 200 0 0 401 0 0 401 0 0 401 0 0 401 0 0 401 0 0 401 0 0 401 0 0 200 0 0 401 0 0 401 0 0 200 0 0 200 0 0 401 0 0 200 0 0 200 0 0 200 0 0 401 0 0 401 0 0 401 0 0 200 0 0 401 0 0 401 0 113 171 216 0 200 0 113 171 216 113 171 216 113 171 216 113 171 216 113 171 216 113 171 216 113 171 216 113 171 216 113 171 216 113 171 216 113 171 216 113 171 216 113 171 216 113 171 216 113 171 216 113 171 216 113 171 216 113 171 216 113 171 216 113 171 216 113 171 216 113 171 216 113 171 216 113 171 216 113 171 216 113 171 216 113 171 216 113 171 216 113 171 216 113 171 216 113 171 216 113 171 216 113 171 216 113 171 216 113 171 216 113 171 216 113 171 216 113 171 216 113 171 216 244 243 242 
113 171 216 113 171 216 113 171 216 113 171 216 113 171 216 113 171 216 113 171 216 113 171 216 113 171 216 113 171 216 113 171 216 113 171 216 113 171 216 113 171 216 113 171 216 113 171 216 113 171 216 113 171 216 113 171 216 113 171 216 113 171 216 113 171 216 113 171 216 113 171 216 113 171 216 113 171 216 113 171 216 113 171 216 113 171 216 113 171 216 113 171 216 0 401 0 0 401 0 0 401 0 0 401 0 0 401 0 0 401 0 0 401 0 0 401 0 0 401 0 0 401 0 0 401 0 0 401 0 0 401 0 0 401 0 0 401 0 0 401 0 0 401 0 0 401 0 0 401 0 0 401 0 0 401 0 0 401 0 0 401 0 0 401 0 0 401 0 0 401 0 0 401 0 0 401 0 0 401 0 0 401 0 0 401 0 0 401 0 0 401 0 0 401 0 0 401 0 0 401 0 0 401 0 0 401 0 0 401 0 0 401 0 0 401 0 0 401 0 0 401 0 0 401 0 0 401 0 0 401 0 0 401 0 0 401 0 0 401 0 0 401 0 0 401 0 0 401 0 0 401 0 0 401 0 0 401 0 113 171 216 113 171 216 113 171 216 113 171 216 113 171 216 113 171 216 113 171 216 113 171 216 113 171 216 113 171 216 113 171 216 113 171 216 113 171 216 113 171 216 113 171 216 113 171 216 113 171 216 113 171 216 113 171 216 113 171 216 113 171 216 113 171 216 113 171 216 113 171 216 113 171 216 113 171 216 113 171 216 113 171 216 113 171 216 113 171 216 113 171 216 113 171 216 113 171 216 113 171 216 113 171 216 113 171 216 113 171 216 113 171 216 113 171 216 113 171 216 113 171 216 113 171 216 113 171 216 
113 171 216 113 171 216 113 171 216 113 171 216 113 171 216 113 171 216 113 171 216 113 171 216 113 171 216 113 171 216 113 171 216 113 171 216 113 171 216 113 171 216 113 171 216 113 171 216 113 171 216 113 171 216 113 171 216 113 171 216 113 171 216 113 171 216 113 171 216 113 171 216 113 171 216 113 171 216 113 171 216 113 171 216 113 171 216 113 171 216 0 200 0 113 171 216 0 401 0 0 401 0 0 401 0 0 401 0 0 401 0 0 401 0 0 200 0 0 401 0 0 401 0 0 401 0 0 200 0 0 401 0 0 401 0 0 401 0 0 401 0 0 401 0 0 401 0 0 401 0 0 401 0 0 401 0 0 401 0 0 401 0 0 401 0 0 401 0 0 401 0 0 401 0 0 200 0 0 200 0 0 401 0 0 401 0 0 401 0 0 401 0 0 401 0 0 401 0 0 401 0 0 401 0 0 401 0 0 401 0 0 401 0 0 401 0 0 401 0 0 401 0 0 200 0 0 401 0 0 401 0 0 401 0 0 200 0 0 401 0 0 401 0 0 401 0 0 401 0 0 401 0 0 401 0 0 401 0 0 401 0 113 171 216 113 171 216 113 171 216 113 171 216 113 171 216 113 171 216 113 171 216 113 171 216 113 171 216 113 171 216 113 171 216 113 171 216 113 171 216 113 171 216 113 171 216 113 171 216 113 171 216 113 171 216 113 171 216 113 171 216 113 171 216 113 171 216 113 171 216 113 171 216 113 171 216 113 171 216 113 171 216 113 171 216 113 171 216 113 171 216 113 171 216 113 171 216 113 171 216 113 171 216 113 171 216 113 171 216 113 171 216 113 171 216 113 171 216 113 171 216 113 171 216 113 171 216 
113 171 216 113 171 216 113 171 216 113 171 216 113 171 216 113 171 216 113 171 216 113 171 216 113 171 216 113 171 216 113 171 216 113 171 216 113 171 216 113 171 216 113 171 216 113 171 216 113 171 216 113 171 216 113 171 216 113 171 216 113 171 216 113 171 216 113 171 216 113 171 216 113 171 216 113 171 216 113 171 216 113 171 216 113 171 216 113 171 216 113 171 216 113 171 216 113 171 216 0 401 0 0 401 0 0 401 0 0 200 0 0 401 0 0 401 0 0 401 0 0 401 0 0 401 0 0 401 0 0 401 0 0 401 0 0 401 0 0 401 0 0 401 0 0 401 0 0 401 0 0 401 0 0 401 0 0 401 0 0 401 0 0 401 0 0 401 0 0 200 0 0 401 0 0 401 0 0 401 0 0 401 0 0 401 0 0 401 0 0 401 0 0 401 0 0 401 0 0 401 0 0 401 0 0 401 0 0 401 0 0 401 0 0 401 0 0 401 0 0 401 0 0 401 0 0 401 0 0 401 0 0 401 0 0 401 0 0 401 0 0 401 0 0 401 0 0 401 0 0 401 0 0 401 0 0 401 0 113 171 216 113 171 216 113 171 216 113 171 216 113 171 216 113 171 216 113 171 216 113 171 216 113 171 216 113 171 216 113 171 216 113 171 216 113 171 216 113 171 216 113 171 216 113 171 216 113 171 216 113 171 216 113 171 216 113 171 216 113 171 216 113 171 216 113 171 216 113 171 216 113 171 216 113 171 216 113 171 216 113 171 216 113 171 216 113 171 216 113 171 216 113 171 216 113 171 216 113 171 216 113 171 216 113 171 216 113 171 216 113 171 216 113 171 216 113 171 216 113 171 216 113 171 216 113 171 216 
113 171 216 113 171 216 113 171 216 113 171 216 113 171 216 113 171 216 113 171 216 113 171 216 113 171 216 113 171 216 113 171 216 113 171 216 113 171 216 113 171 216 113 171 216 113 171 216 113 171 216 113 171 216 113 171 216 113 171 216 113 171 216 113 171 216 113 171 216 113 171 216 113 171 216 113 171 216 113 171 216 113 171 216 0 200 0 113 171 216 113 171 216 113 171 216 0 200 0 113 171 216 0 401 0 0 401 0 0 200 0 0 401 0 0 401 0 0 401 0 0 200 0 0 200 0 0 401 0 0 401 0 0 200 0 0 401 0 0 401 0 0 401 0 0 401 0 0 401 0 0 401 0 0 401 0 0 200 0 0 401 0 0 401 0 0 200 0 0 200 0 0 401 0 0 200 0 0 200 0 0 200 0 0 401 0 0 401 0 0 401 0 0 200 0 0 401 0 0 401 0 0 401 0 0 200 0 0 401 0 0 401 0 0 401 0 0 200 0 0 401 0 0 200 0 0 401 0 0 200 0 0 401 0 0 401 0 0 401 0 0 401 0 0 401 0 0 401 0 0 401 0 0 200 0 0 401 0 0 401 0 113 171 216 0 200 0 113 171 216 113 171 216 113 171 216 113 171 216 113 171 216 113 171 216 113 171 216 113 171 216 113 171 216 113 171 216 113 171 216 113 171 216 113 171 216 113 171 216 113 171 216 113 171 216 113 171 216 113 171 216 113 171 216 113 171 216 113 171 216 113 171 216 113 171 216 113 171 216 113 171 216 113 171 216 113 171 216 113 171 216 113 171 216 113 171 216 113 171 216 113 171 216 113 171 216 113 171 216 113 171 216 113 171 216 113 171 216 113 171 216 113 171 216 113 171 216 
113 171 216 113 171 216 113 171 216 113 171 216 113 171 216 113 171 216 113 171 216 113 171 216 113 171 216 113 171 216 113 171 216 113 171 216 113 171 216 113 171 216 113 171 216 113 171 216 113 171 216 113 171 216 113 171 216 113 171 216 113 171 216 113 171 216 113 171 216 113 171 216 113 171 216 113 171 216 113 171 216 113 171 216 113 171 216 113 171 216 113 171 216 113 171 216 113 171 216 0 401 0 0 200 0 0 401 0 0 200 0 0 401 0 0 401 0 0 401 0 0 401 0 0 401 0 0 401 0 0 401 0 0 401 0 0 401 0 0 401 0 0 401 0 0 401 0 0 401 0 0 401 0 0 401 0 0 401 0 0 401 0 0 401 0 0 401 0 0 401 0 0 401 0 0 401 0 0 401 0 0 401 0 0 401 0 0 401 0 0 401 0 0 401 0 0 401 0 0 401 0 0 401 0 0 401 0 0 401 0 0 401 0 0 401 0 0 401 0 0 401 0 0 401 0 0 401 0 0 401 0 0 401 0 0 401 0 0 401 0 0 401 0 0 401 0 113 171 216 0 401 0 0 401 0 0 401 0 113 171 216 113 171 216 113 171 216 113 171 216 113 171 216 113 171 216 113 171 216 113 171 216 113 171 216 113 171 216 113 171 216 113 171 216 113 171 216 113 171 216 113 171 216 113 171 216 113 171 216 113 171 216 113 171 216 113 171 216 113 171 216 113 171 216 113 171 216 113 171 216 113 171 216 113 171 216 113 171 216 113 171 216 113 171 216 113 171 216 113 171 216 113 171 216 113 171 216 113 171 216 113 171 216 113 171 216 113 171 216 113 171 216 113 171 216 113 171 216 113 171 216 113 171 216 113 171 216 
113 171 216 113 171 216 113 171 216 113 171 216 113 171 216 113 171 216 113 171 216 113 171 216 113 171 216 113 171 216 113 171 216 113 171 216 113 171 216 113 171 216 113 171 216 113 171 216 113 171 216 113 171 216 113 171 216 113 171 216 113 171 216 113 171 216 113 171 216 113 171 216 113 171 216 113 171 216 113 171 216 113 171 216 113 171 216 113 171 216 0 200 0 113 171 216 0 200 0 0 200 0 0 200 0 0 401 0 0 200 0 0 401 0 0 401 0 0 401 0 0 200 0 0 401 0 0 401 0 0 200 0 0 401 0 0 401 0 0 401 0 0 401 0 0 401 0 0 401 0 0 200 0 0 401 0 0 401 0 0 401 0 0 401 0 0 401 0 0 401 0 0 401 0 0 200 0 0 401 0 0 401 0 0 401 0 0 401 0 0 401 0 0 401 0 0 401 0 0 401 0 0 401 0 0 401 0 0 401 0 0 401 0 0 401 0 0 401 0 0 401 0 0 401 0 0 401 0 0 401 0 0 401 0 0 401 0 0 401 0 0 401 0 0 401 0 0 401 0 0 200 0 0 401 0 113 171 216 0 401 0 113 171 216 113 171 216 113 171 216 113 171 216 113 171 216 113 171 216 113 171 216 113 171 216 113 171 216 113 171 216 113 171 216 113 171 216 113 171 216 113 171 216 113 171 216 113 171 216 113 171 216 113 171 216 113 171 216 113 171 216 113 171 216 113 171 216 113 171 216 113 171 216 113 171 216 113 171 216 113 171 216 113 171 216 113 171 216 113 171 216 113 171 216 113 171 216 113 171 216 113 171 216 113 171 216 113 171 216 113 171 216 113 171 216 113 171 216 113 171 216 113 171 216 113 171 216 
113 171 216 113 171 216 113 171 216 113 171 216 113 171 216 113 171 216 113 171 216 113 171 216 113 171 216 113 171 216 113 171 216 113 171 216 113 171 216 113 171 216 113 171 216 113 171 216 113 171 216 113 171 216 113 171 216 113 171 216 113 171 216 113 171 216 113 171 216 113 171 216 113 171 216 113 171 216 113 171 216 113 171 216 113 171 216 113 171 216 113 171 216 113 171 216 113 171 216 0 401 0 0 401 0 0 401 0 0 401 0 0 401 0 0 401 0 0 401 0 0 200 0 0 401 0 0 200 0 0 401 0 0 401 0 0 401 0 0 401 0 0 401 0 0 401 0 0 401 0 0 401 0 0 401 0 0 401 0 0 401 0 0 401 0 0 401 0 0 200 0 0 401 0 0 401 0 0 401 0 0 401 0 0 401 0 0 401 0 0 401 0 0 401 0 0 401 0 0 401 0 0 401 0 0 401 0 0 401 0 0 401 0 0 401 0 0 401 0 0 401 0 0 401 0 0 401 0 0 401 0 0 401 0 0 401 0 0 401 0 0 401 0 0 401 0 0 401 0 0 401 0 113 171 216 113 171 216 113 171 216 113 171 216 113 171 216 113 171 216 113 171 216 113 171 216 113 171 216 113 171 216 113 171 216 113 171 216 113 171 216 113 171 216 113 171 216 113 171 216 113 171 216 113 171 216 113 171 216 113 171 216 113 171 216 113 171 216 113 171 216 113 171 216 113 171 216 113 171 216 113 171 216 113 171 216 113 171 216 113 171 216 113 171 216 113 171 216 113 171 216 113 171 216 113 171 216 113 171 216 113 171 216 113 171 216 113 171 216 113 171 216 113 171 216 113 171 216 113 171 216 113 171 216 113 171 216 
113 171 216 113 171 216 113 171 216 113 171 216 113 171 216 113 171 216 113 171 216 113 171 216 113 171 216 113 171 216 113 171 216 113 171 216 113 171 216 113 171 216 113 171 216 113 171 216 0 200 0 113 171 216 113 171 216 113 171 216 113 171 216 113 171 216 113 171 216 113 171 216 113 171 216 113 171 216 113 171 216 113 171 216 113 171 216 113 171 216 113 171 216 113 171 216 0 200 0 113 171 216 0 401 0 0 401 0 0 200 0 0 401 0 0 200 0 0 200 0 0 200 0 0 401 0 0 401 0 0 401 0 0 401 0 0 401 0 0 401 0 0 401 0 0 200 0 0 401 0 0 401 0 0 401 0 0 200 0 0 401 0 0 401 0 0 401 0 0 200 0 0 401 0 0 401 0 0 401 0 0 200 0 0 401 0 0 401 0 0 401 0 0 200 0 0 401 0 0 401 0 0 401 0 0 401 0 0 401 0 0 200 0 0 200 0 0 200 0 0 401 0 0 401 0 0 401 0 0 200 0 0 401 0 0 401 0 0 401 0 0 200 0 0 401 0 0 401 0 113 171 216 0 401 0 113 171 216 113 171 216 113 171 216 0 200 0 113 171 216 113 171 216 113 171 216 113 171 216 113 171 216 113 171 216 113 171 216 113 171 216 113 171 216 113 171 216 113 171 216 113 171 216 113 171 216 113 171 216 113 171 216 113 171 216 113 171 216 113 171 216 113 171 216 113 171 216 113 171 216 113 171 216 113 171 216 113 171 216 113 171 216 113 171 216 113 171 216 113 171 216 113 171 216 113 171 216 113 171 216 244 243 242 113 171 216 113 171 216 113 171 216 113 171 216 113 171 216 113 171 216 113 171 216 244 243 242 
113 171 216 113 171 216 113 171 216 113 171 216 113 171 216 113 171 216 113 171 216 113 171 216 113 171 216 113 171 216 113 171 216 113 171 216 113 171 216 113 171 216 113 171 216 113 171 216 113 171 216 113 171 216 113 171 216 113 171 216 113 171 216 113 171 216 113 171 216 113 171 216 113 171 216 113 171 216 113 171 216 113 171 216 113 171 216 113 171 216 113 171 216 113 171 216 113 171 216 113 171 216 113 171 216 0 401 0 0 401 0 0 401 0 0 401 0 0 401 0 0 401 0 0 401 0 0 401 0 0 401 0 0 401 0 0 401 0 0 401 0 0 401 0 0 401 0 0 401 0 0 401 0 0 401 0 0 401 0 0 401 0 0 401 0 0 200 0 0 200 0 0 401 0 0 401 0 0 401 0 0 401 0 0 401 0 0 401 0 0 401 0 0 401 0 0 401 0 0 401 0 0 401 0 0 401 0 0 401 0 0 401 0 0 401 0 0 401 0 0 401 0 0 401 0 0 401 0 0 401 0 0 401 0 0 401 0 0 401 0 0 401 0 0 401 0 113 171 216 113 171 216 113 171 216 113 171 216 113 171 216 113 171 216 113 171 216 113 171 216 113 171 216 113 171 216 113 171 216 113 171 216 113 171 216 113 171 216 113 171 216 113 171 216 113 171 216 113 171 216 113 171 216 113 171 216 113 171 216 113 171 216 113 171 216 113 171 216 113 171 216 113 171 216 113 171 216 113 171 216 113 171 216 113 171 216 113 171 216 113 171 216 113 171 216 113 171 216 113 171 216 113 171 216 113 171 216 113 171 216 113 171 216 56 85 108 113 171 216 113 171 216 113 171 216 113 171 216 113 171 216 113 171 216 113 171 216 
113 171 216 113 171 216 113 171 216 113 171 216 113 171 216 113 171 216 113 171 216 113 171 216 113 171 216 113 171 216 113 171 216 113 171 216 113 171 216 113 171 216 113 171 216 113 171 216 113 171 216 113 171 216 113 171 216 113 171 216 113 171 216 113 171 216 113 171 216 113 171 216 113 171 216 113 171 216 113 171 216 113 171 216 113 171 216 113 171 216 113 171 216 113 171 216 0 200 0 113 171 216 0 200 0 0 200 0 0 200 0 0 401 0 0 200 0 0 401 0 0 401 0 0 401 0 0 401 0 0 401 0 0 401 0 0 401 0 0 200 0 0 401 0 0 200 0 0 401 0 0 401 0 0 200 0 0 401 0 0 401 0 0 200 0 0 401 0 0 401 0 0 401 0 0 401 0 0 401 0 0 401 0 0 401 0 0 401 0 0 401 0 0 401 0 0 401 0 0 401 0 0 401 0 0 200 0 0 401 0 0 401 0 0 401 0 0 401 0 0 401 0 0 401 0 0 401 0 0 401 0 0 401 0 0 200 0 0 401 0 0 401 0 113 171 216 0 401 0 113 171 216 0 200 0 113 171 216 0 200 0 113 171 216 113 171 216 113 171 216 113 171 216 113 171 216 113 171 216 113 171 216 113 171 216 113 171 216 113 171 216 113 171 216 113 171 216 113 171 216 113 171 216 113 171 216 113 171 216 113 171 216 113 171 216 113 171 216 113 171 216 113 171 216 113 171 216 113 171 216 113 171 216 113 171 216 113 171 216 113 171 216 113 171 216 113 171 216 113 171 216 113 171 216 113 171 216 113 171 216 113 171 216 113 171 216 113 171 216 113 171 216 113 171 216 113 171 216 113 171 216 113 171 216 113 171 216 
113 171 216 113 171 216 113 171 216 113 171 216 113 171 216 113 171 216 113 171 216 113 171 216 113 171 216 113 171 216 113 171 216 113 171 216 113 171 216 113 171 216 113 171 216 113 171 216 113 171 216 113 171 216 113 171 216 113 171 216 113 171 216 113 171 216 113 171 216 113 171 216 113 171 216 113 171 216 113 171 216 113 171 216 113 171 216 113 171 216 113 171 216 113 171 216 113 171 216 0 401 0 113 171 216 0 401 0 0 401 0 0 401 0 0 401 0 0 401 0 0 401 0 0 401 0 0 401 0 0 401 0 0 401 0 0 401 0 0 401 0 0 401 0 0 401 0 0 401 0 0 401 0 0 401 0 0 401 0 0 401 0 0 401 0 0 401 0 0 401 0 0 401 0 0 401 0 0 401 0 0 401 0 0 401 0 0 401 0 0 401 0 0 401 0 0 401 0 0 401 0 0 401 0 0 401 0 0 401 0 0 401 0 0 401 0 0 401 0 0 401 0 0 401 0 0 401 0 0 401 0 0 401 0 0 401 0 0 401 0 0 401 0 0 401 0 113 171 216 0 401 0 113 171 216 113 171 216 113 171 216 113 171 216 113 171 216 113 171 216 113 171 216 113 171 216 113 171 216 113 171 216 113 171 216 113 171 216 113 171 216 113 171 216 113 171 216 113 171 216 113 171 216 113 171 216 113 171 216 113 171 216 113 171 216 113 171 216 113 171 216 113 171 216 113 171 216 113 171 216 113 171 216 113 171 216 113 171 216 113 171 216 113 171 216 113 171 216 113 171 216 113 171 216 113 171 216 113 171 216 113 171 216 113 171 216 113 171 216 113 171 216 113 171 216 113 171 216 113 171 216 113 171 216 113 171 216 
113 171 216 113 171 216 113 171 216 113 171 216 113 171 216 113 171 216 113 171 216 113 171 216 113 171 216 113 171 216 113 171 216 113 171 216 0 200 0 113 171 216 113 171 216 113 171 216 0 200 0 113 171 216 113 171 216 113 171 216 113 171 216 113 171 216 113 171 216 113 171 216 113 171 216 113 171 216 113 171 216 113 171 216 113 171 216 113 171 216 113 171 216 113 171 216 0 200 0 113 171 216 0 401 0 0 200 0 0 200 0 0 401 0 0 401 0 0 401 0 0 200 0 0 401 0 0 401 0 0 401 0 0 200 0 0 401 0 0 401 0 0 401 0 0 200 0 0 401 0 0 401 0 0 401 0 0 200 0 0 401 0 0 401 0 0 401 0 0 200 0 0 401 0 0 200 0 0 401 0 0 401 0 0 401 0 0 401 0 0 401 0 0 200 0 0 401 0 0 401 0 0 401 0 0 200 0 0 401 0 0 401 0 0 401 0 0 200 0 0 401 0 0 401 0 0 401 0 0 200 0 0 401 0 0 401 0 0 401 0 0 200 0 0 401 0 0 401 0 113 171 216 0 401 0 113 171 216 0 200 0 113 171 216 0 200 0 113 171 216 113 171 216 113 171 216 0 200 0 113 171 216 113 171 216 113 171 216 113 171 216 113 171 216 113 171 216 113 171 216 113 171 216 113 171 216 113 171 216 113 171 216 113 171 216 113 171 216 113 171 216 113 171 216 113 171 216 113 171 216 113 171 216 113 171 216 113 171 216 113 171 216 113 171 216 113 171 216 113 171 216 113 171 216 113 171 216 113 171 216 113 171 216 113 171 216 113 171 216 113 171 216 244 243 242 113 171 216 113 171 216 113 171 216 244 243 242 
113 171 216 113 171 216 113 171 216 113 171 216 113 171 216 113 171 216 113 171 216 113 171 216 113 171 216 113 171 216 113 171 216 113 171 216 113 171 216 113 171 216 113 171 216 113 171 216 113 171 216 113 171 216 113 171 216 113 171 216 113 171 216 113 171 216 113 171 216 113 171 216 113 171 216 113 171 216 113 171 216 113 171 216 113 171 216 113 171 216 113 171 216 113 171 216 113 171 216 113 171 216 113 171 216 0 401 0 0 401 0 0 401 0 0 401 0 0 401 0 0 401 0 0 401 0 0 401 0 0 401 0 0 401 0 0 401 0 0 401 0 0 401 0 0 401 0 0 401 0 0 401 0 0 401 0 0 401 0 0 401 0 0 401 0 0 401 0 0 401 0 0 401 0 0 401 0 0 401 0 0 401 0 0 401 0 0 401 0 0 401 0 0 401 0 0 401 0 0 401 0 0 401 0 0 401 0 0 401 0 0 401 0 0 401 0 0 401 0 0 401 0 0 401 0 0 401 0 0 401 0 0 401 0 0 401 0 0 401 0 0 401 0 0 401 0 113 171 216 113 171 216 113 171 216 113 171 216 113 171 216 113 171 216 113 171 216 113 171 216 113 171 216 113 171 216 113 171 216 113 171 216 113 171 216 113 171 216 113 171 216 113 171 216 113 171 216 113 171 216 113 171 216 113 171 216 113 171 216 113 171 216 113 171 216 113 171 216 113 171 216 113 171 216 113 171 216 113 171 216 113 171 216 113 171 216 113 171 216 113 171 216 113 171 216 113 171 216 113 171 216 113 171 216 113 171 216 113 171 216 113 171 216 113 171 216 113 171 216 113 171 216 113 171 216 56 85 108 113 171 216 113 171 216 113 171 216 
113 171 216 113 171 216 113 171 216 113 171 216 113 171 216 113 171 216 113 171 216 113 171 216 113 171 216 113 171 216 113 171 216 113 171 216 113 171 216 113 171 216 0 200 0 113 171 216 113 171 216 113 171 216 113 171 216 113 171 216 113 171 216 113 171 216 113 171 216 113 171 216 113 171 216 113 171 216 113 171 216 113 171 216 113 171 216 113 171 216 113 171 216 113 171 216 113 171 216 113 171 216 0 200 0 113 171 216 0 401 0 113 171 216 0 401 0 113 171 216 0 401 0 0 401 0 0 200 0 0 200 0 0 200 0 0 401 0 0 200 0 0 401 0 0 200 0 0 401 0 0 200 0 0 401 0 0 401 0 0 401 0 0 401 0 0 401 0 0 401 0 0 401 0 0 401 0 0 401 0 0 401 0 0 401 0 0 200 0 0 401 0 0 401 0 0 401 0 0 401 0 0 401 0 0 200 0 0 401 0 0 200 0 0 401 0 0 200 0 0 401 0 0 200 0 0 401 0 0 200 0 0 401 0 0 200 0 0 401 0 0 200 0 0 401 0 0 401 0 113 171 216 0 200 0 113 171 216 0 200 0 113 171 216 113 171 216 113 171 216 113 171 216 113 171 216 113 171 216 113 171 216 113 171 216 113 171 216 113 171 216 113 171 216 113 171 216 113 171 216 113 171 216 113 171 216 113 171 216 113 171 216 113 171 216 113 171 216 113 171 216 113 171 216 113 171 216 113 171 216 113 171 216 113 171 216 113 171 216 113 171 216 113 171 216 113 171 216 113 171 216 113 171 216 113 171 216 113 171 216 113 171 216 113 171 216 113 171 216 113 171 216 113 171 216 113 171 216 113 171 216 113 171 216 113 171 216 
113 171 216 113 171 216 113 171 216 113 171 216 113 171 216 113 171 216 113 171 216 113 171 216 113 171 216 113 171 216 113 171 216 113 171 216 113 171 216 113 171 216 113 171 216 113 171 216 113 171 216 113 171 216 113 171 216 113 171 216 113 171 216 113 171 216 113 171 216 113 171 216 113 171 216 113 171 216 113 171 216 113 171 216 113 171 216 113 171 216 113 171 216 113 171 216 113 171 216 113 171 216 113 171 216 113 171 216 113 171 216 113 171 216 113 171 216 0 401 0 0 200 0 0 200 0 0 401 0 0 401 0 0 401 0 0 401 0 0 401 0 0 401 0 0 200 0 0 401 0 0 401 0 0 401 0 0 401 0 0 401 0 0 401 0 0 401 0 0 401 0 0 401 0 0 401 0 0 401 0 0 200 0 0 401 0 0 401 0 0 401 0 0 401 0 0 401 0 0 401 0 0 401 0 0 200 0 0 401 0 0 401 0 0 401 0 0 200 0 0 401 0 0 200 0 0 401 0 0 200 0 0 401 0 0 401 0 0 401 0 0 200 0 0 401 0 113 171 216 113 171 216 113 171 216 113 171 216 113 171 216 113 171 216 113 171 216 113 171 216 113 171 216 113 171 216 113 171 216 113 171 216 113 171 216 113 171 216 113 171 216 113 171 216 113 171 216 113 171 216 113 171 216 113 171 216 113 171 216 113 171 216 113 171 216 113 171 216 113 171 216 113 171 216 113 171 216 113 171 216 113 171 216 113 171 216 113 171 216 113 171 216 113 171 216 113 171 216 113 171 216 113 171 216 113 171 216 113 171 216 113 171 216 113 171 216 113 171 216 113 171 216 113 171 216 113 171 216 113 171 216 113 171 216 113 171 216 
0 401 0 113 171 216 113 171 216 113 171 216 113 171 216 113 171 216 113 171 216 113 171 216 113 171 216 113 171 216 113 171 216 113 171 216 113 171 216 113 171 216 113 171 216 113 171 216 0 200 0 113 171 216 113 171 216 113 171 216 113 171 216 113 171 216 113 171 216 113 171 216 113 171 216 113 171 216 113 171 216 113 171 216 113 171 216 113 171 216 113 171 216 113 171 216 0 200 0 113 171 216 113 171 216 113 171 216 0 200 0 113 171 216 0 200 0 0 200 0 0 200 0 0 401 0 0 401 0 0 200 0 0 200 0 0 200 0 0 401 0 0 200 0 0 200 0 0 401 0 0 401 0 0 401 0 0 200 0 0 401 0 0 401 0 0 200 0 0 200 0 0 401 0 0 401 0 0 401 0 0 200 0 0 401 0 0 200 0 0 401 0 0 200 0 0 401 0 0 401 0 0 401 0 0 200 0 0 401 0 0 401 0 0 200 0 0 200 0 0 401 0 0 401 0 0 401 0 0 200 0 0 401 0 0 401 0 0 200 0 0 200 0 0 401 0 0 401 0 113 171 216 0 200 0 113 171 216 113 171 216 113 171 216 0 200 0 113 171 216 113 171 216 113 171 216 113 171 216 113 171 216 113 171 216 113 171 216 113 171 216 113 171 216 113 171 216 113 171 216 113 171 216 113 171 216 113 171 216 113 171 216 113 171 216 113 171 216 113 171 216 113 171 216 113 171 216 113 171 216 113 171 216 113 171 216 113 171 216 113 171 216 113 171 216 113 171 216 113 171 216 113 171 216 113 171 216 113 171 216 244 243 242 113 171 216 113 171 216 113 171 216 113 171 216 113 171 216 113 171 216 113 171 216 244 243 242 
113 171 216 113 171 216 113 171 216 113 171 216 113 171 216 113 171 216 113 171 216 113 171 216 113 171 216 113 171 216 113 171 216 113 171 216 113 171 216 113 171 216 113 171 216 113 171 216 113 171 216 113 171 216 113 171 216 113 171 216 113 171 216 113 171 216 113 171 216 113 171 216 113 171 216 113 171 216 113 171 216 113 171 216 113 171 216 113 171 216 113 171 216 113 171 216 113 171 216 113 171 216 113 171 216 113 171 216 113 171 216 0 401 0 113 171 216 0 401 0 0 401 0 0 401 0 0 401 0 0 401 0 0 401 0 0 401 0 0 401 0 0 401 0 0 401 0 0 401 0 0 401 0 0 401 0 0 401 0 0 401 0 0 401 0 0 401 0 0 401 0 0 401 0 0 401 0 0 401 0 0 401 0 0 401 0 0 401 0 0 401 0 0 401 0 0 401 0 0 401 0 0 401 0 0 401 0 0 401 0 0 401 0 0 401 0 0 401 0 0 401 0 0 401 0 0 401 0 0 401 0 0 401 0 0 401 0 0 401 0 0 401 0 0 401 0 113 171 216 113 171 216 113 171 216 113 171 216 113 171 216 113 171 216 113 171 216 113 171 216 113 171 216 113 171 216 113 171 216 113 171 216 113 171 216 113 171 216 113 171 216 113 171 216 113 171 216 113 171 216 113 171 216 113 171 216 113 171 216 113 171 216 113 171 216 113 171 216 113 171 216 113 171 216 113 171 216 113 171 216 113 171 216 113 171 216 113 171 216 113 171 216 113 171 216 113 171 216 113 171 216 113 171 216 113 171 216 113 171 216 113 171 216 56 85 108 113 171 216 113 171 216 113 171 216 113 171 216 113 171 216 113 171 216 113 171 216 
113 171 216 113 171 216 113 171 216 113 171 216 113 171 216 113 171 216 113 171 216 113 171 216 113 171 216 113 171 216 113 171 216 113 171 216 113 171 216 113 171 216 113 171 216 113 171 216 113 171 216 113 171 216 113 171 216 113 171 216 113 171 216 113 171 216 113 171 216 113 171 216 113 171 216 113 171 216 113 171 216 113 171 216 113 171 216 113 171 216 113 171 216 113 171 216 0 200 0 113 171 216 0 200 0 113 171 216 0 200 0 0 200 0 0 401 0 113 171 216 0 401 0 0 401 0 0 200 0 0 200 0 0 200 0 0 200 0 0 401 0 0 401 0 0 401 0 0 401 0 0 401 0 0 401 0 0 401 0 0 401 0 0 200 0 0 401 0 0 401 0 0 401 0 0 401 0 0 401 0 0 401 0 0 401 0 0 200 0 0 401 0 0 200 0 0 401 0 0 200 0 0 401 0 0 200 0 0 401 0 0 200 0 0 401 0 0 200 0 0 401 0 0 401 0 0 200 0 0 401 0 0 401 0 0 401 0 0 401 0 0 401 0 0 401 0 0 401 0 113 171 216 113 171 216 113 171 216 0 200 0 113 171 216 113 171 216 113 171 216 113 171 216 113 171 216 113 171 216 113 171 216 113 171 216 113 171 216 113 171 216 113 171 216 113 171 216 113 171 216 113 171 216 113 171 216 113 171 216 113 171 216 113 171 216 113 171 216 113 171 216 113 171 216 113 171 216 113 171 216 113 171 216 113 171 216 113 171 216 113 171 216 113 171 216 113 171 216 113 171 216 113 171 216 113 171 216 113 171 216 113 171 216 113 171 216 113 171 216 113 171 216 113 171 216 113 171 216 113 171 216 113 171 216 113 171 216 
113 171 216 113 171 216 113 171 216 113 171 216 113 171 216 113 171 216 113 171 216 113 171 216 113 171 216 113 171 216 113 171 216 113 171 216 113 171 216 113 171 216 113 171 216 113 171 216 113 171 216 113 171 216 113 171 216 113 171 216 113 171 216 113 171 216 113 171 216 113 171 216 113 171 216 113 171 216 113 171 216 113 171 216 113 171 216 113 171 216 113 171 216 113 171 216 113 171 216 113 171 216 113 171 216 0 401 0 0 200 0 0 401 0 113 171 216 0 401 0 0 200 0 0 401 0 0 401 0 0 401 0 0 200 0 0 401 0 0 401 0 0 401 0 0 401 0 0 401 0 0 401 0 0 401 0 0 401 0 0 401 0 0 401 0 0 401 0 0 401 0 0 401 0 0 401 0 0 401 0 0 200 0 0 401 0 0 401 0 0 401 0 0 200 0 0 401 0 0 401 0 0 401 0 0 200 0 0 401 0 0 401 0 0 401 0 0 401 0 0 401 0 0 401 0 0 401 0 0 401 0 0 401 0 0 401 0 0 401 0 0 401 0 0 401 0 0 401 0 0 401 0 113 171 216 113 171 216 113 171 216 113 171 216 113 171 216 113 171 216 113 171 216 113 171 216 113 171 216 113 171 216 113 171 216 113 171 216 113 171 216 113 171 216 113 171 216 113 171 216 113 171 216 113 171 216 113 171 216 113 171 216 113 171 216 113 171 216 113 171 216 113 171 216 113 171 216 113 171 216 113 171 216 113 171 216 113 171 216 113 171 216 113 171 216 113 171 216 113 171 216 113 171 216 113 171 216 113 171 216 113 171 216 113 171 216 113 171 216 113 171 216 113 171 216 113 171 216 113 171 216 113 171 216 113 171 216 
113 171 216 113 171 216 113 171 216 113 171 216 113 171 216 113 171 216 113 171 216 113 171 216 113 171 216 113 171 216 113 171 216 113 171 216 113 171 216 113 171 216 113 171 216 113 171 216 113 171 216 113 171 216 113 171 216 113 171 216 0 200 0 113 171 216 113 171 216 113 171 216 113 171 216 113 171 216 113 171 216 113 171 216 0 200 0 113 171 216 113 171 216 113 171 216 0 200 0 113 171 216 0 200 0 0 200 0 0 200 0 0 401 0 0 401 0 0 200 0 0 200 0 0 401 0 0 200 0 0 200 0 0 200 0 0 401 0 0 401 0 0 401 0 0 200 0 0 401 0 0 401 0 0 401 0 0 200 0 0 401 0 0 401 0 0 401 0 0 200 0 0 401 0 0 401 0 0 401 0 0 200 0 0 401 0 0 200 0 0 200 0 0 200 0 0 401 0 0 401 0 0 200 0 0 200 0 0 401 0 0 401 0 0 401 0 0 200 0 0 401 0 0 401 0 0 200 0 0 200 0 0 401 0 0 401 0 0 401 0 0 200 0 0 401 0 0 401 0 0 401 0 0 200 0 113 171 216 0 200 0 113 171 216 0 200 0 113 171 216 113 171 216 113 171 216 113 171 216 113 171 216 113 171 216 113 171 216 113 171 216 113 171 216 113 171 216 113 171 216 0 200 0 113 171 216 113 171 216 113 171 216 113 171 216 113 171 216 113 171 216 113 171 216 0 200 0 113 171 216 113 171 216 113 171 216 113 171 216 113 171 216 113 171 216 113 171 216 113 171 216 113 171 216 113 171 216 113 171 216 113 171 216 113 171 216 113 171 216 113 171 216 113 171 216 113 171 216 113 171 216 113 171 216 113 171 216 
113 171 216 113 171 216 113 171 216 113 171 216 113 171 216 113 171 216 113 171 216 113 171 216 113 171 216 113 171 216 113 171 216 113 171 216 113 171 216 113 171 216 113 171 216 113 171 216 113 171 216 113 171 216 113 171 216 113 171 216 113 171 216 113 171 216 113 171 216 113 171 216 113 171 216 113 171 216 113 171 216 113 171 216 113 171 216 113 171 216 113 171 216 113 171 216 113 171 216 0 401 0 0 200 0 0 401 0 0 401 0 0 401 0 0 401 0 0 401 0 0 401 0 0 401 0 0 200 0 0 401 0 0 401 0 0 401 0 0 401 0 0 401 0 0 401 0 0 401 0 0 401 0 0 401 0 0 401 0 0 401 0 0 401 0 0 401 0 0 401 0 0 401 0 0 401 0 0 401 0 0 401 0 0 401 0 0 401 0 0 401 0 0 401 0 0 401 0 0 401 0 0 401 0 0 401 0 0 401 0 0 401 0 0 401 0 0 401 0 0 401 0 0 401 0 0 401 0 0 401 0 0 401 0 0 401 0 0 401 0 0 401 0 0 401 0 0 401 0 0 401 0 0 401 0 0 401 0 113 171 216 113 171 216 113 171 216 113 171 216 113 171 216 113 171 216 113 171 216 113 171 216 113 171 216 113 171 216 113 171 216 113 171 216 113 171 216 113 171 216 113 171 216 113 171 216 113 171 216 113 171 216 113 171 216 113 171 216 113 171 216 113 171 216 113 171 216 113 171 216 113 171 216 113 171 216 113 171 216 113 171 216 113 171 216 113 171 216 113 171 216 113 171 216 113 171 216 113 171 216 113 171 216 113 171 216 113 171 216 113 171 216 113 171 216 113 171 216 113 171 216 113 171 216 113 171 216 
113 171 216 113 171 216 113 171 216 113 171 216 113 171 216 113 171 216 113 171 216 113 171 216 113 171 216 113 171 216 113 171 216 113 171 216 113 171 216 113 171 216 113 171 216 113 171 216 113 171 216 113 171 216 113 171 216 113 171 216 113 171 216 113 171 216 113 171 216 113 171 216 113 171 216 113 171 216 0 200 0 113 171 216 0 200 0 113 171 216 0 200 0 113 171 216 0 200 0 0 200 0 0 200 0 0 401 0 0 200 0 0 401 0 0 200 0 0 401 0 0 200 0 0 200 0 0 200 0 0 401 0 0 200 0 0 401 0 0 401 0 0 401 0 0 200 0 0 401 0 0 200 0 0 401 0 0 200 0 0 401 0 0 200 0 0 401 0 0 401 0 0 401 0 0 401 0 0 401 0 0 401 0 0 401 0 0 200 0 0 200 0 0 200 0 0 401 0 0 200 0 0 401 0 0 401 0 0 401 0 0 401 0 0 401 0 0 200 0 0 401 0 0 200 0 0 401 0 0 401 0 0 401 0 0 401 0 0 401 0 0 401 0 0 401 0 0 200 0 0 401 0 0 401 0 0 401 0 0 401 0 113 171 216 113 171 216 113 171 216 113 171 216 113 171 216 113 171 216 113 171 216 113 171 216 113 171 216 113 171 216 113 171 216 113 171 216 113 171 216 113 171 216 113 171 216 113 171 216 113 171 216 113 171 216 113 171 216 113 171 216 113 171 216 113 171 216 113 171 216 113 171 216 113 171 216 113 171 216 113 171 216 113 171 216 113 171 216 113 171 216 113 171 216 113 171 216 113 171 216 113 171 216 113 171 216 113 171 216 113 171 216 113 171 216 113 171 216 113 171 216 113 171 216 113 171 216 
113 171 216 113 171 216 113 171 216 113 171 216 113 171 216 113 171 216 113 171 216 113 171 216 113 171 216 113 171 216 113 171 216 113 171 216 113 171 216 113 171 216 113 171 216 113 171 216 113 171 216 113 171 216 113 171 216 113 171 216 113 171 216 113 171 216 113 171 216 113 171 216 113 171 216 0 200 0 0 200 0 0 401 0 0 200 0 0 401 0 0 200 0 0 401 0 0 200 0 0 200 0 0 200 0 0 401 0 0 200 0 0 401 0 0 200 0 0 401 0 0 200 0 0 401 0 0 401 0 0 401 0 0 401 0 0 401 0 0 401 0 0 401 0 0 200 0 0 401 0 0 401 0 0 401 0 0 401 0 0 401 0 0 401 0 0 401 0 0 401 0 0 401 0 0 200 0 0 401 0 0 401 0 0 401 0 0 401 0 0 401 0 0 401 0 0 401 0 0 401 0 0 401 0 0 401 0 0 401 0 0 401 0 0 401 0 0 200 0 0 401 0 0 401 0 0 401 0 0 401 0 0 401 0 0 401 0 0 401 0 0 401 0 0 401 0 0 401 0 0 401 0 0 401 0 0 401 0 113 171 216 113 171 216 113 171 216 113 171 216 113 171 216 113 171 216 113 171 216 113 171 216 113 171 216 113 171 216 113 171 216 113 171 216 113 171 216 113 171 216 113 171 216 113 171 216 113 171 216 113 171 216 113 171 216 113 171 216 113 171 216 113 171 216 113 171 216 113 171 216 113 171 216 113 171 216 113 171 216 113 171 216 113 171 216 113 171 216 113 171 216 113 171 216 113 171 216 113 171 216 113 171 216 113 171 216 113 171 216 113 171 216 113 171 216 113 171 216 113 171 216 113 171 216 113 171 216 
113 171 216 113 171 216 113 171 216 113 171 216 113 171 216 113 171 216 113 171 216 113 171 216 113 171 216 113 171 216 113 171 216 113 171 216 113 171 216 113 171 216 113 171 216 113 171 216 0 200 0 113 171 216 113 171 216 113 171 216 0 200 0 113 171 216 113 171 216 113 171 216 0 200 0 0 200 0 0 401 0 0 401 0 0 200 0 0 401 0 0 401 0 0 401 0 0 200 0 0 200 0 0 401 0 0 401 0 0 200 0 0 401 0 0 200 0 0 200 0 0 200 0 0 200 0 0 200 0 0 401 0 0 401 0 0 401 0 0 200 0 0 200 0 0 200 0 0 401 0 0 401 0 0 401 0 0 200 0 0 401 0 0 401 0 0 401 0 0 200 0 0 401 0 0 401 0 0 401 0 0 200 0 0 401 0 0 200 0 0 200 0 0 200 0 0 401 0 0 401 0 0 401 0 0 200 0 0 401 0 0 401 0 0 401 0 0 200 0 0 401 0 0 401 0 0 401 0 0 200 0 0 401 0 0 401 0 0 401 0 0 200 0 0 401 0 0 200 0 0 401 0 0 200 0 0 401 0 0 401 0 113 171 216 0 200 0 113 171 216 113 171 216 113 171 216 113 171 216 113 171 216 113 171 216 113 171 216 0 200 0 113 171 216 113 171 216 113 171 216 0 200 0 113 171 216 0 200 0 113 171 216 0 200 0 113 171 216 0 200 0 113 171 216 0 200 0 113 171 216 113 171 216 113 171 216 0 200 0 113 171 216 113 171 216 113 171 216 113 171 216 113 171 216 113 171 216 113 171 216 113 171 216 113 171 216 113 171 216 113 171 216 113 171 216 113 171 216 113 171 216 113 171 216 113 171 216 
113 171 216 113 171 216 113 171 216 113 171 216 113 171 216 113 171 216 113 171 216 113 171 216 113 171 216 113 171 216 113 171 216 113 171 216 113 171 216 113 171 216 113 171 216 113 171 216 113 171 216 113 171 216 113 171 216 113 171 216 113 171 216 113 171 216 113 171 216 0 200 0 0 200 0 0 401 0 0 401 0 0 401 0 0 401 0 0 401 0 0 401 0 0 401 0 0 200 0 0 401 0 0 401 0 0 401 0 0 401 0 0 401 0 0 401 0 0 401 0 0 401 0 0 401 0 0 401 0 0 401 0 0 401 0 0 401 0 0 401 0 0 401 0 0 401 0 0 401 0 0 401 0 0 401 0 0 401 0 0 401 0 0 401 0 0 401 0 0 401 0 0 401 0 0 401 0 0 401 0 0 401 0 0 401 0 0 401 0 0 401 0 0 401 0 0 401 0 0 401 0 0 401 0 0 401 0 0 401 0 0 401 0 0 401 0 0 401 0 0 401 0 0 401 0 0 401 0 0 401 0 0 401 0 0 401 0 0 401 0 0 401 0 0 401 0 0 200 0 0 401 0 0 401 0 0 401 0 113 171 216 113 171 216 113 171 216 113 171 216 113 171 216 113 171 216 113 171 216 113 171 216 113 171 216 113 171 216 113 171 216 113 171 216 113 171 216 113 171 216 113 171 216 0 401 0 113 171 216 0 401 0 0 200 0 0 401 0 113 171 216 113 171 216 113 171 216 113 171 216 113 171 216 113 171 216 113 171 216 113 171 216 113 171 216 113 171 216 113 171 216 113 171 216 113 171 216 113 171 216 113 171 216 113 171 216 113 171 216 113 171 216 113 171 216 113 171 216 113 171 216 113 171 216 113 171 216 
113 171 216 113 171 216 113 171 216 113 171 216 113 171 216 113 171 216 113 171 216 113 171 216 113 171 216 113 171 216 113 171 216 113 171 216 113 171 216 113 171 216 113 171 216 113 171 216 0 200 0 113 171 216 0 200 0 113 171 216 113 171 216 113 171 216 0 200 0 113 171 216 0 401 0 0 401 0 0 200 0 0 401 0 0 200 0 0 401 0 0 200 0 0 401 0 0 200 0 0 401 0 0 200 0 0 401 0 0 200 0 0 401 0 0 200 0 0 401 0 0 401 0 0 401 0 0 401 0 0 401 0 0 401 0 0 401 0 0 200 0 0 401 0 0 401 0 0 401 0 0 401 0 0 401 0 0 401 0 0 401 0 0 200 0 0 401 0 0 401 0 0 401 0 0 401 0 0 200 0 0 401 0 0 401 0 0 200 0 0 200 0 0 401 0 0 401 0 0 401 0 0 401 0 0 401 0 0 401 0 0 200 0 0 401 0 0 401 0 0 401 0 0 401 0 0 401 0 0 401 0 0 401 0 0 200 0 0 401 0 0 401 0 0 200 0 0 200 0 0 401 0 0 401 0 0 401 0 0 401 0 113 171 216 0 200 0 113 171 216 0 200 0 113 171 216 113 171 216 113 171 216 113 171 216 113 171 216 113 171 216 113 171 216 0 200 0 113 171 216 0 200 0 0 200 0 0 401 0 0 200 0 0 401 0 113 171 216 0 401 0 113 171 216 0 200 0 113 171 216 0 200 0 113 171 216 0 200 0 113 171 216 113 171 216 113 171 216 113 171 216 113 171 216 113 171 216 113 171 216 113 171 216 113 171 216 113 171 216 113 171 216 113 171 216 113 171 216 113 171 216 113 171 216 113 171 216 
113 171 216 113 171 216 113 171 216 113 171 216 113 171 216 113 171 216 113 171 216 113 171 216 113 171 216 113 171 216 113 171 216 113 171 216 113 171 216 113 171 216 113 171 216 113 171 216 113 171 216 113 171 216 113 171 216 113 171 216 113 171 216 113 171 216 113 171 216 0 401 0 0 200 0 0 401 0 0 401 0 0 401 0 0 200 0 0 401 0 0 200 0 0 401 0 0 200 0 0 200 0 0 401 0 0 401 0 0 200 0 0 401 0 0 401 0 0 401 0 0 200 0 0 401 0 0 401 0 0 401 0 0 401 0 0 401 0 0 401 0 0 401 0 0 401 0 0 401 0 0 401 0 0 401 0 0 401 0 0 401 0 0 401 0 0 401 0 0 401 0 0 401 0 0 401 0 0 401 0 0 401 0 0 401 0 0 401 0 0 401 0 0 401 0 0 401 0 0 401 0 0 401 0 0 200 0 0 401 0 0 401 0 0 401 0 0 401 0 0 401 0 0 401 0 0 401 0 0 200 0 0 401 0 0 200 0 0 401 0 0 401 0 0 401 0 0 401 0 0 401 0 0 401 0 0 401 0 0 401 0 0 401 0 0 200 0 0 401 0 113 171 216 113 171 216 113 171 216 113 171 216 113 171 216 113 171 216 113 171 216 113 171 216 113 171 216 0 401 0 0 200 0 0 401 0 113 171 216 0 401 0 0 401 0 0 401 0 0 200 0 0 401 0 0 200 0 0 401 0 113 171 216 113 171 216 113 171 216 113 171 216 113 171 216 113 171 216 113 171 216 113 171 216 113 171 216 113 171 216 113 171 216 113 171 216 113 171 216 113 171 216 113 171 216 113 171 216 113 171 216 113 171 216 113 171 216 
113 171 216 113 171 216 113 171 216 113 171 216 113 171 216 113 171 216 113 171 216 113 171 216 113 171 216 113 171 216 113 171 216 113 171 216 0 200 0 113 171 216 113 171 216 113 171 216 0 200 0 113 171 216 113 171 216 113 171 216 0 200 0 113 171 216 0 200 0 0 200 0 0 200 0 0 401 0 0 401 0 0 401 0 0 200 0 0 401 0 0 200 0 0 200 0 0 200 0 0 200 0 0 401 0 0 200 0 0 200 0 0 401 0 0 401 0 0 200 0 0 200 0 0 401 0 0 401 0 0 200 0 0 200 0 0 401 0 0 401 0 0 401 0 0 200 0 0 401 0 0 401 0 0 401 0 0 200 0 0 401 0 0 401 0 0 401 0 0 401 0 0 401 0 0 200 0 0 200 0 0 200 0 0 200 0 0 200 0 0 401 0 0 401 0 0 401 0 0 200 0 0 200 0 0 200 0 0 401 0 0 401 0 0 401 0 0 200 0 0 401 0 0 401 0 0 200 0 0 200 0 0 401 0 0 401 0 0 401 0 0 200 0 0 401 0 0 200 0 0 401 0 0 200 0 0 401 0 0 401 0 0 401 0 0 200 0 0 401 0 0 401 0 0 200 0 0 200 0 113 171 216 0 200 0 113 171 216 0 200 0 113 171 216 0 200 0 0 200 0 0 200 0 0 401 0 0 401 0 0 200 0 0 200 0 0 401 0 0 401 0 0 401 0 0 200 0 0 401 0 0 401 0 113 171 216 0 200 0 113 171 216 113 171 216 113 171 216 0 200 0 113 171 216 113 171 216 113 171 216 113 171 216 113 171 216 113 171 216 113 171 216 113 171 216 113 171 216 113 171 216 113 171 216 113 171 216 
113 171 216 113 171 216 113 171 216 113 171 216 113 171 216 113 171 216 113 171 216 113 171 216 113 171 216 113 171 216 113 171 216 113 171 216 113 171 216 113 171 216 113 171 216 113 171 216 113 171 216 113 171 216 113 171 216 113 171 216 113 171 216 113 171 216 113 171 216 0 401 0 0 401 0 0 401 0 0 401 0 0 200 0 0 200 0 0 401 0 0 200 0 0 401 0 0 401 0 0 401 0 0 401 0 0 401 0 0 401 0 0 401 0 0 401 0 0 401 0 0 401 0 0 401 0 0 401 0 0 401 0 0 401 0 0 401 0 0 401 0 0 401 0 0 401 0 0 401 0 0 401 0 0 401 0 0 401 0 0 401 0 0 401 0 0 401 0 0 401 0 0 401 0 0 200 0 0 200 0 0 200 0 0 401 0 0 401 0 0 401 0 0 200 0 0 401 0 0 200 0 0 401 0 0 401 0 0 401 0 0 401 0 0 401 0 0 401 0 0 401 0 0 401 0 0 401 0 0 401 0 0 401 0 0 401 0 0 401 0 0 401 0 0 401 0 0 401 0 0 401 0 0 401 0 0 401 0 0 401 0 0 401 0 0 401 0 0 401 0 0 401 0 0 401 0 0 401 0 0 401 0 0 200 0 0 401 0 113 171 216 113 171 216 113 171 216 0 401 0 0 401 0 0 401 0 0 401 0 0 401 0 0 401 0 0 401 0 0 401 0 0 401 0 0 401 0 0 401 0 0 401 0 0 401 0 113 171 216 113 171 216 113 171 216 113 171 216 113 171 216 113 171 216 113 171 216 113 171 216 113 171 216 113 171 216 113 171 216 113 171 216 113 171 216 113 171 216 113 171 216 113 171 216 113 171 216 
113 171 216 113 171 216 113 171 216 113 171 216 113 171 216 113 171 216 113 171 216 113 171 216 113 171 216 113 171 216 113 171 216 113 171 216 113 171 216 113 171 216 0 200 0 113 171 216 0 200 0 113 171 216 0 200 0 113 171 216 0 200 0 113 171 216 0 200 0 113 171 216 0 401 0 0 401 0 0 200 0 0 200 0 0 200 0 0 200 0 0 200 0 0 401 0 0 200 0 0 401 0 0 200 0 0 401 0 0 200 0 0 401 0 0 200 0 0 401 0 0 200 0 0 401 0 0 200 0 0 401 0 0 401 0 0 401 0 0 401 0 0 401 0 0 401 0 0 401 0 0 401 0 0 401 0 0 401 0 113 171 216 0 401 0 113 171 216 0 401 0 0 401 0 0 200 0 0 200 0 0 200 0 0 401 0 0 200 0 0 401 0 0 200 0 0 401 0 0 200 0 0 401 0 0 401 0 0 401 0 0 200 0 0 401 0 0 401 0 0 401 0 0 401 0 0 401 0 0 401 0 0 401 0 0 200 0 0 401 0 0 401 0 0 401 0 0 401 0 0 401 0 0 401 0 0 401 0 0 200 0 0 401 0 0 200 0 0 401 0 0 200 0 0 401 0 0 200 0 0 401 0 0 200 0 0 401 0 0 401 0 113 171 216 0 200 0 113 171 216 0 401 0 0 401 0 0 200 0 0 401 0 0 200 0 0 401 0 0 200 0 0 401 0 0 200 0 0 401 0 0 200 0 0 401 0 0 401 0 113 171 216 0 200 0 113 171 216 113 171 216 113 171 216 113 171 216 113 171 216 113 171 216 113 171 216 113 171 216 113 171 216 113 171 216 113 171 216 113 171 216 113 171 216 113 171 216 
113 171 216 113 171 216 113 171 216 113 171 216 113 171 216 113 171 216 113 171 216 113 171 216 113 171 216 113 171 216 113 171 216 113 171 216 113 171 216 113 171 216 113 171 216 0 401 0 0 200 0 0 401 0 0 200 0 0 401 0 0 200 0 0 401 0 0 200 0 0 401 0 0 200 0 0 200 0 0 200 0 0 401 0 0 401 0 0 401 0 0 401 0 0 401 0 0 200 0 0 401 0 0 200 0 0 401 0 0 200 0 0 401 0 0 401 0 0 401 0 0 200 0 0 401 0 0 401 0 0 401 0 0 401 0 0 401 0 0 401 0 0 401 0 0 401 0 0 401 0 0 401 0 0 401 0 0 401 0 0 401 0 113 171 216 0 401 0 0 200 0 0 200 0 0 200 0 0 401 0 0 401 0 0 401 0 0 401 0 0 401 0 0 200 0 0 401 0 0 401 0 0 401 0 0 401 0 0 401 0 0 401 0 0 401 0 0 401 0 0 401 0 0 401 0 0 401 0 0 401 0 0 401 0 0 401 0 0 401 0 0 401 0 0 401 0 0 401 0 0 401 0 0 401 0 0 401 0 0 200 0 0 401 0 0 200 0 0 401 0 0 401 0 0 401 0 0 401 0 0 401 0 0 401 0 0 401 0 0 401 0 0 401 0 0 200 0 0 401 0 0 200 0 0 401 0 0 401 0 0 401 0 0 200 0 0 401 0 0 401 0 0 401 0 0 401 0 0 401 0 0 401 0 0 401 0 0 401 0 0 401 0 113 171 216 113 171 216 113 171 216 113 171 216 113 171 216 113 171 216 113 171 216 113 171 216 113 171 216 113 171 216 113 171 216 113 171 216 113 171 216 113 171 216 113 171 216 
113 171 216 113 171 216 113 171 216 113 171 216 113 171 216 113 171 216 113 171 216 113 171 216 0 200 0 113 171 216 113 171 216 113 171 216 0 200 0 113 171 216 0 200 0 0 200 0 0 200 0 0 401 0 0 401 0 0 401 0 0 200 0 0 401 0 0 200 0 0 401 0 0 200 0 0 200 0 0 401 0 0 401 0 0 200 0 0 200 0 0 200 0 0 200 0 0 200 0 0 401 0 0 401 0 0 401 0 0 200 0 0 401 0 0 401 0 0 200 0 0 200 0 0 401 0 0 401 0 0 401 0 0 200 0 0 401 0 0 401 0 0 401 0 0 200 0 0 401 0 0 401 0 0 401 0 0 200 0 0 401 0 0 401 0 0 200 0 0 200 0 0 200 0 0 200 0 0 200 0 0 200 0 0 200 0 0 401 0 0 200 0 0 200 0 0 401 0 0 401 0 0 401 0 0 200 0 0 401 0 0 200 0 0 401 0 0 200 0 0 401 0 0 401 0 0 200 0 0 200 0 0 401 0 0 200 0 0 200 0 0 200 0 0 401 0 0 401 0 0 401 0 0 200 0 0 401 0 0 401 0 0 401 0 0 200 0 0 401 0 0 401 0 0 401 0 0 200 0 0 401 0 0 200 0 0 401 0 0 200 0 0 401 0 0 200 0 0 401 0 0 200 0 0 401 0 0 200 0 0 200 0 0 200 0 0 401 0 0 401 0 0 401 0 0 200 0 0 401 0 0 401 0 0 401 0 0 200 0 0 401 0 0 401 0 113 171 216 0 200 0 113 171 216 113 171 216 113 171 216 113 171 216 113 171 216 113 171 216 113 171 216 113 171 216 113 171 216 113 171 216 113 171 216 113 171 216 
